ncols         58
nrows         32
xllcorner     -88.230598449707
yllcorner     30.2534961700439
cellsize      0.03785016015172
NODATA_value  -9999
0.0 0 0 0 0 0 0 0 0 0 0 0 0 0 0 0 0 0 0 0 0 0 0 0 0 0 0 0 0 0 0 0 0 0 0 0 0 0 0 0 0 0 0 0 0 0 0 0 0 0 0 0 0 0 0 0 0 0
0 0 0 0 0 0 0 0 0 0 0 0 0 0 0 0 0 0 0 0 0 0 0 0 0 0 0 0.0569447 0.3002599 0 0 0 0 0 0 0 0 0 0 0 0 0 0 0 0.03621306 0 0 0 0 0 0 0 0 0 0 0 0 0
0 0 0 0 0 0 0 0 0 0 0.06985186 0 0 0 0 0 0 0 0 0 0 0 0 0 0 0 0 0 0 0 0 0 0 0 0 0 0 0 0 0 0 0 0 0 0 0 0 0 0 0 0 0 0 0 0 0 0 0
0 0 0 0 0 0.2213579 0 0 0 0 0 0 0 0 0 0 0 0 0 0 0 0 0 0 0 0 0 0.03025537 0.2052376 0.459962 0.2338341 0.5015591 0.3002408 0.2754869 0.5131272 0.5060829 0.3162972 0.4535356 0.5501646 0.4997188 0.659682 0.5689334 0.3092193 0.1305864 0 1 1 1 0 0 0 1 0 0 0 0 0 0
0 0 0 0 0 0 0 0 0 0.00134856 0 0 0 0 0 0 0 0 0 0 0 0.1950974 0.1489997 0.04095699 0.2911948 0.4002998 0.3994412 0.4175343 0.2783257 0.2335595 0.4117711 0.2392083 0.08690923 0.1969676 0.3232254 0.2054201 0.5300543 0.5540888 0.5096528 0.3828206 0.3751304 0.3640518 0.5601005 0.4014047 0.4938784 0.3352631 0.4969519 1 0 1 1 1 1 1 1 0 0 0
0.02869853 0 0 0 0 0 0 0 0.00154123 0 0 0 0 0 0 0 0 0 0.08789466 0.1236136 0.2611353 0.1502994 0.4547266 0.5738329 0.1507707 0.4689039 0.4356657 0.4435745 0.2834174 0.1583057 0.2035679 0.1574064 0.2713037 0.3987047 0.235342 0.2642367 0.4809031 0.7192465 0.1663856 0.5557043 0.4010578 0.4723463 0.5197623 0.5072882 0.2884277 0.5673828 0.412464 0.2847335 0.1165901 0 1 0.1048923 1 1 0 1 1 0
0.00301307 0 0.1898245 0.00589503 0.00563019 0.0065418 0.00428175 0.00405341 0.00929864 0 0 0.04051124 0.04665003 0.08297861 0.1894206 0.06195892 0.04206443 0.02516409 0.4720641 0.4242815 0.3199032 0.4669561 0.2750099 0.2959112 0.3658297 0.278602 0.3568428 0.2984318 0.4302351 0.3528527 0.4274486 0.3102482 0.4528725 0.09606376 0.3777621 0.3208365 0.3753321 0.2835675 0.5683659 0.2963452 0.3848062 0.4211213 0.5031159 0.4985994 0.8762203 0.5170452 0.2730812 0.6711386 0.6711189 0.6678128 0.1510442 1 1 1 0 0 1 1
0 0.05873132 0.03587584 0.1085489 0.1267061 0.01539596 0.00497481 0.00292166 0.02915371 0.02865409 0.06746775 0.00633698 0.02043805 0.07870698 0.3399693 0.2333963 0.07075113 0.1946288 0.3358665 0.4702404 0.3955988 0.4035321 0.3492987 0.4357477 0.3089032 0.4797448 0.406645 0.2573218 0.2985989 0.5666115 0.3483978 0.2576984 0.4957683 0.05887745 0.3458891 0.1732758 0.3373961 0.4895697 0.4419903 0.3386944 0.6581615 0.3534763 0.4894461 0.2453757 0.4118168 0.5110492 0.5203263 0.6987751 0.4724215 0.6325641 0.6891349 0.5083591 0.3451309 0 3.642E-05 0 0 1
0 0.1048077 0.07688678 0.1322765 0.0469969 0.08859995 0.127362 0.02384054 0.1057431 0.06942624 0.01198088 0.06888619 0.04264307 0.04837902 0.00971769 0.06808155 0.1076164 0.1647645 0.3638863 0.4664886 0.5419755 0.2248292 0.3245275 0.2390449 0.173164 0.2905189 0.1957536 0.4197274 0.807165 0.8871569 0.2579662 0.4716341 0.0311418 0.3005162 0.8936478 0.2307908 0.8988642 0.9646869 0.2445952 0.895864 0.5439558 0.4458308 0.3271562 0.6084412 0.4629216 0.4330131 0.5702453 0.5295155 0.4826554 0.5337071 0.3485968 0.4621234 0.1012757 0 0.2700697 1 0 0
0.1883313 0.1439939 0.01082883 0.0738287 0.09615403 0.1729898 0.309969 0.1271534 0.4546701 0.02473666 0.134347 0.07642462 0.02287484 0.01995132 0 0.01538938 0.2073911 0.1997852 0.815176 0.2985505 0.2833138 0.148317 0.2212548 0.2866226 0.395301 0.4653913 0.4183913 0.9086753 0.4400026 0.02535926 0.00597072 0.00847812 0 0.01509283 0.1165664 0.5887275 0.5917811 0.8789417 0.7760639 0.9327998 0.6317506 0.7033372 0.857222 0.891454 0.7477926 0.5584762 0.6238425 0.5318284 0.4538098 0.4936237 0.4066425 0.2445731 0.3022918 0.3837357 0.2786815 0.301194 0 0
0.08855393 0.4097974 0.1238494 0.2305745 0.08987014 0.009341639 0.01757217 0.102131 0.2061946 0.05701639 0.00640652 0.0473513 0.07995187 0.1999933 0.00661467 0.07717962 0.2530484 0.4699365 0.9258279 0.4481058 0.250569 0.1236181 0.1441535 0.1969182 0.4249205 0.7902957 0.4284075 0.6224493 0.7646719 0.01401732 0.01994072 0.00048048 0.00016411 0.00037438 0.00146404 0.00274777 0.4858665 0.432736 0.9906044 0.5976006 0.1110332 0.5709658 0.9670322 0.7113557 0.8801687 0.519516 0.1293598 0.2278198 0.4094445 0.5022455 0.2183772 0.2181327 0.4789595 0.367125 0.3033844 0.2744686 0.03340171 0
0.04042978 0.02069612 0.1284284 0.05430771 0.04140785 0.06127792 0.00740445 0.00386399 0.1633263 0.0444523 0.2926306 0.2839679 0.2426019 0.1954187 0.04728513 0.04913678 0.2487539 0.771004 0.9069467 0.4240977 0.256 0.07046367 0.07837809 0.09832859 0.3601871 0.4869688 0.3799406 0.3258636 0.2995199 0.5904196 0.06546191 0.00711492 0.00063656 0.0002526 0.00266152 0.00499793 0.05341096 0.5622207 0.8847831 0.8159572 0.4325755 0.3008714 0.6304747 0.775601 0.8043472 0.2147382 0.4654139 0.8505369 0.2375066 0.3799441 0.5354584 0.2301362 0.2257534 0.4731822 0.6697429 0.5732074 0.147761 0.27
0.02915001 0.01687544 0.1057618 0.06743331 0.01513219 0.03481052 0.05601268 0.01255844 0.1398492 0.02812469 0.03220505 0.1314258 0.07918403 0.0583034 0.06395459 0.02199563 0.05287643 0.1116239 0.7146903 0.5858111 0.04457639 0.1862073 0.2956646 0.3004835 0.2075607 0.4602685 0.6392119 0.00785946 0.00668299 0.05880236 0.03682914 0.00937638 0.00097926 0.00032654 0.00347768 0.00573868 0.0184847 0.01961548 0.3142586 0.4846902 0.4594642 0.3370436 0.0902791 0.00452222 0.05555892 0.5301869 0.09674654 0.6904966 0.3877428 0.1766701 0.325993 0.07057597 0.3996175 0.5412796 0.3325512 0.377709 0.3749684 0.08871572
0.04007413 0.1111271 0.03857647 0.04371744 0.04309076 0.617805 0.6316954 0.01392203 0.1612474 0.05162044 0.05829141 0.3030339 0.222641 0.09811177 0.1636941 0.04005838 0.1062568 0.3484675 0.8578635 0.4887421 0.188024 0.2492007 0.2917453 0.01383063 0.01414322 0.2419209 0.00093184 0.04353401 0.00705484 0.00056101 0.00079208 0.00550129 0.00987123 0.00960098 0.00433326 0.00328016 0.01007325 0.01167879 0.1836558 0.4735692 0.4753075 0.1857435 0.04341919 0.00879977 0.3224261 0.09662055 0.2708822 0.5777648 0.3572658 0.3977411 0.2789129 0.2285939 0.06733195 0.2197946 0.4473022 0.5673044 0.4497033 0.07199019
0.05934118 0.09945899 0.00927578 0.00660843 0.00149306 0.02744387 0.1253629 0 0.03841279 0.1016309 0.5327613 0.5649682 0.02358217 0.03253371 0.00777224 0.017093 0.1607058 0.4658027 0.6139495 0.2911488 0.09009174 0.2182428 0.00492401 0.00592238 0.01546585 0.02806283 0.00580895 0.0054853 3.665E-05 0.00566508 0.00065547 0.00031324 0.00997683 0.00997607 0.009590659 0.00120763 0.01025388 0.00202645 0.03726248 0.1317119 0.00941984 0.06586912 0.0833208 0.03975805 0.4220949 0.1109139 0.2988242 0.5381806 0.270825 0.353665 0.4514809 0.156503 0.07300002 0.2849204 0.3692365 0.2322039 0.4634108 0.3195968
0.02635025 0.03763121 0.01298819 0 0.00386684 0.06618799 0.05682325 0.00087639 0.03725656 0.0267347 0.1973842 0.1792291 0.03388461 0.00880436 0.01423548 0.114514 0.1294409 0.1530447 0.7053993 0.2308715 0.00638544 0.00754647 0.1898852 0.1988195 0.00025159 0.00114682 0.0001556 2.136E-05 0 0.00033751 0.01732329 0.01018722 0.01001434 0.00997034 0.00995797 0.00996182 0.00032566 0.00596241 0.02306996 0.0577009 0.03459638 0.00155473 0.01477763 0.04164414 0.05837261 0.1453035 0.5266144 0.6161475 0.1758506 0.5591254 0.5295741 0.09532073 0.3045275 0.3946411 0.299576 0.1159837 0.3341147 0.3769307
0 0 0 0 0 0.01925343 0.03633167 0.00831477 0.00879654 0.05610276 0.3783203 0.2362651 0.05301519 0.03363092 0.02258001 0.1341697 0.1112002 0.2832793 0.5206692 0.318251 0.00358096 0.00511825 0.1673227 0.00090463 0.0006031 0.00023648 2.276E-05 4.1E-06 1.332E-05 0.00063432 0.00029978 0.01020784 0.00998769 0.00992916 0.00972064 0.00992765 0.009901199 0.00857701 0.01008852 0.01514544 0.02205624 0.00712503 0.01069191 0.3203717 0.09626624 0.2339857 0.8365433 0.5288932 0.2058169 0.5817428 0.504664 0.3738759 0.2756159 0.1610273 0.3604542 0.236895 0.3866536 0.2407759
0.04034576 0.1227254 0.1259735 0 0 0 0.0789416 0.08026463 0.0377674 0.01624953 0.09584028 0.09181795 0.5717621 0.383349 0.07970244 0.05969473 0.130285 0.8826665 0.9118019 0.03711455 0.1153394 0.0154102 0.09716363 1.612E-05 1.955E-05 1.875E-05 0 0 0 9.79E-06 2.147E-05 5.973E-05 0.00018006 0.00108235 0.00987278 0.00762902 0.00112692 0.00988484 0.00996505 0.00726817 0.00926508 6.351E-05 0.02196044 0.1060733 0.04517595 0.2110102 0.9406579 0.9319789 0.377472 0.4737118 0.02401214 0.2143421 0.2872276 0.00873184 0.03832816 0.3318492 0.1956676 0.307729
0.3182731 0.8358642 0.310349 0 0 0.04160699 0.2270029 0.1448539 0.1940203 0.04843563 0.3265463 0.300414 0.8370929 0.4490467 0.1269148 0.1474677 0.1927779 0.8403015 0.1072053 0.1238548 0.01603247 0.1127344 0.1238171 2.382E-05 1.32E-05 0 0 0 0 3.012E-05 1.008E-05 0.00021218 3.869E-05 3.048E-05 0.00574889 0.00901387 0.0002035 0.00051644 0.009879041 0.007917739 0.00233107 0.00562338 0.00571805 0.1108513 0.2166245 0.1539559 0.3869754 0.6188203 0.2697257 0.2095166 0.6672102 0.04028742 0.1343732 0.0170457 0.04366523 0.2805643 0.1707178 0.230913
0.1875931 0.5431993 0.1248244 0.00487739 0.01762177 0.5720507 0.8471583 0.8479786 0.5958844 0.03353648 0.1830206 0.3021552 0.3500076 0.1869355 0.0099252 0.05765912 0.9309878 0.1248967 0.3311525 1 0.6314993 0.3936628 0.01581467 0.00019928 0.00112151 1.892E-05 0 0 0 1.08E-06 1.43E-06 3.177E-05 2.83E-05 3.064E-05 0.00020287 0.00674602 0.00186526 0.00595472 0.00706383 0.00119542 0.00052259 0.00067635 0.00107456 0.009850631 0.2538265 0.3484597 0.02204706 0.01225401 0.06702558 0.1170792 0.07217991 0.02828727 0.1378292 0.00978913 0.0144207 0.1576273 0.119035 0.0889938
0 0 0.00245111 0.01189312 0.09183301 0.8637579 0.9469008 0.1778344 0.6330289 0.01791775 0.2223638 0.3030665 0.9096563 0.09405936 0.01064263 0.1468902 0.5324057 1 0.529346 0.0060623 0.545177 0.1419065 4.263E-05 5.446E-05 4.423E-05 0.00018361 1.97E-05 1.936E-05 0 0 0 0 1E-06 5.43E-06 1.144E-05 6.329999E-05 0.00371384 0.00913702 0.00951312 0.00085979 0.0011445 0.00769051 0.00723261 0.01242998 0.1898683 0.3696132 0.03085218 0.02462331 0.01767025 0.01520097 0.05419438 0.03171227 0.09217981 0.010382 0.03530041 0.02487547 0.1550971 0.1756424
0 0.00024065 0.01472102 0.00895414 0.01579084 0.3138386 0.5447348 0.2501912 0.04332425 0.01477918 0.3068558 0.03113178 0.05946825 0.02325373 0.00463494 0.2503462 0.9815302 1 0.5978824 1 0.00023534 7.364E-05 1.997E-05 7.47E-06 1.094E-05 1.944E-05 6.95E-05 9.07E-06 9.06E-06 9.07E-06 0 0 0 1.41E-06 6.8E-07 1.12E-06 1.297E-05 0.00073361 0.00878847 0.00467988 0.00124027 0.01030655 0.01173912 0.01038666 0.05110535 0.2189371 0.0445615 0.02159839 0.0172291 0.009672809 0.00553364 0.03909497 0.05339567 0.0182701 0.03990605 0.00963605 0.1220128 0.3308141
0.01867346 0.00880689 0.00954922 0.02466065 0.07723612 0.07405506 0.07009857 0.06752045 0.2760523 0.1399532 0.4143668 0.08657363 0.7417798 0.9961725 1 0.00230126 1 1 1 1 0.00162417 3.826E-05 1.862E-05 1.891E-05 0 1.312E-05 0.00022062 7.54E-06 4.56E-06 1.43E-06 3.81E-06 0 0 0 0 0 1.26E-06 3.511E-05 0.00059017 0.00022227 0.00101394 0.01256117 0.01314144 0.00328938 0.01464233 0.143049 0.03599661 0.0407243 0.00454774 0.08504391 0.02829019 0.047592 0.08851776 0.09536334 0.04700716 0.06260915 0.0507809 0.182593
0.8069612 0.690428 0.8437658 0.120119 0.1084673 0.07448589 0.01808307 0.2478976 0.00073976 0.9998476 0.05568171 0.7659116 0.6395471 0.4102924 0.00575436 0.05434556 0.9999997 0.0003834 0.00153315 1 0.0019775 7.099E-05 3.156E-05 0 0 4.53E-06 4.53E-06 2.304E-05 0.00086324 5.608E-05 0.00082745 6.47E-06 0 0 0 0 3.92E-06 2.4E-06 9.4E-07 3.436E-05 0.00185365 4.397E-05 0.00119205 0.0090585 0.008441281 0.01682826 0.172475 0.06808407 0.1154817 0.1680099 0.2246945 0.2074716 0.1745921 0.1765672 0.02103065 0.1116757 0.3067301 0.440426
0.6034883 0.2603695 0.6960266 0.7563708 0.4529428 0.00069026 0.05486062 0.00047845 0.00075752 0.04612902 0.00122677 0.00111744 0.03165202 1 1 0.02769863 0.9999995 0.00027368 0.9999986 0.9999763 0.00303138 0.00024853 8.509E-05 0 0 0.0001294 3.1E-05 8.054999E-05 0.00076236 3.876E-05 1.176E-05 1.287E-05 0 0 0 0 0 0 9.4E-07 4.63E-06 2.13E-06 5.241E-05 6.001E-05 0.00306105 0.01642317 0.00014214 0.1369858 0.1380928 0.08017676 0.2129034 0.3489899 0.2830674 0.1916395 0.1765045 0.1787372 0.1603095 0.2496634 0.2501401
0.1054123 0.369445 0.6431648 0.8668102 0.1402315 0.00226312 0.00068636 0.01006353 0.01069265 0.00191186 0.02768745 0.00043015 0.01906276 0.5697008 0.00044467 0.00014446 0.00014448 0.00027398 0.00027368 0.00121424 0.00200015 0.0005301 0 0 0 0 0.00298239 0.00168502 0.00139283 0.00059469 1.18E-05 9.325999E-05 0 0 0 0 0 0 0 0 0 8.04E-06 0.00020187 0.00049763 0.00321108 0.01572977 0.00011086 0.2131663 0.7024828 0.1713808 0.2300487 0.06517232 0.1479302 0.120413 0.162031 0.1584794 0.09206959 0.1559078
0.00658937 0.00195765 0.05377934 0.9297608 0.2450134 0.00212574 0.00017431 8.62E-06 5.109E-05 0.00342093 0.00020688 0.00041113 1 1 0.01610066 8.667E-05 3.041E-05 7.8E-06 5.14E-06 5E-06 1.771E-05 1.93E-06 0 0 0 0 0.00040491 0.00165288 0.9990777 0.00460428 1.653E-05 0.00108985 0 0 0 0 0 0 0 0 0 9.784E-05 0 1.523E-05 1.737E-05 0.00091093 0.00171148 0.01500251 0.02093506 0.2950817 0.01563577 0.03313582 0.02934949 0.1023413 0.3224518 0.4919438 0.4894406 0.14094
0.00554517 3.539E-05 0.00302522 0.00131623 0.00013567 0.00057677 0.00108303 0.00020823 0.9966118 0.9997945 0.9998216 0.9999927 1 1 0.0003187 4.51E-06 3.53E-06 2.74E-06 1.68E-06 8.4E-07 0 0 0 0 0 0 0.00039451 0.00166535 0.0017022 0.00453401 1.294E-05 1.291E-05 0 0 0 0 0 0 0 0 0 0 0 5.72E-06 8.999999E-06 1.47E-05 4.411E-05 0.00013601 0.01971172 0.00447464 0.00052802 0.03903801 0.03810865 0.07669501 0.1795755 0.00443427 0.03843242 0.4272925
1.124E-05 0.0036699 0.00025151 0.03460824 0.9707182 0.9251232 0.9836338 0.9999151 0.9999768 0.9999109 0.9999762 0.9999959 0.9999626 1 1.964E-05 8.4E-07 8.4E-07 0 0 0 0 0 0 0 0 0 0.2438231 0.00164898 0.00169098 0.00121972 1.294E-05 1.272E-05 0 0 0 0 0 0 0 0 0 0 0 2.74E-06 5.88E-06 1.165E-05 6.185E-05 0.00018408 0.00998882 0.00480694 0.00069281 0.03865624 0.03858685 0.03053524 0.02003103 0.0052941 0.00409207 0.2127458
0.7758829 0.9813219 0.9991733 0.9999229 0.999958 0.9994774 0.9989364 0.9998289 0.9999965 0.9999991 0.9999878 0.9999945 1 1 0 0 0 0 0 0 0 0 0 0 0 0 0.7089931 0.00570707 0.00171835 2.449E-05 0.00032784 1.198E-05 0 0 0 0 0 0 0 0 0 0 0 0 0 0 9.17E-06 0.00010081 3.933E-05 0.00100346 0.00745722 0.00582119 0.000743 0.00023151 0.00039177 0.02164253 0.02429308 0.03889056
0.01782466 0.9983613 0.9979913 0.9999714 0.999808 0.9999809 0.9999956 0.9999981 0.9999981 1 1 0.9999969 0.9999657 0 0 0 0 0 0 0 0 0 0 0 0 0 0 0.00274192 0.00461355 2.442E-05 0.0018382 0 0 0 0 0 0 0 0 0 0 0 0 0 0 0 4.991E-05 0.00018371 3.852E-05 8.035E-05 6.134E-05 2.77E-05 0 0 0 0 0.00047829 0.05903099
0.00426358 0.9363586 0.9968548 0.9969741 5.491E-05 0.9999983 1 1 1 1 0.9999934 0.9999849 0.998911 0 0 0 0 0 0 0 0 0 0 0 0 0 0 0 0.00173549 2.204E-05 0 0 0 0 0 0 0 0 0 0 0 0 0 0 0 0 1.423E-05 5.036E-05 0 2.229E-05 2.003E-05 0.00022843 0 0 0 0 4.69E-06 0.05023637
