ncols         58
nrows         32
xllcorner     -88.230598449707
yllcorner     30.2534961700439
cellsize      0.03785016015172
NODATA_value  -9999
0.0 0 0 0 1 1 1 0 0 0 0 0 0 0 0 0 0 0 0 0 0 0 0 0 0 0 0 0 0.8930942 1 0 1 1 1 0 0 0 0 0 0 0 0 1 0 0 1 1 0 0 1 1 1 1 0 0 0 0 0
0 0 0 1 0 1 1 1 0.9885058 0 0 0 0 0 0 0 0 0 0 0 0 0.4908517 1 0 0 0 0 0.7876232 0.6879073 1 1 1 1 0 0 0 0 0 0 0 0 0.2718753 1 1 0.9348658 0 1 1 1 1 1 1 1 1 0 0 0 0
0 0 0 1 1 1 1 1 0.9816137 0 0.929103 0 0 0 0 0 0 0 0 0 1 1 0 0 0 0.9661713 1 1 1 1 1 0 0 0 1 1 0 1 1 1 0 1 1 0 1 0 0 0 1 0 1 1 1 1 1 1 1 1
1 0 0 0.6253766 1 0.5661386 1 0.9932964 1 1 0.970071 0 0 0 0 0 1 0 1 0 1 0 0 0 0 1 1 0 0 0 0 0 0 0 0 6.225E-05 0 0 0.00381377 0.00011723 0.00017763 5.668E-05 0.00192621 3.155E-05 1 0 0 0 0 1 1 0 0 0 0 0 0 0
0.984972 0.5578299 0.8236496 0.9961603 1 0.9520258 1 0.8004186 0.9686555 0.9525251 0.9175612 0.9407929 0 0.9838139 0 0 1 0 0 0 1 0 0 0 0.00055019 0 0.00058924 0 0 0 0 0 0 0 0 1.756E-05 0 0 0 8.86E-06 0.00091963 0.00128913 9.670001E-06 0.1284632 0 0 0 0 0 0 0 0 0 0 0 0 0 0
0.7238121 0.8869784 0.4882093 0 0 1 0.8343828 0 0.1124815 0.4886908 1 1 1 0 0 0 0 0 0 0 0 0 0.00234818 9.711E-05 0 0 0.00082241 0.00030612 0.00109459 0 0 0 0 0 0 4.123E-05 0 0.00238988 3.946E-05 0.00022082 0.00084209 0.00016675 0 0.00089301 0.0005448 0 0 0 0 1 0 0.633586 0 0 0.7924677 0 0 0
0.08074165 0.00181818 0.04554997 0.1046003 0.4882123 0.2898309 0.3383725 0.7629997 0.1845208 0 0 0.5451691 0.1792632 0.1089028 0.3414925 0.1179356 0 0.07198737 0.0048986 0 0 0 0.00032996 0.00011832 0.00038792 0 0.00244697 0.00051451 0 0.00276745 0 0.0001599 0 0 0 0.00015491 0.0001472 0 0.0003848 0.00011887 0.00181496 0.00235081 0.00012096 0.00096457 0.00049572 0.00176155 6.932E-05 0.00016616 0 0.0036525 0 0 0 0 1 1 0 0
0.07338344 0.2129395 0.10842 0.08894128 0.116042 0.1418853 0.6937224 0.3986426 0.276501 0.4856444 0.1331498 0.0528252 0 0 0 0 0 0 0.0046296 0 0 0 0.00314772 0.00018959 0 0.00401389 0 0.00232193 0.00037702 0 0 0 0.00338736 0.00033894 0 0 0.00014743 0 0.00082395 0.00096475 0.00055132 0.00041504 0.0012587 0.00186874 0.00212174 0.0006943 0.00029679 0 3.923E-05 0.00118254 0 0 0.1436661 1 0.999896 1 1 0
0.05634626 0.209201 0.08276106 0.4381804 0.2338493 0.1909555 0.05621837 0.3178037 0.3464878 0.2101589 0.03731939 0 0.01073261 0 0.02171584 0.05635884 0.00610757 0.00086747 0.007870601 0 0 0 0.0003626 0.00018742 0 0.00087546 0 0.00023897 0.00022309 0.00033219 0.08455906 0.00894523 0.894537 0.00358798 0.00567041 0.00167626 0.00032867 0 0.00011652 0 0.00039097 0.00326853 0.0063022 0.00039912 0 0.00184182 0.00064789 0 0.00167953 0 0.00068495 0.00453754 0 0 0.02075525 0 1 1
0.1019869 0.0317152 0.08168104 0.5092252 0.1493321 0.2530454 0.1864773 0.02339424 0.00709285 0.1614397 0.1470083 0.09990296 0.228343 0.02774622 0 0.01824681 0.00189198 9.789001E-05 0 0 0 0 0 0 0 0 0 3.529E-05 0.00152552 0.9417368 0.9907115 0.9902861 0.8902062 0.8831357 0.1796073 0.03330676 0.012569 0.00325144 0.00150453 0 0.00050801 0 0.00473575 0.0027862 0.0006109 0.00011897 0.00018406 2.76E-05 2.31E-05 0.00330782 0.00030024 0.03526115 0.01209941 0.00053223 0.00128469 0.03117839 1 1
0.4548033 0.3362447 0.6194276 0.6866384 0.147632 0.07321861 0.05295955 0.01900706 0.00870536 0.08923585 0.09338154 0.2977504 0.00785004 0 0 0 0.00047857 0 0 0 0 4.386E-05 0 0 0 0 0 0.00033313 0.00224802 0.9815158 0.978296 0.9978681 0.9918437 0.9889595 0.9670275 0.910439 0.00308818 0.00087187 0.00048908 0.00716713 0.01358679 0.03465253 0.00065266 0.02828745 0.00479504 0.00047253 0.00032643 0 0 0.00013659 0.1374338 0.01874185 0.00095589 0.02188847 0.2187059 0.03137201 0.01335787 1
0.7884271 0.5944582 0.5671062 0.5351966 0.2455698 0.5444379 0.1112542 0.2023197 0.06248541 0.3222906 0.02332331 0 0.00047819 0.00017974 0 0 0 0 0 0 0 0.00061346 0 0 0 0 0 0.00011676 0.00681814 0.3936734 0.9320491 0.8922249 0.8751591 0.9790138 0.8739077 0.7868019 0.4887817 0.1833718 0.0110921 0.00559015 0.01672855 0.1211341 0.01332852 0.03219713 0.00414213 0.00250404 0.00447699 0.00023184 0 0 5.622E-05 0.2449752 0.3404243 0.2305877 0.03893106 0.103125 0.02853832 0
0.8300819 0.5736996 0.6329357 0.4916879 0.1914917 0.4743595 0.5085036 0.03276583 0.09624886 0.1112968 0.08774993 0 0.0071172 0.00041562 4.107E-05 0 0 0 0 0 0.0172552 0.1740991 5.865E-05 0.00064308 0.00173393 0.00901241 0.06182165 0.9902235 0.9866579 0.8809424 0.8476551 0.7939562 0.8343298 0.837446 0.8040763 0.7231498 0.5380876 0.1386078 0.1243593 0.00872574 0.008071249 0.1672182 0.5881824 0.5945883 0.0606517 0.0239064 0.2762024 0.01037575 0.00054267 0.00023168 0.00011536 0.3224899 0.2950513 0.1025002 0.2077681 0.03712913 0.04385146 0.00138573
0.7879419 0.5499501 0.3880025 0.5618219 0.2571541 0.3144406 0 0 0.00333912 0.1335189 0.109495 0 0.00040746 0 0.00075329 0 0 0 0 0 0 0.00035653 0.02877489 0.00044715 0.00078127 0.00625026 0.9928243 0.8326904 0.9106429 0.9848605 0.9875744 0.8508552 0.7874404 0.7394212 0.7313627 0.6623282 0.2926005 0.1332399 0.09742796 0.02488706 0.01882513 0.3207954 0.5433129 0.5563643 0.02985663 0.03566667 0.04155941 0.01106849 0.00810109 0.0010331 0.00108641 8.92E-05 0 0.2790506 0.2164045 0.01456349 0.06170304 0.09423671
0.7435215 0.3647577 0.3817693 0.3083606 0.08776873 0.1242345 0.04513063 0.1381833 0.0124377 0.00300608 0.03083253 8.807E-05 0 0.00190298 0.01101226 0.00111836 0 0 0 0 0.00050822 0.01606951 0.00227855 0.00300385 0.00175311 0.00426532 0.8745485 0.1553291 0.01132648 0.5081218 0.8601936 0.860685 0.7413536 0.7391363 0.6974263 0.6756267 0.3437699 0.04739581 0.2229833 0.2378752 0.6191046 0.4430076 0.3546542 0.4425698 0.02421885 0.03231536 0.07178562 0.03798818 0.02957138 0.01724517 0.00411495 0.0002557 0.00020485 0.0389286 0.2145703 0.06821532 0.1990338 0.02476234
0.6015605 0.5860239 0.5008933 0.5994526 0.1389522 0.3220451 0.1425238 0.0223268 0.08601169 0.03160849 0.00021527 0.0009882699 0.00309283 0.00257168 0.02550141 0.00137495 0 0 0 0.00033669 0.01189765 0.01614807 0.2149399 0.1931606 0.9990858 0.9059719 0.5285832 0.5019188 0.6967434 0.9942199 0.5760965 0.7140898 0.6997287 0.6890648 0.7712114 0.7757505 0.6686965 0.621317 0.4683989 0.4280848 0.3417176 0.06059796 0.2553967 0.08961028 0.05203737 0.2581222 0.03350187 0.03208121 0.03658503 0.00520651 0.00356536 0.00199572 0.00212892 0.00095052 0.00016529 0.02975886 0.1800632 0.00182475
0.6740297 0.6127259 0.4650845 0.3857502 0.242549 0.2077521 0.1586453 0.3569083 0.2910052 0.09487158 0.01047958 0.01243645 0.04271695 0.00075853 0.05657979 0 0.00083325 0.00047199 0.00023404 0.00094292 0.0019672 0.02680354 0.219042 0.9946701 0.8987874 0.6839554 0.5431841 0.5255484 0.5034599 0.6758024 0.9842519 0.7208044 0.6720574 0.6396024 0.6122729 0.7686795 0.6708954 0.6379961 0.6034609 0.666271 0.6349747 0.2995876 0.4262278 0.03265081 0.05456274 0.08072393 0.03094286 0.02168782 0.03200873 0.01063979 0.00303015 0.0001202 0.00419256 0.0073158 0.00285218 0.00028718 0.04222516 0.00715966
0.602407 0.4280217 0.3605419 0.2494563 0.125038 0.2562999 0.1425533 0.1960873 0.2008103 0.08498277 0.009759651 0.01763694 0.05918884 0.01207432 0.02264105 0.01551961 0.00604695 0 0.00018027 0.00285396 0.1097486 0.1046074 0.2822415 0.9273905 0.6726906 0.6728092 0.9714348 0.9977921 0.9978086 0.9977542 0.9829592 0.6738846 0.6702221 0.664947 0.6480902 0.4644864 0.07919289 0.7879906 0.8042232 0.7230593 0.730211 0.6127107 0.2833426 0.02424874 0.391107 0.2023498 0.01471655 0.0166384 0.0475595 0.04089481 0.004619 0.02330394 0.00999933 0.01472309 0.03449426 0.00439404 0.00754552 0.00184641
0.3634064 0.08266451 0.3038921 0.265038 0.08321276 0.1198608 0.08646505 0.07868328 0.216625 0.0959138 0.01897369 0 0.00958991 0.00109802 0.09149101 0.00157987 0.00731177 0 0 0.03739042 0.120952 0.09206915 0.1164296 0.9148399 0.6725552 0.6728327 0.9848152 0.9986295 0.9782677 0.9831558 0.9973465 0.9831922 0.6699481 0.6692345 0.587929 0.6003544 0.01481761 0.03934517 0.8023362 0.7460822 0.7617871 0.735429 0.3021399 0.0176973 0.02894505 0.4397676 0.1214883 0.121669 0.05805406 0.02558975 0.01718415 0.06170833 0.01516193 0.01077305 0.02495345 0.00622432 0.01004287 0.00373213
0.5128291 0.2523742 0.5224995 0.3756153 0.1707679 0.01934614 0.01858782 0.03903176 0.08420685 0.1233036 0.08705682 0.01463242 0.00373575 0.0061145 0.008983349 0.00030848 0 0 0 0 0.1429179 0.1835395 0.01932818 0.8714532 0.07027819 0.6726962 0.9999417 0.999905 0.9999988 0.9999684 0.9996002 0.9971305 0.6657862 0.6682748 0.6617224 0.4394014 0.1336869 0.4721589 0.5558201 0.1668147 0.7783727 0.7849181 0.667649 0.6852596 0.3929489 0.30867 0.6302634 0.3248924 0.2412404 0.01695692 0.04100737 0.06186373 0.01132574 0.00518168 0.02818328 0.0141269 0.04201135 0.02797263
0.6700356 0.5079001 0.5158769 0.5524768 0.09504434 0.00364535 0.00099671 0.00061946 0.05108179 0.01235507 0.01159403 0.00196101 0.00088393 0.01614878 0.01898355 0.00889659 0.00321929 0 0 0 0.04497496 0.06708333 5.447E-05 0.00123505 9.893E-05 0.9975964 0.9999287 0.9999806 0.9999975 0.9999662 0.9999957 0.9984038 0.0002357 0.0007207 0.00386009 0.00421849 0.2799297 0.7117686 0.7509755 0.1321419 0.08104656 0.70999 0.5980873 0.5540175 0.2919251 0.3065231 0.8597496 0.6129474 0.2071978 0.00603461 0.02656339 0.0275369 0.01101407 0.00609498 0.03006744 0.03685172 0.1198151 0.1424279
0.6721593 0.6530979 0.5132409 0.6268109 0.5055692 0.0126683 0.0563865 0.01510021 0.01232062 0.00229598 0.00010141 0 0 0.0196099 0.01893135 0 0 0 0 0 1.787E-05 1.17E-06 3.34E-05 0.00022359 1.512E-05 0.9997771 0.9999305 0.9999833 0.9999909 0.9999723 0.99993 0.9992152 0.00577763 0.0006567099 0.00015654 0.00011056 0.0009915699 0.4791364 0.7171914 0.6072489 0.6900592 0.6800147 0.6780396 0.5402474 0.5564412 0.1939768 0.6053552 0.7109907 0.3605228 0.01968603 0.0062029 0.02286299 0.01114954 0.0075813 0.03067451 0.02054121 0.05598495 0.1543144
0.7069359 0.6909319 0.4862416 0.2823006 0.2283166 0.01067043 0.00651326 0.09852087 0.02660576 0.026499 0.02863603 0 0.00207425 0 0 0.9976987 0 0 0 0 0 2.1E-06 3.402E-05 4.48E-06 0.9904768 0.9999869 0.9997793 0.9999924 0.9999838 0.8306988 0.9998916 0.9999932 0.5040768 0.494444 0.00021428 7.016E-05 0.00013371 0.6093828 0.5285273 0.7195461 0.7078601 0.6558945 0.6788881 0.1139959 0.5331595 0.3131499 0.2764695 0.3320606 0.6341316 0.08201389 0.01934265 0.02612095 0.01721664 0.03968706 0.02875989 0.0267255 0.00901497 0.00036831
0.1188107 0.06176684 0.0529588 0.167757 0.1632918 0.5995915 0.6501639 0.07545386 0.7637673 0.0001524 0.6202066 0.1334468 0.107043 0 0.08493556 0 1.8E-07 8.4E-07 4.74E-06 0 0 2.12E-06 1.014E-05 7.598E-05 0.00830957 0.9999887 0.9999869 0.9999721 0.9988854 0.8307913 0.9978128 0.9999935 0.5164465 0.5000622 0.4977797 0.4736474 0.01400659 0.01831742 0.6675698 0.5159891 0.7474902 0.997521 0.9722435 0.2864716 0.1845955 0.3502659 0.2141371 0.1016389 0.03485107 0.1301952 0.02114827 0.02161358 0.02395071 0.04316158 0.08775793 0.02043164 0.00628639 0.00121699
0.1704963 0.3661328 0.1519229 0.1544472 0.3630147 0.1341635 0.2772087 0.9918599 0.9906754 0.4887126 0.6692399 0.03732232 0.6487932 0 0 5.655E-05 3E-07 1.63E-06 9.9E-07 1.589E-05 0 1.989E-05 0.4946781 0.4998658 0.5 0.9994091 0.9999379 0.9997942 0.9989839 0.9999495 0.9999315 0.9999871 0.5391396 0.5001719 0.4984442 0.4961017 0.6366541 0.6586878 0.667496 0.6679204 0.5031234 0.9943093 0.9987002 0.9189085 0.6146625 0.00341326 0.1859696 0.1707767 0.05772988 0.2225881 0.05269296 0.01043288 0.02487829 0.03917975 0.03803059 0.049921 0.00017836 0.00017641
0.3740249 0.2603939 0.1771763 0.07146646 0.2565256 0.3691077 0.7665195 0.2936238 0.3686679 0.996212 0.9723126 0.9993624 0.9809372 0.1290898 0.499778 1.79E-06 2.23E-06 9.54E-06 4.573E-05 0.6691865 0 0 0.4999948 0.5 0.5 0.9296508 0.971957 0.7976846 0.8300936 0.9990801 0.9999583 0.9999068 0.9723445 0.5007216 0.4999797 0.4984392 0.64527 0.6695262 0.7757275 0.9230244 0.6689091 0.5031065 0.7124069 0.9764689 0.7455311 0.6752213 0.00414127 0.09958301 0.04032633 0.1166323 0.0396557 0.01234973 0.2346003 0.04391995 0.04109318 0.01931427 0.00136366 8.447E-05
0.01307037 0.5982763 0.3870271 0.02121312 0.6940162 0.9818371 0.8673238 0.95742 0.9500617 0.9933576 0.9997746 0.9995632 0 0 0.9832973 2.162E-05 0.6699387 0.6699919 0.6699949 0.6699966 0.6702065 0.9999981 0.5000089 0.5000058 0.5000058 0.501384 0.5180255 0.8119547 0.0006447 0.9940678 0.9999803 0.9986492 0.9390972 0.5000524 0.5000188 0.5 0.563408 0.6589298 0.6703746 0.8737711 0.9986557 0.8166548 0.6104962 0.9993674 0.9988834 0.7507147 0.667275 0.6488413 0.01705342 0.4416583 0.659423 0.4939387 0.4911524 0.3774944 0.1174125 0.00131484 0.00011093 0.00923185
0.7650326 0.6761382 0.8466004 0.6728311 0.6707622 0.8612887 0.9515958 0.9622364 0.00314055 0.00020166 0.00017836 6.34E-06 0 0 0.6697865 0.6699952 0.6699964 0.6699973 0.6699982 0.6699995 0.6716586 0.6714938 0.5020338 0.5000201 0.5001806 0.5056521 0.5236102 0.816601 0.8248079 0.9943908 0.9999839 0.9999839 0.6679015 0.5122401 0.5000362 0.5 0.5005401 0.636319 0.6701207 0.6709644 0.9971177 0.9989123 0.9589927 0.999669 0.9993806 0.999198 0.6713139 0.6700557 0.6629368 0.00967683 0.9818556 0.4224586 0.4306692 0.3865479 0.1817849 0.05524056 0.00027084 0.01379503
0.9988275 0.9810835 0.9940464 0.9651889 0.01961878 0.06580684 0.01446573 7.594E-05 2.235E-05 8.645E-05 2.384E-05 4.08E-06 3.747E-05 0 0.6699869 0.6699986 0.6699986 0.67 0.67 0.67 0.9999569 0.9999533 0.6705196 0.9901782 0.9867224 0.7394223 0.540012 0.8155054 0.8240956 0.9984455 0.9999839 0.9970956 0.6712407 0.6515123 0.5007149 0.5 0.5003303 0.5743906 0.6702542 0.6726882 0.9306284 0.9991512 0.9996265 0.9999644 0.9993739 0.9992847 0.9755835 0.6834327 0.5114681 0.4793487 0.2028256 0.4277931 0.4347241 0.3396075 0.6081264 0.7898501 0.02529623 0.06918696
0.06051557 0.00028276 8.786E-05 2.726E-05 1.302E-05 0.0003949 0.00087575 0.00016517 3.3E-06 9E-07 1.213E-05 5.47E-06 0 0 0.67 0.6700792 0.6700276 0.67 0.67 0.6700094 0.6700105 0.9990364 0.6830208 0.6700636 0.9823605 0.9998812 0.2056427 0.6944108 0.9761714 0.9999686 0.9976923 0.6740879 0.6701052 0.6699663 0.5023754 0.5008423 0.5088992 0.9036053 0.6704138 0.6703769 0.6977528 0.9926735 0.9996562 0.9998221 0.9997822 0.9970863 0.9990221 0.7956488 0.9896365 0.07731963 0.4406128 0.7782848 0.9879797 0.9956445 0.9938812 0.9348752 0.9242625 0.1254353
0.9668792 2.67E-05 0.00082636 1.914E-05 0.00011946 1.472E-05 3.57E-06 1.83E-06 1.82E-06 0 0 2.11E-06 2.297E-05 0.67 0.6707564 0.6700973 0.6700368 0.6700094 0.6700093 0.6700339 0.670012 0.6707004 0.9995256 0.6700494 0.6914343 0.9997475 0.6408413 0.6935194 0.6872063 0.999904 0.9872911 0.6749067 0.6701026 0.6700797 0.5126809 0.5075185 0.5158082 0.9930756 0.6733307 0.6703401 0.757598 0.9635895 0.9968469 0.999818 1 0.9997307 0.9945647 0.9752849 0.9902591 0.9750167 0.02146861 0.5098684 0.7744606 0.9150583 0.9708555 0.976195 0.9804434 0.03270525
0.8676113 0.00594026 0.0018395 0.00202738 0.6699632 1.2E-06 0 0 0 0 4.39E-06 1.011E-05 0.00072964 0.6702721 0.6708027 0.7154095 0.9200683 0.6700613 0.6702398 0.9997033 0.6700178 0.6705784 0.9999235 0.6700814 0.6747358 0.9997275 0.5651352 0.6894721 0.688426 0.9988757 0.9982648 0.6720706 0.6700222 0.67 0.67 0.657364 0.9070287 0.9997798 0.9484052 0.6703804 0.7519859 0.9866918 0.9878899 0.9997127 0.9998234 0.9998223 0.993454 0.5408117 0.9866654 0.9669846 0.6996825 0.3119468 0.9618104 0.9975625 0.9998392 0.9994465 0.991835 0.00173992
