ncols         58
nrows         32
xllcorner     -88.230598449707
yllcorner     30.2534961700439
cellsize      0.03785016015172
NODATA_value  -9999
0.0 0 0 0 0 0 0 0 0 0 0 0 0 0 0 0 0 0 0 0 0 0 0 0 0 0 0 0 0 0 0 0 0 0 0 0 0 0 0 0 0 0 0 0 0 0 0 0 0 0 0 0 0 0 0 0 0 0
0 0 0 0 0 0 0 0 0.2701617 0 0 0 0 0 0 0 0 0 0 0 0 0 0 0 0 0 0 0 0 0 0 0 0 0 0 0 0 0 0 0 0 0 0 0 0 0 0 0 0 0 0 0 0 0 0 0 0 0
0 0 0 0 0 0 0 0 0.515662 0 0 0 0 0 0 0 0 0 0 0 0 0 0 0 0 0 0 0 0 0 0 0 0 0 0 0 0 0 0 0 0 0 0 0 0 0 0 0 0 0 0 0 0 0 0 0 0 0
0 0 0 0 0.4813401 0 0 0.4940189 0 0 0 0 0 0 0 0 0 0 0 0 0 0 0 0 0 0 0 0 0 0 0 0.07124762 0 0 0 0 0 0 0 0.02308315 0 0 0 0 0 0 0 0 0 0 0 0 0 0 0 0 0 0
0 0 0 0 0 0 0 0.5874726 0 0 0 0 0 0 0 0 0 0 0 0 0 0 0 0 0 0 0 0 0 0 0 0 0 0 0 0 0 0 0 0 0 0 0.06739754 0 0 0.01013237 0 0 0 0 0 0 0 0 0 0 0 0
0 0 0 0 0 0 0 0 0 0 0 0 0 0 0 0 0 0 0 0 0 0 0 0 0 0 0 0 0 0 0 0 0 0 0 0 0 0 0 0 0 0 0 0.2079032 0 0 0.2224556 0 0.0038336 0 0 0 0 0 0 0 0 0
0 0 0 0 0 0 0 0 0 0 0 0 0 0 0 0 0 0 0 0 0 0 0 0 0 0 0 0 0 0 0 0 0 0 0 0 0 0 0 0 0 0 0 0 0 0 0 0 0 0.3081231 0.00693888 0 0 0 0 0 0 0
0 0 0 0 0 0 0 0 0 0 0 0 0 0 0 0 0 0 0 0 0 0 0 0 0 0 0 0 0 0.00043748 0 0.00633971 0.00647215 0.00072042 0.00170152 0.00020072 0 0 0 0 0 0 0 0 0 0.02768464 0 0 0.1464418 0 0 0 0 0 0 0 0 0
0 0 0 0 0 0.3549193 0.03411773 0 0 0.00259097 0 0 0 0 0 0 0 0 0 0 0 0 0 0 0 0 0 0 0.00070141 0.00087951 0.00658178 0.00024696 0.0005569 0.00471858 0.00239539 0.00100078 0 0 0 0 0 0 0 0 0 0.2303423 0 0 0 0 0 0 0 0 0 0 0 0
0 0 0 0 0 0 0 0 0 0 0 0 0 0 0 0 0 0 0 0 0.00276402 0 0 0 0 0 0 0.00106615 0.00360128 0.01008035 7.611E-05 9.658001E-05 0.00020835 0.00076188 0.01080827 0.00215344 0.00013332 0.00061566 0.00018743 0 0 0 0 0 0 0 0 0 0 0 0 0 0 0 0 0 0 0
0 0 0 0 0 0 0 0 0 0.01338999 0 0 0 0 0 0 0 0 0 0.01859909 0.01100003 0 0 0 0 0 0 0.00142106 0.02258075 0.00753865 6.523E-05 2.555E-05 0 7.571E-05 4.328E-05 0.00017183 0 0.00128376 0.00113339 0.00207954 0.00141609 0 0 0 0 0 0 0 0 0 0 0 0 0 0 0 0 0
0 0 0 0 0 0 0 0 0 0 0 0 0 0 0 0 0 0 0.00494607 0.04626167 0.00758886 0.0021954 0 0.00031835 0.00028089 0.009141359 0.0907733 0.00531511 0.0001406 0.00038855 0.00011521 5.01E-05 0.00013629 0 0 0.00209346 0.00392908 0.01607743 0.06314697 0.2922446 0.0228089 0 0 0 0 0 0 0 0 0 0 0 0 0 0 0 0 0
0 0 0 0 0 0 0 0 0 0.00052122 0.00052028 0 0 0 0 0 0 0 0.00610129 0.05813391 0 0.00170325 0.00020522 0.00074912 0.00348881 0.5317189 0.03622852 9.237E-05 0.00020441 0.00369584 0.00036105 0 0 0 0 0 9.711E-05 0.00019724 0.00584136 0.00073526 0.00038775 0.00022023 0 0 0 0 0 0 0 0 0 0 0 0 0 0 0 0
0 0 0 0 0 0 0 0 0 0.00149485 0.00055459 0 0 0 0 0 0 0 0 0.00440064 0.01020654 0.00014124 0.00611316 0.00069736 0.7788218 0.6694148 0.00099578 0.00254146 0 6.381E-05 1.263E-05 0 0 0 0 0 9.644E-05 0.00104511 0.00256201 0.00065727 0.00030845 0 0 0 0 0 0 0 0 0 0 0 0 0 0 0 0 0
0 0 0 0 0 0 0 0 0 0 0 0 0 0 0 0 0 0 0 0 0.00283723 0.00282723 0.00411644 0.03494908 0.3350835 0.3437491 0.0044176 0.00301908 0 0.00029279 1.162E-05 0 0 0 0 0 0 0.00104789 0 0 7.15E-05 0 0 0 0 0 0 0 0 0 0 0 0 0 0 0 0 0
0 0 0 0 0 0 0 0 0 0 0 0 0 0 0 0 0 0 0 0.0004113 0.00118078 0.0043434 0.3 0.00462092 7.578E-05 0.00088954 0.00018678 1.322E-05 0 0 0 0 0 0 0 0 0 0 0 0 0 0 0 0 0 0 0 0 0 0 0 0 0 0 0 0 0 0
0 0 0 0 0 0 0 0 0 0 0 0 0 0 0 0 0 0 0.00028602 0.00754431 0.00216296 0.01385839 8.829001E-05 0.00021219 0.00022982 0.00014811 1.981E-05 5.86E-06 0 0 0 0 0 0 0 0 0 0 0 0 0 0 0 0 0 0 0 0 0 0 0.00037236 0 0 0 0 0 0 0
0 0 0 0 0 0 0 0 0 0 0 0 0 0 0 0.00046309 0.00278966 0.00119849 0.00106438 0.02181462 1 1 0.00119765 1.287E-05 2.734E-05 6.84E-06 5.706E-05 0 0 0 0 0 0 0 0 0 0 0 0 0 0 0 0 0 0 0 0.00037461 0.00036114 0.0018363 0.00247067 0.00105248 0.00027543 0 0 0 0 0 0
0 0 0 0 0 0 0 0 0 0 0 0 0 0 0 0.00061648 0.00698527 0.01574697 0.01313684 0.04501602 0.00140648 0.00365531 0.00684439 8.573999E-05 4.1E-05 1.369E-05 3.133E-05 0 0 0 0 0 0 0 0 0 0 0 0 0 0 0 0 0 0.00014093 0.00157653 0.0039223 0.00123081 0.00757112 0.00108816 0.00234473 0.0005915 0 0 0 0 0 0
0 0 0 0 0 0 0 0 0.00048089 0.00026279 0.00031739 0 0.00244544 0.00489834 0.00056961 0.00267723 0.00899106 0.07838977 0.2685854 0.3492307 0.00708499 0.00047937 7.908E-05 0.00021703 0 1.369E-05 0 0 0 0 0 0 0 0 0 0 0 0 0 0 0 0 0 0 0.00458393 0.00012258 0.00042474 0.00080913 0.04369994 0.01096965 0.00118971 0.00124355 0.00132392 0 0 0 0 0
0 0 0 0 0 0 0 0 0.00052633 0.00019311 0.00069983 0.00531603 0.01187443 0.01238456 0.02107027 0.1780862 0.3006375 0.3 0.2999204 0.296333 0.0292289 0.00195243 0.00057494 0.2942225 0.2992223 0 1.97E-05 1.936E-05 0 0 0 0 0 0 0 0 0 0 0 0 0 0 0 0.00028727 0.00397813 0.0119489 0.0026479 0.01279856 0.00238474 0.00148793 0.00351432 0.00047739 0.00036184 0 0 0 0 0
0 0 0 0 0 0.00011977 0.00184516 0 0.00126233 0.0022647 0.00214986 0.02084102 0.269097 0.2993496 0.2971224 0.3003063 0.2999564 0.2999047 0.2996961 0.2995358 0.2960112 0.00086662 0.2982097 0.2985513 0.2997436 0.00048966 6.95E-05 9.07E-06 9.06E-06 9.07E-06 0 0 0 0 0 0 0 0 0 0 0 0 0 1.216E-05 0.00295848 0.00028604 0.00064172 0.00547942 0.00386378 0 0 0.00150371 0 0 0 0 0 0
0 0 0 0 0 0 0.00121534 0.00076972 0.01888226 0.06529884 0.1734649 0.296303 0.2926023 0.2939676 0.3000229 0.3349742 0.3027077 0.7938257 0.2991297 0.2999213 0.2999989 0.2999262 0.2999251 0.2999661 0.2998738 0.2992636 0.00022062 1.199E-05 7.26E-06 1.43E-06 3.81E-06 0 0 0 0 0 0 0 0 0 0 0 5.402E-05 0.00015041 0.00053489 0.00306814 0.00958555 0.01767544 0.00105091 0.004104 0 0 0 0 0 0 0 0
0 0.00043872 0 0.00054219 0 0 0.2853659 0.2892657 0.2993071 0.3 0.3000807 0.2970647 0.2999893 0.3001024 0.3000609 0.2999101 0.299619 0.2980838 0.2999311 0.2999872 0.3 0.3 0.2999957 0.2999887 0.2999866 0.00011062 7.2E-06 7.2E-06 0.00044756 8.63E-06 5.839E-05 6.47E-06 0 0 0 0 0 0 0 0 0 0 0 4E-06 4.541E-05 0.01171302 0.01809142 0.00047417 0.00040533 0 0 0 0 0 0 0 0 0
0 0.00059085 0.00211921 0.020321 0 0.09738567 0.2998794 0.1150493 0.3 0.3 0.3 0.299962 0.3 0.2999805 0.3001488 0.2999745 0.2999998 0.2999994 0.2999399 0.2997362 0.3 0.3 0.2999886 0.2999845 0.299973 0.0027931 7.2E-06 0.00039347 0.000442 4E-06 0 8.79E-06 0 0 0 0 0 0 0 0 0 0 0 1.649E-05 7.402E-05 2.001E-05 0.02502342 0.00099523 0 0.00220902 0 0 0 0 0 0 0 0
0.00010829 0.08589363 0.2899061 0.2492242 0 0.2999773 0.2816372 0.2995197 0.2969849 0.2995916 0.2999959 0.2997568 0.2999771 0.2997458 0.2999856 0.2999886 0.3000088 0.2999977 0.2999934 0.2933949 0.3 0.3 0.00249791 0.00065118 0.0001756 0.00950964 5.803E-05 2.598E-05 1.111E-05 2.416E-05 0 0 0 0 0 0 0 0 0 0 0 0 0 5.856E-05 0.00015979 1.009E-05 0.00560615 0.00436872 0.00250392 0 0 0 0 0 0 0 0 0
0.5844036 0.02491565 0.3774565 0.4850777 0.9993175 0.9955338 0.9934266 6.57E-06 0.2256417 0.2998823 0.2999818 0.2999867 0.3 0.3 0.2998815 0.2985182 0.00019761 6.86E-06 3.75E-06 2.44E-06 0.00014641 8.014E-05 5.74E-06 4.63E-06 5.8E-06 0 4.46E-06 1.908E-05 2.47E-06 0.00064736 3.7E-06 0 0 0 0 0 0 0 0 0 0 0 0 0 4.02E-06 0.00027564 3.338E-05 1.494E-05 0.00024108 0 0 0 0 0 0 0 0.00019688 0.00783811
0.01132615 0.01312114 0.8580865 0.4259686 0.00294444 0.04372215 0.9996265 0.00041382 0.00029912 5.621E-05 0.0002834 0.00022484 0.00065515 0.3 0.00045421 2.24E-06 2.12E-06 1.68E-06 1.5E-06 1.98E-06 2.765E-05 9.705E-05 5.558E-05 2.58E-06 0 0 0 1.262E-05 0 0.00057689 0 0 0 0 0 0 0 0 0 0 0 0 0 0 0 0 0 0 0 0 0 0 0 0 0 5.2E-05 6.091E-05 0.00106662
0.00127176 0.00378732 0.0003576 0.00133909 0.00525253 0.01285832 0.00807332 1.349E-05 1.572E-05 0 2.27E-05 1.287E-05 0.00021256 0.3 1.804E-05 1.09E-06 7.1E-07 1.15E-06 4E-07 0 0 0 0 0 0 0 0 0 0 0 0 0 0 0 0 0 0 0 0 0 0 0 0 0 0 0 0 0 0 0 0 0 0 0 0 0 0 0.00165217
0 0.00014502 0 1.513E-05 7.8E-06 0.00035094 0.00070391 0 0 0 9.11E-06 3.95E-06 4.508E-05 0.3 9.1E-07 0 0 0 0 0 0 0 0 0 0 0 0 0 0 0 0 0 0 0 0 0 0 0 0 0 0 0 0 0 0 0 0 0 0 0 0 0 0 0 0 0 0 0.00040054
0 0 0 8.7E-06 7.07E-06 1.092E-05 2.86E-06 0 0 0 3.8E-07 3.9E-07 0 0 0 0 0 0 0 0 0 0 0 0 0 0 0 0 0 0 0 0 0 0 0 0 0 0 0 0 0 0 0 0 0 0 0 0 0 0 0 0 0 0 0 0 0 0
0 0 0 0 4.73E-06 8.7E-07 6.68E-06 0 0 0 0 0 0 0 0 0 0 0 0 0 0 0 0 0 0 0 0 0 0 0 0 0 0 0 0 0 0 0 0 0 0 0 0 0 0 0 0 0 0 0 0 0 0 0 0 0 0 0
