ncols         58
nrows         32
xllcorner     -88.230598449707
yllcorner     30.2534961700439
cellsize      0.03785016015172
NODATA_value  -9999
0.0 0 0 0 0 0 0 0 0 0 0 0 0 0 0 0 0 0 0 0 0 0 0 0 0 0 0 0 0.1069059 0 0 0 0 0 0 0 0 0 0 0 0 0 0 0 0 0 0 0 0 0 0 0 0 0 0 0 0 0
0 0 0 0 0 0 0 0 0.01149411 0 0 0 0 0 0 0 0 0 0 0 0 0.2845884 0 0 0 0 0 0.1939704 0.01183283 0 0 0 0 0 0 0 0 0 0 0 0 0.7281248 0 0 0.02892114 0 0 0 0 0 0 0 0 0 0 0 0 0
0 0 0 0 0 0 0 0 0.01838631 0 0 0 0 0 0 0 0 0 0 0 0 0 0 0 0 0.03382866 0 0 0 0 0 0 0 0 0 0 0 0 0 0 0 0 0 0 0 0 0 0 0 0 0 0 0 0 0 0 0 0
0 0 0 0.3746234 0 0.2125036 0 0.00670353 0 0 0.02992903 0 0 0 0 0 0 0 0 0 0 0 0 0 0 0 0 0.9695739 0.7947624 0.5400379 0.7661012 0.4984409 0.6997592 0.7245131 0.4868728 0.4939171 0.6811012 0.5449704 0.4460217 0.5002813 0.340318 0.4310666 0.6888545 0.8693505 0 0 0 0 0 0 0 0 0 0 0 0 0 0
0.01502801 0.4421701 0.1763504 0.00383973 0 0.04797418 0 0.1995814 0.02053788 0.04612638 0.08243884 0.05920715 0 0.01618614 0 0 0 0 0 0 0 0.8049026 0.8510003 0.959043 0.7088051 0.599117 0.6005588 0.5824658 0.720125 0.7664405 0.5882289 0.7599616 0.9130908 0.8030324 0.6767745 0.7945799 0.4699457 0.4459113 0.4879272 0.6159367 0.6227204 0.6330571 0.4398898 0.4701321 0.50606 0.6647369 0.5030481 0 0 0 0 0 0 0 0 0 0 0
0.2474894 0.1130216 0.5117907 0 0 0 0.1649875 0 0.8859773 0.5086684 0 0 0 0 0 0 0 0 0.9121053 0.8763864 0.7388647 0.8497006 0.5452734 0.4261671 0.8486918 0.5310961 0.5643343 0.5564255 0.7149653 0.8416944 0.7956328 0.840562 0.7286963 0.59929 0.764658 0.7357633 0.519097 0.2783636 0.833575 0.4436628 0.5981001 0.5271101 0.4802377 0.4897611 0.710481 0.4326172 0.587536 0.7151524 0.88341 0 0 0.2615218 0 0 0.2075323 0 0 0
0.9162453 0.9981818 0.7644832 0.8889809 0.5061575 0.7036273 0.6573457 0.2329469 0.8061806 0 0 0.4144699 0.7740868 0.8014356 0.4697903 0.8195404 0.9579356 0.8986857 0.5227566 0.5753239 0.6800968 0.5330439 0.7249901 0.7040888 0.6341703 0.721398 0.6404917 0.7014266 0.5697649 0.6471473 0.5725514 0.6897518 0.5432686 0.9037337 0.6222379 0.677167 0.6245207 0.7164326 0.5612514 0.7036548 0.6134073 0.5767821 0.4935753 0.4994032 0.1230954 0.4811932 0.726853 0.3288614 0.3285513 0.3321872 0.8489558 0 0 0 0 0 0 0
0.9266166 0.7283292 0.8553987 0.8019513 0.756976 0.8427857 0.3013028 0.5972508 0.694076 0.4904129 0.8010174 0.9403057 0.9795619 0.9186857 0.6600307 0.7666037 0.9292489 0.8053712 0.6599736 0.5284684 0.6044012 0.5964679 0.6503128 0.5642523 0.6908883 0.5162413 0.593355 0.7426782 0.7014011 0.4333885 0.6516021 0.7423016 0.5008444 0.9407836 0.6541108 0.8267242 0.6624565 0.5104303 0.5563618 0.6911039 0.3407359 0.6465237 0.6504222 0.7517905 0.5822723 0.4868823 0.4788067 0.3007481 0.5275589 0.3673162 0.308187 0.4916409 0.511203 0 6.76E-05 0 0 0
0.9436537 0.6859913 0.8359206 0.4295431 0.7187154 0.7204446 0.8164196 0.6569825 0.54599 0.6024652 0.9506997 0.9311138 0.9466243 0.951621 0.9660438 0.8755596 0.886276 0.8352354 0.6361136 0.5335114 0.4580245 0.7751708 0.6754725 0.760955 0.826836 0.7094811 0.8042464 0.5802726 0.192835 0.1125109 0.6574748 0.5194207 0.07432112 0.6958958 0.1009384 0.7676316 0.1008071 0.03531308 0.7552882 0.104136 0.4553919 0.5515134 0.6666672 0.4116106 0.5354751 0.3723801 0.4281033 0.4690933 0.5152885 0.4661835 0.6491295 0.5378766 0.8987243 1 0.7091751 0 0 0
0.7096817 0.8242909 0.9074901 0.4169235 0.7545139 0.573095 0.4992141 0.8493958 0.5375871 0.8138237 0.7186447 0.8236724 0.7487821 0.9523025 1 0.964083 0.7907169 0.8001169 0.1848241 0.7014495 0.7166862 0.851683 0.7787453 0.7133774 0.604699 0.5346087 0.5816087 0.09132475 0.5584719 0.03290389 0.00331779 0.00123581 0.1097937 0.1017714 0.7055925 0.3788556 0.3956884 0.111304 0.2209271 0.06720019 0.3679954 0.2966628 0.1380423 0.1057598 0.2515965 0.4414048 0.3981226 0.4669366 0.5457532 0.5762047 0.5911041 0.2484449 0.6994469 0.5781826 0.720248 0.6676276 0 0
0.4566427 0.2539579 0.256723 0.08266544 0.7606153 0.9174397 0.9286342 0.8788619 0.7851 0.8537478 0.9002119 0.6548983 0.9121981 0.8000067 0.9933853 0.9228203 0.7463932 0.5300635 0.07417211 0.5518942 0.7494311 0.8763819 0.8558466 0.8030818 0.5750795 0.2097044 0.5715925 0.3772176 0.23308 0.00446687 0.0017632 0.0016349 0.00792647 0.01065715 0.03150551 0.08683926 0.5110453 0.5661829 0.008810121 0.3965722 0.8846641 0.4195932 0.03234037 0.2597441 0.1152148 0.4764765 0.8703138 0.7716162 0.5905555 0.4046074 0.6319423 0.4951239 0.447588 0.6219399 0.6883007 0.65868 0.9532405 0
0.1708931 0.3846903 0.2910715 0.3448755 0.7124283 0.3942842 0.874094 0.7938163 0.7741883 0.6332571 0.6840461 0.7160322 0.7569199 0.8044016 0.9527149 0.9508632 0.751246 0.228996 0.09305327 0.5759022 0.744 0.9287695 0.9216219 0.9016715 0.6398128 0.5130312 0.6200594 0.6740196 0.6939617 0.01590704 0.00248898 0.1006224 0.1240835 0.02070318 0.1234308 0.2082002 0.4577175 0.2543649 0.1041247 0.1787385 0.5518015 0.6063247 0.3566337 0.1991374 0.162164 0.7796469 0.5271429 0.1354275 0.8013589 0.6200559 0.4644854 0.4950871 0.3805952 0.2947992 0.2895299 0.6894103 0.8512434 0.73
0.1386885 0.4222108 0.2598032 0.440226 0.7933761 0.4872098 0.4315906 0.9546757 0.7639019 0.8605785 0.880045 0.8685742 0.9136988 0.941281 0.9360043 0.9780044 0.9471236 0.8883762 0.2853096 0.4141889 0.9381684 0.6396936 0.7042767 0.7069888 0.7907054 0.5356542 0.2985247 0.00180831 0.00665908 0.06025526 0.1126599 0.1876132 0.1639814 0.1621308 0.1908066 0.2704205 0.4434137 0.8417347 0.5613822 0.506584 0.5325741 0.4956257 0.3324361 0.3712542 0.8881095 0.4459957 0.8331357 0.3284731 0.6119564 0.8232141 0.6739493 0.5656944 0.5794969 0.6492937 0.5307359 0.5788377 0.637103 0.9098985
0.1129481 0.3364786 0.5728269 0.3944607 0.6997551 0.0677544 0.3683046 0.986078 0.8354135 0.8148607 0.8322136 0.6969661 0.7769516 0.9018882 0.8355526 0.9599416 0.8937432 0.6515325 0.1421365 0.5112579 0.811976 0.7504427 0.676973 0.9857218 0.9852954 0.7555609 0.00575982 0.1236187 0.08163682 0.01457911 0.01157238 0.1403564 0.1934748 0.2477446 0.2605504 0.3283711 0.6973166 0.8550317 0.7187916 0.5107288 0.5058731 0.5018112 0.4134653 0.4052129 0.6017703 0.8521626 0.7384374 0.4124694 0.6377525 0.6016359 0.720151 0.7713168 0.9326681 0.4827618 0.5664959 0.5627012 0.4667238 0.8548282
0.1960373 0.5329407 0.6087493 0.685031 0.9109719 0.8444648 0.8295065 0.8618167 0.9491495 0.895363 0.4364062 0.4349438 0.9764178 0.9655633 0.9813287 0.9817886 0.8392942 0.5341973 0.3860505 0.7088512 0.9094 0.7656876 0.9927122 0.991069 0.9846656 0.969681 0.120721 0.8391855 0.9886826 0.4859819 0.1391509 0.1389473 0.2482696 0.2507223 0.2923598 0.3143036 0.6451771 0.9505531 0.7394859 0.630349 0.3714626 0.4619409 0.3997236 0.6148951 0.5232046 0.8829599 0.3594478 0.4283609 0.7240201 0.6313959 0.5446224 0.8432413 0.9266537 0.6762668 0.5450079 0.745447 0.3940658 0.6764802
0.3712908 0.3752354 0.485725 0.4005474 0.857181 0.7827997 0.8006529 0.9767968 0.8767317 0.9416568 0.8024005 0.7779337 0.9626091 0.9884063 0.9649561 0.8843861 0.8705591 0.8469554 0.2946007 0.7687918 0.981604 0.9763055 0.5901783 0.5980914 0.00065878 0.0578954 0.4705866 0.4980658 0.3032566 0.0054426 0.4065803 0.2757169 0.2902385 0.3008648 0.2188044 0.2141549 0.3212667 0.3682487 0.5069247 0.5141887 0.6234744 0.9368433 0.7300298 0.8575756 0.2385973 0.6087081 0.4170214 0.3492036 0.7054524 0.4309458 0.4666589 0.9015272 0.6914585 0.6039075 0.700176 0.5993335 0.6733978 0.6222732
0.3259703 0.3872741 0.5349156 0.6142498 0.7574509 0.7729945 0.805023 0.6347769 0.7001983 0.8490257 0.6199023 0.7817906 0.9037176 0.9654209 0.921379 0.8658303 0.8879665 0.7162487 0.4791553 0.6814634 0.9938443 0.985162 0.6093947 0.00436786 0.06093576 0.3133617 0.4567934 0.4744516 0.4965271 0.3235633 0.01544828 0.2689878 0.3179549 0.3504432 0.3777894 0.221101 0.3102743 0.3506035 0.3863382 0.3182867 0.3544674 0.6934462 0.5838655 0.6298388 0.8524303 0.4606836 0.1434525 0.4448214 0.7786896 0.4146527 0.4924277 0.6259565 0.7173014 0.8282558 0.636489 0.7629485 0.6158013 0.6952678
0.3572473 0.449253 0.5134847 0.7505437 0.8749619 0.7437001 0.7785051 0.7236481 0.7614223 0.8987677 0.8944001 0.8903412 0.3673817 0.6029981 0.9269397 0.9411583 0.8636681 0.1173335 0.08829708 0.9555275 0.7836287 0.8587201 0.6385375 0.06508737 0.3268288 0.3266163 0.02824089 0.00220789 0.00219141 0.00223599 0.0170194 0.3260556 0.3295979 0.3339707 0.3420342 0.5278705 0.919423 0.2013239 0.1856127 0.2692169 0.2605214 0.3872238 0.5274864 0.8435705 0.5680678 0.5866224 0.04887205 0.05080194 0.5912393 0.4864982 0.9713436 0.7623539 0.7009139 0.9717742 0.9269769 0.6636412 0.7900355 0.6888921
0.3183205 0.08147121 0.3857589 0.7349619 0.9167873 0.8385323 0.6865321 0.7764628 0.5893547 0.8556505 0.65448 0.699586 0.1543275 0.5317042 0.8043114 0.8509524 0.780017 0.1596986 0.8927947 0.8667976 0.9407368 0.7961161 0.7313314 0.08012243 0.3269341 0.3267489 0.0150067 0.00137046 0.02173235 0.01681402 0.00264339 0.01659561 0.3300132 0.330735 0.4063222 0.3906289 0.9849685 0.9601271 0.1877833 0.2430169 0.2365491 0.2998977 0.6920965 0.8712482 0.9587874 0.4085028 0.4950235 0.2632311 0.6723229 0.7648937 0.3156056 0.8980042 0.8502573 0.9706165 0.9312344 0.7130553 0.8114606 0.7638375
0.2995778 0.2044265 0.3526762 0.619995 0.8133725 0.408964 0.1342539 0.1129897 0.3199088 0.8431599 0.7299227 0.6832125 0.6337731 0.790809 0.9810601 0.9420324 0.06901225 0.8751033 0.6688475 0 0.3096257 0.7668599 0.9427199 0.1229459 0.9276248 0.3268147 5.366E-05 9.496E-05 1.21E-06 3.054E-05 0.00039844 0.00283779 0.3341855 0.3316946 0.3380747 0.5538526 0.8643984 0.5238381 0.4371103 0.8913668 0.2205607 0.2138768 0.3402714 0.3050197 0.4117532 0.3430788 0.3585281 0.6622804 0.691734 0.8659639 0.8868127 0.909849 0.8507873 0.9848775 0.9572941 0.8274462 0.8363222 0.8817248
0.3299644 0.4920999 0.4817312 0.4368194 0.8221847 0.1332832 0.05221622 0.8215462 0.3158893 0.9697272 0.7660422 0.6949725 0.08967209 0.893829 0.9703739 0.8442132 0.4651798 0 0.470654 0.9939377 0.4698146 0.8197602 0.9999371 0.9987043 0.9997954 0.00219053 4.756E-05 0 2.49E-06 3.377E-05 4.24E-06 0.00159613 0.9997633 0.9992738 0.9961284 0.9957182 0.7163565 0.2790944 0.2395113 0.8669409 0.8636025 0.2749863 0.385505 0.4362868 0.5181639 0.3220355 0.109942 0.3624293 0.7751481 0.9787644 0.9192423 0.9407508 0.8968061 0.9851606 0.9348495 0.9384125 0.7214595 0.6776001
0.3278407 0.3466614 0.4722312 0.3645666 0.4792469 0.6754636 0.3988787 0.7347085 0.9443552 0.9829248 0.6930428 0.9688683 0.9405318 0.4766939 0.9764337 0.7496538 0.01846974 0 0.4021176 0 0.9997621 0.9999268 0.9999648 0.999764 0.999988 0.00019569 0 7.62E-06 0 1.865E-05 7.007E-05 0.0007848 0.9942223 0.9993419 0.9998428 0.9998883 0.9989954 0.52013 0.2744265 0.3880712 0.2912074 0.2931784 0.3007502 0.4493321 0.3927032 0.5870832 0.3513059 0.2674109 0.6222978 0.9706412 0.9882752 0.938042 0.9354548 0.9739079 0.9310027 0.9691529 0.8206158 0.5102532
0.2743906 0.3002612 0.5042092 0.6930388 0.6940193 0.9155216 0.9233316 0.8339587 0.6973419 0.8335478 0.5569972 0.9134263 0.256146 0.00382753 0 0 0 0 0 0 0.9983758 0.9999594 0.9999686 0.9999829 0.00967702 0 0 0 1.159E-05 0.1692997 0.00010452 6.79E-06 0.4959232 0.505556 0.9997857 0.9999298 0.9998651 0.3903098 0.470722 0.2801685 0.2908152 0.3237624 0.2982861 0.8817478 0.4521446 0.5437497 0.6875604 0.627215 0.3614399 0.833137 0.9524236 0.9266475 0.8888191 0.9334856 0.8732382 0.918469 0.9410021 0.8171446
0.0742281 0.2478052 0.1032754 0.7121239 0.7282409 0.3259226 0.331753 0.6703699 0.2354929 0 0.3241117 0.1006416 0.25341 0.5897076 0.9143063 0.9456545 9E-08 0.9996158 0.9984621 0 0.9980226 0.9999269 0.9999578 0.999924 0.9916905 6.76E-06 8.53E-06 4.89E-06 0.00025134 0.1691526 0.00135972 0 0.4835535 0.4999379 0.5022203 0.5263526 0.9859895 0.9816802 0.3324292 0.4839501 0.2500576 0.00227468 0.02612473 0.7005773 0.8056247 0.6324934 0.6136049 0.830336 0.8574927 0.7018455 0.7541912 0.7719257 0.7787524 0.7860952 0.8907271 0.8163137 0.6834803 0.5586148
0.2260154 0.3734977 0.1520506 0.08918191 0.1840425 0.8651462 0.6588571 0.00756165 0.00844815 0.4581653 0.3295334 0.9615602 0.3195548 0 0 0.9722448 1.5E-07 0.9997246 4.9E-07 7.83E-06 0.9969686 0.9997493 0.5052368 0.5001342 0.5 0.00046152 3.114E-05 0.00012524 0.00025375 1.174E-05 5.673E-05 0 0.4608604 0.4998281 0.5015558 0.5038983 0.3633459 0.3413122 0.3325031 0.332074 0.4968723 0.00562095 0.0012147 0.07683587 0.3610089 0.996414 0.6773382 0.6915431 0.865288 0.5651575 0.5986354 0.7067453 0.7857131 0.7937083 0.792708 0.7956382 0.7501453 0.7496319
0.5205628 0.3701612 0.179659 0.06172334 0.6032429 0.6286292 0.2326257 0.6863745 0.6112409 0.00185248 0 0.00020745 0 0.3012094 0.4997773 0.9998537 0.9998533 0.9997165 0.9996806 0.3295993 0.9979999 0.9994699 0.5000052 0.5 0.5 0.07034923 0.02506062 0.2006304 0.1685136 0.00032521 2.985E-05 0 0.02765555 0.4992784 0.5000203 0.5015608 0.35473 0.3304738 0.2242725 0.07697565 0.3310909 0.4968823 0.2872601 0.02283409 0.2501307 0.3021818 0.9957265 0.6870049 0.2574584 0.7173255 0.7307867 0.9225622 0.6180319 0.84023 0.8071224 0.8321763 0.9071172 0.8440576
0.9803402 0.3997661 0.5591936 0.04902608 0.06097043 0.01603717 0.1323573 0.03757295 0.03991583 0.00317262 1.851E-05 2.566E-05 0 0 0.00060197 0.9998918 0.3300308 0.3300003 0.33 0.3299984 0.3297758 0 0.4999911 0.4999942 0.4999942 0.4986161 0.4815696 0.1863924 0.0002776 0.00132791 3.13E-06 0.00026098 0.06090288 0.4999476 0.4999812 0.5 0.436592 0.3410703 0.3296254 0.1262288 0.00134427 0.1832147 0.3895038 0.00061133 0.00109346 0.2481147 0.330663 0.3313163 0.9619378 0.2632522 0.3248045 0.4676258 0.4746763 0.5208809 0.5893649 0.5068654 0.5105039 0.8503857
0.2294222 0.3238265 0.1503745 0.3258527 0.3291021 0.1381157 0.0473211 0.03755535 0.00021661 3.91E-06 0 8.6E-07 0 0 0.3298948 0.3300002 0.3300001 0.3299999 0.3300002 0.3299997 0.3283414 0.3285062 0.4979662 0.4999799 0.4998194 0.4943479 0.4759954 0.1817336 0.1734899 0.00107509 3.16E-06 3.14E-06 0.3320985 0.4877599 0.4999638 0.5 0.4994599 0.363681 0.3298793 0.3290356 0.00288229 0.00108761 0.04100731 0.00032241 0.00060732 0.00078143 0.3286416 0.3297886 0.3244259 0.9858222 0.0174955 0.5288002 0.522055 0.5371988 0.6450358 0.9403662 0.9613225 0.5589125
0.00116125 0.01524657 0.00570202 0.00020284 0.00966298 0.009069961 0.00190048 8.999999E-06 9.3E-07 2.67E-06 0 0 0 0 0.3299935 0.3300005 0.3300005 0.33 0.33 0.33 4.307E-05 4.67E-05 0.3294803 0.00982188 0.01327759 0.2605777 0.2161649 0.1828456 0.1742135 0.00033474 3.16E-06 0.00289163 0.3287593 0.3484877 0.4992851 0.5 0.4996697 0.4256094 0.3297458 0.3273118 0.0693716 0.00084878 0.00037345 3.154E-05 0.0006173 0.00070358 0.0243551 0.3163528 0.4768645 0.5155585 0.7963475 0.523904 0.5172036 0.6307054 0.3714672 0.2049052 0.9706252 0.7180672
0.1636015 0.01839537 0.00073886 4.99E-05 2.903E-05 0.00012775 0.0001879 5.99E-06 1.4E-07 4E-08 0 0 0 0 0.33 0.3299208 0.3299724 0.33 0.33 0.3299905 0.3299895 0.00096362 0.3169791 0.3299364 0.01763953 0.00011881 0.08536413 0.2998821 0.02211026 6.98E-06 0.00197979 0.3259001 0.3298949 0.3300337 0.4976245 0.4991576 0.4911008 0.09639467 0.3295862 0.3296231 0.3022473 0.00732647 0.0003438 0.00017786 0.0002178 0.00291376 0.00096255 0.2042504 0.01031636 0.9215578 0.5498232 0.2144387 0.01109152 0.0040662 0.00566278 0.04348232 0.05144447 0.8356741
0.01529615 0.00161199 0.00118241 9.43E-06 7.261E-05 4.45E-06 7.8E-07 7E-08 8E-08 0 0 1.04E-06 1.131E-05 0.33 0.3292436 0.3299027 0.3299633 0.3299906 0.3299907 0.3299661 0.329988 0.3292996 0.00047437 0.3299506 0.3085657 0.00025243 0.3591587 0.3037387 0.3081802 7.154E-05 0.01087066 0.3250934 0.3298973 0.3299203 0.487319 0.4924815 0.4841918 0.00692439 0.3266693 0.32966 0.242402 0.03641042 0.00315319 0.00018199 0 0.0002693 0.00541038 0.02453139 0.00969486 0.02489767 0.9784088 0.490097 0.2255394 0.08494169 0.02914445 0.023805 0.01907829 0.9082638
0.1281251 0.0577011 0.00130568 0.00099856 0.3299819 5.9E-07 0 0 0 0 2.16E-06 4.98E-06 0.00035938 0.3297279 0.3291973 0.2845905 0.07993172 0.3299388 0.3297603 0.00029671 0.3299822 0.3294216 7.646999E-05 0.3299186 0.3252642 0.00027243 0.4348648 0.3105279 0.3098385 0.00110224 0.00173523 0.3279293 0.3299778 0.33 0.33 0.342636 0.09297128 0.00022023 0.05159475 0.3296197 0.2480141 0.01330815 0.01211011 0.00028732 0.00017661 0.00017773 0.0065388 0.4590876 0.01333461 0.03299274 0.3002774 0.6877676 0.0381896 0.00243751 0.00016085 0.00055355 0.00816026 0.9480237
