ncols        58
nrows        32
xllcorner    -88.230598449707
yllcorner    30.253496170044
cellsize     0.037850160152
NODATA_value -9999
0.0 0 0 0 3000 3000 4000 2000 0 0 0 0 0 0 0 0 0 0 0 0 0 0 0 0 0 0 0 0 3000 2000 0 3000 3000 1000 0 0 0 0 0 0 0 0 1000 0 0 1000 2000 0 0 5000 4000 4000 2000 0 0 0 0 0 
0 0 0 1000 3000 3000 3000 3000 1000 0 0 0 0 0 0 0 0 0 0 0 0 1000 2000 0 0 0 0 3000 5000 2000 2000 3000 3000 0 0 0 0 0 0 0 0 1000 2000 2000 11000 11000 11000 9000 7000 6000 5000 3000 4000 3000 0 0 0 0 
0 0 0 1000 3000 3000 3000 3000 2000 0 1000 0 0 0 0 0 0 0 0 0 1000 1000 0 0 0 1000 6000 7000 6000 2000 1000 0 0 0 1000 1000 2000 4000 4000 3000 0 1000 2000 3000 3000 0 0 1000 5000 0 1000 2000 1000 3000 2000 2000 1000 2000 
1000 0 0 3000 3000 3000 3000 3000 3000 3000 1000 0 0 0 0 0 1000 0 1000 0 3000 0 0 0 0 11000 7000 2000 5000 4000 1000 9000 13000 17000 20000 21000 20000 21000 21000 22000 22000 21000 23000 22000 21000 21000 22000 21000 22000 21000 16000 5000 0 0 0 0 0 0 
1000 1000 1000 3000 4000 4000 3000 3000 3000 3000 2000 2000 0 1000 0 0 1000 0 3000 1000 2000 2000 3000 4000 3000 3000 6000 12000 15000 18000 18000 20000 21000 23000 22000 23000 21000 23000 24000 22000 24000 22000 25000 23000 25000 24000 25000 25000 24000 22000 23000 21000 18000 15000 6000 0 0 0 
2000 2000 2000 3000 4000 5000 3000 3000 3000 2000 2000 2000 1000 0 0 0 0 0 2000 6000 7000 8000 10000 10000 13000 15000 17000 21000 24000 20000 21000 22000 24000 26000 27000 21000 25000 25000 24000 24000 24000 25000 28000 23000 24000 22000 22000 24000 25000 25000 25000 25000 22000 20000 22000 18000 10000 0 
8000 8000 8000 4000 3000 12000 2000 1000 1000 0 0 2000 8000 9000 9000 8000 9000 10000 12000 13000 12000 14000 15000 19000 21000 19000 22000 27000 27000 23000 25000 28000 28000 25000 24000 26000 25000 26000 27000 27000 26000 27000 29000 24000 26000 28000 30000 29000 31000 31000 32000 32000 28000 26000 25000 24000 24000 21000 
14000 13000 12000 8000 2000 3000 10000 13000 13000 8000 9000 11000 11000 11000 10000 11000 13000 14000 16000 17000 21000 19000 22000 21000 20000 22000 25000 28000 28000 26000 28000 29000 27000 28000 30000 29000 31000 31000 30000 26000 28000 31000 33000 31000 29000 28000 30000 31000 32000 31000 32000 31000 31000 30000 28000 28000 26000 25000 
16000 15000 14000 12000 8000 7000 15000 15000 11000 11000 11000 14000 12000 13000 12000 14000 14000 16000 24000 24000 23000 24000 21000 19000 22000 25000 28000 28000 27000 29000 32000 26000 28000 31000 34000 32000 32000 32000 32000 32000 29000 31000 35000 32000 34000 33000 32000 34000 35000 33000 33000 32000 32000 33000 30000 29000 28000 26000 
19000 19000 18000 18000 18000 19000 18000 14000 16000 17000 16000 14000 16000 16000 16000 18000 20000 24000 25000 26000 26000 23000 27000 29000 25000 29000 30000 32000 29000 26000 28000 32000 34000 41000 58000 78000 81000 63000 51000 47000 45000 43000 41000 40000 40000 41000 39000 39000 37000 36000 35000 34000 33000 33000 32000 30000 29000 28000 
21000 21000 20000 22000 21000 21000 19000 17000 14000 17000 19000 20000 18000 19000 21000 25000 26000 29000 28000 27000 23000 24000 27000 29000 33000 33000 29000 27000 28000 30000 33000 42000 54000 92000 95000 95000 94000 86000 60000 60000 50000 53000 47000 46000 50000 46000 46000 45000 42000 38000 38000 36000 35000 34000 33000 32000 30000 29000 
23000 23000 23000 22000 23000 21000 18000 17000 18000 22000 21000 21000 22000 23000 26000 27000 25000 27000 27000 24000 24000 28000 28000 28000 30000 35000 37000 30000 31000 34000 41000 57000 73000 103000 108000 109000 106000 99000 93000 75000 70000 53000 50000 47000 46000 47000 48000 48000 48000 43000 41000 38000 37000 35000 33000 31000 31000 30000 
27000 27000 26000 24000 22000 25000 23000 25000 26000 25000 23000 25000 29000 29000 29000 28000 30000 31000 29000 27000 31000 30000 28000 29000 30000 31000 31000 36000 41000 48000 53000 69000 79000 140000 132000 127000 124000 115000 111000 106000 97000 66000 65000 64000 60000 55000 51000 50000 50000 46000 46000 44000 41000 38000 38000 34000 32000 32000 
31000 31000 30000 28000 29000 31000 31000 31000 28000 28000 29000 30000 32000 30000 30000 30000 29000 30000 33000 32000 32000 32000 27000 29000 31000 32000 35000 47000 54000 58000 63000 105000 141000 150000 142000 137000 132000 124000 119000 114000 105000 101000 86000 80000 76000 72000 63000 61000 60000 55000 54000 51000 45000 41000 38000 37000 34000 32000 
33000 32000 32000 31000 32000 33000 32000 31000 30000 31000 29000 31000 34000 32000 32000 31000 32000 32000 35000 33000 33000 31000 30000 31000 33000 41000 55000 61000 65000 77000 99000 157000 160000 158000 147000 146000 141000 132000 125000 121000 112000 107000 100000 92000 81000 77000 72000 68000 69000 65000 59000 55000 49000 42000 40000 38000 36000 37000 
34000 35000 35000 34000 33000 32000 33000 32000 33000 32000 31000 33000 34000 33000 34000 33000 33000 35000 36000 36000 31000 32000 33000 38000 55000 62000 77000 76000 120000 151000 170000 173000 171000 168000 160000 156000 152000 142000 135000 130000 121000 115000 93000 86000 80000 77000 74000 73000 72000 70000 65000 60000 52000 45000 41000 39000 40000 39000 
35000 33000 35000 35000 33000 32000 33000 31000 33000 34000 34000 33000 32000 34000 35000 36000 35000 36000 38000 32000 34000 36000 42000 55000 70000 76000 77000 80000 134000 174000 186000 183000 180000 176000 167000 162000 157000 148000 142000 137000 127000 120000 112000 107000 100000 93000 79000 78000 77000 73000 68000 61000 51000 46000 42000 41000 40000 40000 
35000 36000 37000 35000 36000 36000 34000 36000 36000 37000 38000 38000 37000 35000 37000 36000 35000 39000 37000 39000 40000 51000 59000 80000 97000 109000 125000 166000 196000 219000 203000 195000 191000 185000 179000 172000 167000 159000 153000 148000 138000 133000 127000 118000 112000 93000 98000 95000 87000 79000 73000 65000 52000 46000 45000 43000 42000 41000 
38000 39000 38000 37000 36000 37000 35000 36000 37000 37000 37000 40000 38000 37000 38000 37000 36000 37000 38000 40000 43000 57000 65000 87000 127000 138000 159000 200000 230000 222000 211000 203000 198000 193000 185000 181000 175000 167000 161000 155000 148000 142000 137000 128000 123000 118000 108000 103000 96000 85000 77000 68000 52000 48000 46000 45000 43000 43000 
40000 38000 36000 37000 37000 37000 37000 37000 38000 39000 40000 39000 39000 39000 38000 39000 37000 38000 38000 41000 49000 61000 68000 105000 149000 169000 191000 228000 234000 225000 219000 212000 208000 203000 195000 190000 184000 177000 170000 164000 157000 150000 145000 136000 131000 125000 116000 110000 104000 90000 81000 67000 53000 49000 48000 47000 44000 43000 
40000 38000 36000 38000 40000 40000 40000 40000 39000 41000 39000 40000 41000 40000 37000 37000 39000 41000 48000 53000 58000 62000 72000 88000 191000 212000 235000 243000 241000 241000 236000 230000 225000 222000 214000 209000 204000 194000 186000 180000 172000 164000 159000 149000 143000 136000 125000 119000 113000 100000 75000 63000 57000 52000 48000 47000 45000 44000 
40000 39000 38000 40000 41000 41000 41000 41000 41000 41000 41000 40000 39000 38000 38000 40000 41000 45000 55000 61000 65000 65000 75000 88000 208000 238000 253000 257000 255000 254000 252000 247000 240000 237000 229000 223000 218000 207000 200000 194000 184000 176000 170000 160000 153000 144000 132000 125000 118000 107000 74000 67000 61000 60000 58000 48000 44000 42000 
40000 40000 38000 41000 40000 42000 41000 40000 42000 41000 41000 38000 38000 39000 40000 44000 49000 51000 65000 70000 71000 70000 80000 97000 235000 262000 272000 275000 275000 274000 272000 267000 259000 255000 246000 241000 235000 224000 217000 210000 199000 189000 182000 171000 164000 154000 141000 133000 125000 116000 95000 70000 71000 76000 74000 61000 50000 42000 
42000 41000 42000 42000 42000 42000 42000 42000 41000 41000 41000 42000 44000 45000 46000 50000 54000 63000 68000 71000 75000 80000 95000 146000 275000 295000 305000 312000 313000 317000 316000 310000 304000 298000 283000 279000 270000 255000 248000 239000 225000 216000 206000 192000 183000 173000 158000 149000 140000 127000 121000 112000 97000 87000 80000 74000 64000 54000 
43000 43000 43000 42000 40000 40000 41000 42000 43000 45000 46000 47000 50000 50000 53000 55000 59000 66000 68000 72000 78000 94000 147000 246000 311000 324000 332000 344000 346000 351000 354000 352000 347000 344000 325000 318000 308000 285000 276000 261000 246000 234000 224000 210000 198000 187000 171000 161000 151000 136000 127000 118000 104000 91000 83000 77000 69000 58000 
47000 46000 45000 44000 42000 44000 45000 47000 48000 51000 53000 56000 59000 59000 60000 61000 63000 66000 68000 74000 91000 200000 282000 324000 341000 352000 362000 381000 387000 396000 401000 408000 407000 403000 383000 373000 357000 326000 307000 292000 272000 260000 245000 228000 215000 204000 185000 177000 164000 148000 137000 126000 111000 99000 87000 78000 73000 64000 
51000 51000 51000 51000 51000 53000 57000 60000 63000 64000 66000 67000 68000 69000 74000 77000 74000 72000 76000 133000 239000 324000 348000 377000 390000 411000 433000 455000 463000 474000 491000 532000 652000 650000 557000 486000 446000 399000 366000 346000 320000 303000 282000 262000 245000 230000 212000 202000 186000 170000 158000 145000 124000 112000 99000 81000 76000 70000 
54000 55000 56000 57000 60000 66000 71000 72000 72000 73000 72000 72000 74000 80000 86000 89000 89000 103000 174000 227000 313000 365000 388000 421000 451000 473000 488000 503000 512000 526000 545000 625000 707000 554000 500000 477000 453000 423000 391000 374000 348000 333000 311000 281000 267000 253000 232000 219000 206000 188000 177000 164000 139000 126000 111000 88000 78000 73000 
59000 61000 65000 75000 80000 84000 83000 83000 80000 78000 80000 83000 90000 94000 103000 130000 161000 192000 254000 344000 382000 419000 445000 493000 518000 533000 541000 550000 558000 572000 595000 694000 727000 591000 517000 487000 463000 435000 413000 399000 372000 355000 338000 310000 291000 275000 254000 241000 228000 209000 198000 185000 163000 147000 131000 107000 88000 79000 
74000 83000 85000 90000 96000 110000 125000 122000 112000 104000 101000 105000 127000 177000 210000 265000 318000 378000 451000 507000 551000 599000 618000 641000 628000 627000 628000 631000 634000 645000 666000 746000 785000 636000 545000 507000 483000 449000 432000 415000 391000 375000 360000 338000 323000 308000 286000 270000 256000 237000 226000 214000 196000 183000 169000 149000 129000 112000 
89000 93000 94000 104000 132000 154000 169000 170000 167000 162000 174000 204000 272000 309000 342000 398000 439000 531000 701000 759000 778000 753000 741000 729000 699000 687000 679000 675000 675000 681000 699000 766000 832000 645000 546000 519000 493000 461000 443000 424000 400000 385000 370000 350000 338000 325000 301000 290000 275000 256000 243000 232000 213000 202000 190000 170000 156000 139000 
97000 105000 116000 171000 193000 209000 226000 237000 250000 284000 313000 343000 411000 430000 478000 617000 700000 750000 873000 903000 922000 882000 862000 816000 781000 756000 739000 724000 727000 735000 750000 805000 788000 634000 560000 534000 505000 472000 453000 435000 411000 397000 383000 363000 350000 337000 320000 305000 291000 272000 259000 247000 230000 218000 208000 191000 179000 166000 
