ncols        58
nrows        32
xllcorner    -88.230598449707
yllcorner    30.253496170044
cellsize     0.037850160152
NODATA_value -9999
0.0 0 0 0 0 0 0 0 0 0 0 0 0 0 0 0 0 0 0 0 0 0 0 0 0 0 0 0 0 0 0 0 0 0 0 0 0 0 0 0 0 0 0 0 0 0 0 0 0 0 0 0 0 0 0 0 0 0 
0 0 0 0 0 0 0 0 0 0 0 0 0 0 0 0 0 0 0 0 0 0 0 0 0 0 0 0.056944701820611953735 0.3002598881721496582 0 0 0 0 0 0 0 0 0 0 0 0 0 0 0 0.036213058978319168091 0 0 0 0 0 0 0 0 0 0 0 0 0 
0 0 0 0 0 0 0 0 0 0 0.069851860404014587402 0 0 0 0 0 0 0 0 0 0 0 0 0 0 0 0 0 0 0 0 0 0 0 0 0 0 0 0 0 0 0 0 0 0 0 0 0 0 0 0 0 0 0 0 0 0 0 
0 0 0 0 0 0.22135789692401885986 0 0 0 0 0 0 0 0 0 0 0 0 0 0 0 0 0 0 0 0 0 0.030255369842052459717 0.20523759722709655762 0.45996201038360595703 0.23383410274982452393 0.50155907869338989258 0.3002408146858215332 0 0.51312720775604248047 0.50608289241790771484 0.31629720330238342285 0.45353558659553527832 0.55016458034515380859 0.49971878528594970703 0.6596819758415222168 0.56893342733383178711 0.30921930074691772461 0.13058640062808990479 0 1 1 1 0 0 0 1 0 0 0 0 0 0 
0 0 0 0 0 0 0 0 0 0.0013485599774867296219 0 0 0 0 0 0 0 0 0 0 0 0.19509740173816680908 0.14899970591068267822 0.040956988930702209473 0.29119479656219482422 0.40029978752136230469 0.39944121241569519043 0.41753429174423217773 0.27832570672035217285 0.23355950415134429932 0.41177108883857727051 0.23920829594135284424 0.086909227073192596436 0.19696760177612304688 0.32322540879249572754 0.20542010664939880371 0.53005427122116088867 0.55408877134323120117 0.50965279340744018555 0.38282060623168945313 0.37513038516044616699 0.3640517890453338623 0.56010049581527709961 0.4014047086238861084 0.49387839436531066895 0.33526310324668884277 0.49695190787315368652 1 0 1 1 1 1 1 1 0 0 0 
0.028698530048131942749 0 0 0 0 0 0 0 0.0015412300126627087593 0 0 0 0 0 0 0 0 0 0.087894663214683532715 0.12361360341310501099 0.26113530993461608887 0.15029940009117126465 0.45472660660743713379 0.57383292913436889648 0.15077069401741027832 0.46890389919281005859 0.43566569685935974121 0.44357448816299438477 0.2834174036979675293 0.15830570459365844727 0.20356790721416473389 0.15740640461444854736 0.27130371332168579102 0.39870470762252807617 0.2353419959545135498 0.26423668861389160156 0.48090308904647827148 0.71924650669097900391 0.16638560593128204346 0.55570429563522338867 0.40105780959129333496 0.47234630584716796875 0.51976227760314941406 0.50728821754455566406 0.28842771053314208984 0.5673828125 0.41246399283409118652 0.28473350405693054199 0.11659009754657745361 0 1 0.10489229857921600342 1 1 0 1 1 0 
0.0030130699742585420609 0 0.18982450664043426514 0.0058950302191078662872 0.0056301900185644626617 0.0065418002195656299591 0.0042817499488592147827 0.0040534101426601409912 0.0092986403033137321472 0 0 0.040511239320039749146 0.04665002971887588501 0.082978613674640655518 0.18942059576511383057 0.061958920210599899292 0.042064428329467773438 0.025164090096950531006 0.47206410765647888184 0.42428150773048400879 0.31990319490432739258 0.46695610880851745605 0.27500990033149719238 0.29591119289398193359 0.36582970619201660156 0.27860200405120849609 0.35684278607368469238 0.29843181371688842773 0.43023508787155151367 0.35285270214080810547 0.42744860053062438965 0.31024819612503051758 0.45287251472473144531 0.096063762903213500977 0.37776210904121398926 0.32083651423454284668 0 0.28356748819351196289 0.56836587190628051758 0.29634520411491394043 0.38480618596076965332 0.42112129926681518555 0.50311589241027832031 0.49859941005706787109 0.87622028589248657227 0.51704519987106323242 0.27308121323585510254 0.67113858461380004883 0.67111891508102416992 0.66781282424926757813 0.15104420483112335205 1 1 1 0 0 1 1 
0 0.058731321245431900024 0.035875838249921798706 0.10854890197515487671 0.12670609354972839355 0.015395959839224815369 0.004974809940904378891 0.0029216599650681018829 0.029153710231184959412 0.028654089197516441345 0.067467749118804931641 0.006336980033665895462 0.020438050851225852966 0.078706979751586914063 0.33996930718421936035 0.23339630663394927979 0.070751130580902099609 0.19462880492210388184 0.33586651086807250977 0.47024041414260864258 0.39559879899024963379 0.40353208780288696289 0.34929868578910827637 0.43574771285057067871 0.30890318751335144043 0.47974479198455810547 0.40664499998092651367 0.25732180476188659668 0.29859888553619384766 0.56661152839660644531 0.34839779138565063477 0.25769838690757751465 0.49576830863952636719 0.058877449482679367065 0.34588909149169921875 0.17327579855918884277 0.33739608526229858398 0.48956969380378723145 0.44199028611183166504 0.33869439363479614258 0.65816152095794677734 0.35347628593444824219 0.48944610357284545898 0.24537569284439086914 0.41181680560111999512 0.51104921102523803711 0.52032631635665893555 0.69877511262893676758 0.47242149710655212402 0.63256412744522094727 0.68913489580154418945 0 0.3451308906078338623 0 3.641999865067191422e-05 0 0 1 
0 0.10480769723653793335 0.07688678056001663208 0.1322765052318572998 0.046996898949146270752 0.088599950075149536133 0.12736199796199798584 0.023840539157390594482 0.10574310272932052612 0.069426238536834716797 0.011980880051851272583 0.068886190652847290039 0.042643070220947265625 0.048379018902778625488 0.0097176898270845413208 0.068081550300121307373 0.10761640220880508423 0.16476449370384216309 0.36388629674911499023 0.46648859977722167969 0.54197549819946289063 0.22482919692993164063 0.32452750205993652344 0.23904490470886230469 0.17316399514675140381 0.29051890969276428223 0.19575360417366027832 0.41972741484642028809 0.80716502666473388672 0.88715690374374389648 0.25796619057655334473 0.47163408994674682617 0.031141800805926322937 0.30051618814468383789 0.89364778995513916016 0.23079079389572143555 0.89886420965194702148 0.96468687057495117188 0.2445951998233795166 0.89586400985717773438 0.54395580291748046875 0.44583079218864440918 0.32715618610382080078 0.60844117403030395508 0.46292158961296081543 0.43301311135292053223 0.57024532556533813477 0.52951550483703613281 0.48265540599822998047 0.53370708227157592773 0.34859681129455566406 0.46212339401245117188 0.10127569735050201416 0 0.27006968855857849121 1 0 0 
0.18833130598068237305 0.14399389922618865967 0.010828830301761627197 0.07382869720458984375 0.096154026687145233154 0.17298980057239532471 0.30996900796890258789 0.1271533966064453125 0.45467010140419006348 0.024736659601330757141 0.13434700667858123779 0.076424621045589447021 0.022874839603900909424 0.019951319321990013123 0 0.015389380045235157013 0.20739109814167022705 0.1997852027416229248 0.8151760101318359375 0.29855048656463623047 0.28331381082534790039 0.148316994309425354 0.22125479578971862793 0.28662261366844177246 0.39530101418495178223 0.46539130806922912598 0.41839128732681274414 0.90867531299591064453 0.44000259041786193848 0.025359259918332099915 0.0059707202017307281494 0.008478119969367980957 0 0.015092830173671245575 0.11656639724969863892 0.58872747421264648438 0.59178107976913452148 0.87894171476364135742 0.7760639190673828125 0.93279981613159179688 0.63175058364868164063 0.70333719253540039063 0.85722202062606811523 0.89145398139953613281 0.74779260158538818359 0.55847620964050292969 0.62384247779846191406 0.53182840347290039063 0.45380979776382446289 0.4936237037181854248 0.40664249658584594727 0.24457310140132904053 0.30229181051254272461 0.3837356865406036377 0.27868148684501647949 0.30119401216506958008 0 0 
0.088553927838802337646 0.40979740023612976074 0.1238493993878364563 0.23057450354099273682 0.089870139956474304199 0.0093416385352611541748 0.01757217012345790863 0.10213100165128707886 0.20619459450244903564 0.05701639130711555481 0.0064065200276672840118 0.047351300716400146484 0.079951867461204528809 0.19999329745769500732 0.0066146701574325561523 0.077179618179798126221 0.25304839015007019043 0.46993649005889892578 0.92582792043685913086 0.44810581207275390625 0.25056898593902587891 0.12361810356378555298 0.14415350556373596191 0.19691820442676544189 0.42492049932479858398 0.79029572010040283203 0.42840749025344848633 0.62244927883148193359 0.76467192173004150391 0.014017320238053798676 0.019940720871090888977 0.00048047999734990298748 0.00016410999523941427469 0.00037438000435940921307 0.001464040018618106842 0.0027477699331939220428 0.48586648702621459961 0.43273600935935974121 0.990604400634765625 0.59760057926177978516 0.11103320121765136719 0.57096582651138305664 0.96703219413757324219 0.71135568618774414063 0.88016867637634277344 0.5195159912109375 0.12935979664325714111 0.22781980037689208984 0.40944451093673706055 0.50224548578262329102 0.21837720274925231934 0.21813270449638366699 0.47895950078964233398 0.36712500452995300293 0.30338439345359802246 0.27446860074996948242 0.033401709049940109253 0 
0.040429778397083282471 0.020696120336651802063 0.12842839956283569336 0.054307710379362106323 0.041407849639654159546 0.061277918517589569092 0.0074044498614966869354 0.003863990074023604393 0.1633262932300567627 0.044452298432588577271 0.29263061285018920898 0.28396791219711303711 0.24260190129280090332 0.19541870057582855225 0.047285128384828567505 0.049136780202388763428 0.24875390529632568359 0.77100402116775512695 0.90694671869277954102 0.4240976870059967041 0.25600001215934753418 0.070463672280311584473 0.078378088772296905518 0.09832859039306640625 0.36018711328506469727 0.48696878552436828613 0.37994059920310974121 0.32586359977722167969 0.29951989650726318359 0.59041959047317504883 0.065461911261081695557 0.0071149198338389396667 0.00063656002748757600784 0.00025260000256821513176 0.0026615199167281389236 0.0049979300238192081451 0.05341095849871635437 0.56222069263458251953 0.88478308916091918945 0.81595718860626220703 0.43257549405097961426 0.30087140202522277832 0.63047468662261962891 0.77560102939605712891 0.80434721708297729492 0.21473820507526397705 0.46541389822959899902 0 0.23750659823417663574 0.37994408607482910156 0.53545838594436645508 0.23013620078563690186 0.22575339674949645996 0.47318220138549804688 0.66974288225173950195 0.57320737838745117188 0.14776100218296051025 0.27000001072883605957 
0.0291500091552734375 0.016875440254807472229 0.10576180368661880493 0.067433312535285949707 0.015132189728319644928 0.034810520708560943604 0.05601267889142036438 0.012558439746499061584 0.13984920084476470947 0.028124690055847167969 0.032205048948526382446 0.13142579793930053711 0.079184032976627349854 0.058303400874137878418 0.063954591751098632813 0.021995630115270614624 0.052876431494951248169 0.11162389814853668213 0.71469032764434814453 0.58581107854843139648 0 0.18620729446411132813 0.29566460847854614258 0.30048349499702453613 0.20756070315837860107 0.46026849746704101563 0.63921189308166503906 0.0078594600781798362732 0.0066829901188611984253 0.058802358806133270264 0.036829140037298202515 0.0093763796612620353699 0.00097925995942205190659 0.00032654000096954405308 0.0034776800312101840973 0.005738679785281419754 0.018484700471162796021 0.019615480676293373108 0.3142586052417755127 0.48469018936157226563 0.45946419239044189453 0.33704361319541931152 0.090279102325439453125 0.0045222202315926551819 0.055558919906616210938 0.53018689155578613281 0.09674654155969619751 0.69049662351608276367 0.38774278759956359863 0.1766701042652130127 0.32599300146102905273 0.07057596743106842041 0.3996174931526184082 0.54127961397171020508 0.33255121111869812012 0.37770900130271911621 0.37496840953826904297 0.088715717196464538574 
0.040074128657579421997 0.11112710088491439819 0.038576468825340270996 0.043717440217733383179 0.043090760707855224609 0.61780500411987304688 0.63169538974761962891 0.01392203010618686676 0.16124740242958068848 0.051620438694953918457 0.058291409164667129517 0.30303388833999633789 0.22264100611209869385 0.098111771047115325928 0.16369409859180450439 0.040058381855487823486 0.1062567979097366333 0.3484674990177154541 0.85786348581314086914 0.48874211311340332031 0.18802399933338165283 0 0.29174530506134033203 0.013830630108714103699 0.014143220148980617523 0.24192090332508087158 0.00093183998251333832741 0.043534010648727416992 0.0070548402145504951477 0.00056100997608155012131 0.00079208001261577010155 0.00550128985196352005 0.0098712304607033729553 0.0096009802073240280151 0.0043332600034773349762 0.0032801600173115730286 0.010073250159621238708 0.011678789742290973663 0.18365579843521118164 0.4735692143440246582 0.4753074944019317627 0.18574349582195281982 0.043419189751148223877 0.0087997699156403541565 0.32242611050605773926 0.096620552241802215576 0.27088218927383422852 0.57776480913162231445 0.35726580023765563965 0.39774110913276672363 0.27891290187835693359 0.22859390079975128174 0.067331947386264801025 0.2197946012020111084 0.44730219244956970215 0.56730437278747558594 0.44970330595970153809 0.071990191936492919922 
0.059341181069612503052 0.099458992481231689453 0.0092757800593972206116 0.0066084298305213451385 0.0014930600300431251526 0.027443870902061462402 0.12536290287971496582 0 0.038412790745496749878 0.10163089632987976074 0.5327612757682800293 0.56496822834014892578 0.023582169786095619202 0.032533708959817886353 0.0077722398564219474792 0.017092999070882797241 0.16070580482482910156 0.46580269932746887207 0.6139494776725769043 0.29114881157875061035 0.090091742575168609619 0.21824279427528381348 0.0049240100197494029999 0.0059223799034953117371 0.015465850010514259338 0.028062829747796058655 0.005808949936181306839 0.0054852999746799468994 3.6649998946813866496e-05 0.0056650801561772823334 0.0006554700084961950779 0.00031323998700827360153 0.0099768303334712982178 0.0099760703742504119873 0.0095906592905521392822 0.0012076300336048007011 0.010253880172967910767 0.0020264498889446258545 0.037262480705976486206 0.13171190023422241211 0.0094198398292064666748 0.065869122743606567383 0.083320796489715576172 0.039758048951625823975 0.42209491133689880371 0.11091390252113342285 0.29882419109344482422 0.53818058967590332031 0.27082499861717224121 0.35366499423980712891 0.4514808952808380127 0.15650300681591033936 0.073000021278858184814 0.2849203944206237793 0.36923649907112121582 0.23220390081405639648 0.46341079473495483398 0.31959679722785949707 
0.026350250467658042908 0.03763120993971824646 0.012988190166652202606 0 0.0038668399211019277573 0.066187992691993713379 0.056823249906301498413 0.00087639002595096826553 0.037256561219692230225 0.026734700426459312439 0.1973841935396194458 0.17922909557819366455 0.033884610980749130249 0.0088043604046106338501 0.014235479757189750671 0.11451400071382522583 0.12944090366363525391 0.15304470062255859375 0.70539927482604980469 0.23087149858474731445 0.0063854400068521499634 0.0075464700348675251007 0.18988519906997680664 0.19881950318813323975 0.00025159001233987510204 0.0011468200245872139931 0.00015560000611003488302 2.1359999664127826691e-05 0 0.00033750999136827886105 0.017323290929198265076 0.010187219828367233276 0.01001434028148651123 0.009970339946448802948 0.0099579701200127601624 0.0099618202075362205505 0.00032565998844802379608 0.0059624100103974342346 0.023069959133863449097 0.057700898498296737671 0.034596379846334457397 0.0015547299990430474281 0.014777629636228084564 0.041644141077995300293 0.058372609317302703857 0.14530350267887115479 0.52661442756652832031 0.61614751815795898438 0.17585060000419616699 0.55912542343139648438 0.5295740962028503418 0.095320731401443481445 0.30452749133110046387 0.39464110136032104492 0.29957601428031921387 0.11598370224237442017 0.3341147005558013916 0.37693071365356445313 
0 0 0 0 0 0.019253430888056755066 0.036331668496131896973 0.0083147697150707244873 0.008796540088951587677 0.056102760136127471924 0.37832030653953552246 0.23626509308815002441 0.053015191107988357544 0.033630918711423873901 0.02258001081645488739 0.13416969776153564453 0.11120019853115081787 0.28327929973602294922 0.52066922187805175781 0.31825101375579833984 0.0035809599794447422028 0.0051182499155402183533 0.16732269525527954102 0.00090462999651208519936 0.00060309999389573931694 0.00023648000205866992474 2.2759999410482123494e-05 4.0999998418556060642e-06 1.3320000107341911644e-05 0.00063432002207264304161 0.00029977998929098248482 0.010207840241491794586 0.0099876895546913146973 0.0099291596561670303345 0.0097206402570009231567 0.0099276499822735786438 0.009901198558509349823 0.0085770096629858016968 0.010088520124554634094 0.015145439654588699341 0.022056240588426589966 0.0071250298060476779938 0.010691910050809383392 0.32037168741226196289 0.09626623988151550293 0.23398570716381072998 0.83654332160949707031 0.5288931727409362793 0.2058168947696685791 0.58174282312393188477 0.50466400384902954102 0.37387588620185852051 0.27561590075492858887 0.16102729737758636475 0.36045420169830322266 0.23689499497413635254 0.38665360212326049805 0.24077589809894561768 
0.040345758199691772461 0.12272539734840393066 0.12597349286079406738 0 0 0 0.07894159853458404541 0.080264627933502197266 0.037767399102449417114 0.016249530017375946045 0.095840282738208770752 0.09181795269250869751 0.5717620849609375 0.38334900140762329102 0.079702436923980712891 0.059694729745388031006 0.13028499484062194824 0.88266652822494506836 0.91180187463760375977 0.037114549428224563599 0.11533939838409423828 0.015410199761390686035 0.097163632512092590332 1.6120000509545207024e-05 1.9549999706214293838e-05 1.8750000890577211976e-05 0 0 0 9.7900001492234878242e-06 2.1469999410328455269e-05 5.9729998611146584153e-05 0.00018006000027526170015 0.0010823500342667102814 0.0098727801814675331116 0.0076290201395750045776 0.0011269199894741177559 0.0098848398774862289429 0.00996505003422498703 0.007268169894814491272 0.0092650800943374633789 6.3510000472888350487e-05 0.021960439160466194153 0.10607329756021499634 0.045175950974225997925 0.21101020276546478271 0.9406579136848449707 0.9319788813591003418 0.37747201323509216309 0.47371178865432739258 0.024012140929698944092 0.21434210240840911865 0.2872276008129119873 0.008731840178370475769 0.038328159600496292114 0.33184918761253356934 0.19566759467124938965 0.30772900581359863281 
0.31827309727668762207 0.83586418628692626953 0.31034898757934570313 0 0 0.041606988757848739624 0.22700290381908416748 0.1448539048433303833 0.19402030110359191895 0.048435628414154052734 0.32654631137847900391 0.30041399598121643066 0.83709287643432617188 0.44904670119285583496 0.12691479921340942383 0.14746770262718200684 0.19277790188789367676 0.840301513671875 0.10720530152320861816 0.12385480105876922607 0.016032470390200614929 0.11273439973592758179 0.1238171011209487915 2.3819999114493839443e-05 1.3199999557400587946e-05 0 0 0 0 3.0119999792077578604e-05 1.0079999810841400176e-05 0.00021218000620137900114 3.8689999200869351625e-05 3.0479999622912146151e-05 0.005748889874666929245 0.0090138697996735572815 0.00020350000704638659954 0.00051644002087414264679 0.0098790414631366729736 0.0079177394509315490723 0.0023310699034482240677 0.0056233801878988742828 0.0057180500589311122894 0.11085130274295806885 0.21662449836730957031 0.15395590662956237793 0.38697540760040283203 0.61882030963897705078 0.26972571015357971191 0.20951659977436065674 0.66721022129058837891 0.040287420153617858887 0.13437320291996002197 0.017045700922608375549 0.043665230274200439453 0.28056430816650390625 0.17071780562400817871 0.23091299831867218018 
0.18759310245513916016 0.54319930076599121094 0.12482439726591110229 0.0048773898743093013763 0.017621770501136779785 0.57205069065093994141 0.84715831279754638672 0.8479785919189453125 0.59588438272476196289 0.033536478877067565918 0.1830206066370010376 0.3021551966667175293 0.35000759363174438477 0.18693549931049346924 0.0099251996725797653198 0.057659119367599487305 0.93098777532577514648 0.12489669770002365112 0.33115249872207641602 1 0.63149929046630859375 0.39366281032562255859 0.015814669430255889893 0.00019927999528590589762 0.0011215100530534982681 1.8920000002253800631e-05 0 0 0 1.079999947251053527e-06 1.4299999975264654495e-06 3.1769999623065814376e-05 2.8300000849412754178e-05 3.0639999749837443233e-05 0.00020286999642848968506 0.0067460201680660247803 0.0018652599537745118141 0.0059547200798988342285 0.0070638298057019710541 0.001195420045405626297 0.00052259000949561595917 0.00067635002778843045235 0.0010745599865913391113 0.009850630536675453186 0.25382649898529052734 0.34845969080924987793 0.022047059610486030579 0.012254009954631328583 0.067025579512119293213 0.11707919836044311523 0.072179913520812988281 0.028287269175052642822 0.13782919943332672119 0.0097891297191381454468 0.014420700259506702423 0.15762729942798614502 0.11903499811887741089 0.088993802666664123535 
0 0 0.0024511099327355623245 0.011893119663000106812 0.091833010315895080566 0.86375790834426879883 0.94690078496932983398 0.17783440649509429932 0.63302892446517944336 0.01791775040328502655 0.2223637998104095459 0.30306649208068847656 0.90965628623962402344 0.094059363007545471191 0.010642630048096179962 0.14689019322395324707 0.53240567445755004883 1 0.52934598922729492188 0.0060622999444603919983 0.54517698287963867188 0.14190649986267089844 4.2629999370547011495e-05 5.4460000683320686221e-05 4.4230000639799982309e-05 0.00018360999820288270712 1.9700000848388299346e-05 1.9360000806045718491e-05 0 0 0 0 9.9999999747524270788e-07 5.4299998737405985594e-06 1.1439999980211723596e-05 6.3299987232312560081e-05 0.003713839920237660408 0.0091370204463601112366 0.0095131201669573783875 0.00085979001596570014954 0.0011444999836385250092 0.0076905097812414169312 0.0072326101362705230713 0.012429979629814624786 0.1898683011531829834 0.36961320042610168457 0.030852179974317550659 0.024623310193419456482 0.017670249566435813904 0.015200969763100147247 0.054194379597902297974 0 0.092179812490940093994 0.010382000356912612915 0.03530041128396987915 0.024875469505786895752 0.15509709715843200684 0.17564240097999572754 
0 0.00024064999888651072979 0.014721020124852657318 0.0089541403576731681824 0.015790840610861778259 0.31383860111236572266 0.54473477602005004883 0.25019121170043945313 0.043324250727891921997 0.014779180288314819336 0.30685579776763916016 0.031131779775023460388 0.05946825072169303894 0.023253729566931724548 0.0046349400654435157776 0.25034621357917785645 0.98153018951416015625 1 0.59788239002227783203 1 0.00023534000501967966557 7.3640003392938524485e-05 1.9970000721514225006e-05 7.4700001277960836887e-06 1.0939999810943845659e-05 1.9439999960013665259e-05 6.9499998062383383512e-05 9.0699995780596509576e-06 9.0599996838136576116e-06 9.0699995780596509576e-06 0 0 0 1.4099999816608033143e-06 6.8000002784174284898e-07 1.1199999789823777974e-06 1.2970000170753337443e-05 0.00073361000977456569672 0.0087884701788425445557 0.0046798801049590110779 0.0012402699794620275497 0.010306550189852714539 0.011739119887351989746 0.010386659763753414154 0.051105350255966186523 0.21893709897994995117 0.044561501592397689819 0.021598389372229576111 0.017229100689291954041 0.0096728093922138214111 0.005533639807254076004 0.039094969630241394043 0.053395669907331466675 0.018270099535584449768 0.039906051009893417358 0.0096360500901937484741 0.12201280146837234497 0.33081409335136413574 
0.018673460930585861206 0.0088068898767232894897 0.0095492200925946235657 0.024660650640726089478 0.077236123383045196533 0.074055060744285583496 0.070098571479320526123 0.067520447075366973877 0.27605229616165161133 0.13995319604873657227 0.41436681151390075684 0.086573630571365356445 0.74177980422973632813 0.99617248773574829102 1 0.0023012598976492881775 1 1 1 1 0.0016241699922829866409 3.826000101980753243e-05 1.861999953689519316e-05 1.8909999198513105512e-05 0 1.3120000403432641178e-05 0.00022062000061850994825 7.539999842265387997e-06 4.5599999793921597302e-06 1.4299999975264654495e-06 3.8099999528640182689e-06 0 0 0 0 0 1.259999976355175022e-06 3.5109998862026259303e-05 0.00059016997693106532097 0.00022226999863050878048 0.0010139399673789739609 0.012561170384287834167 0.013141440227627754211 0.0032893801108002662659 0.014642329886555671692 0.14304900169372558594 0.035996608436107635498 0.040724299848079681396 0.0045477398671209812164 0.08504390716552734375 0.028290189802646636963 0.047591999173164367676 0.088517762720584869385 0.095363341271877288818 0.047007158398628234863 0.062609151005744934082 0.05078089982271194458 0.18259300291538238525 
0.80696117877960205078 0.69042801856994628906 0.84376579523086547852 0.12011899799108505249 0.10846730321645736694 0.074485890567302703857 0.018083069473505020142 0.24789759516716003418 0.00073975999839603900909 0.99984759092330932617 0.055681709200143814087 0.76591157913208007813 0.63954710960388183594 0.41029238700866699219 0.0057543599978089332581 0.05434555932879447937 0.99999970197677612305 0.00038340000901371240616 0.0015331499744206666946 1 0.0019775000400841236115 7.0989997766446322203e-05 3.1560000934405252337e-05 0 0 4.5299998419068288058e-06 4.5299998419068288058e-06 2.3040000087348744273e-05 0.00086323998402804136276 5.6079999922076240182e-05 0.00082745001418516039848 6.469999789260327816e-06 0 0 0 0 3.9199999264383222908e-06 2.4000000848900526762e-06 9.4000000672167516313e-07 3.4360000427113845944e-05 0.001853649970144033432 4.3970001570414751768e-05 0.001192050054669380188 0.0090584997087717056274 0.0084412805736064910889 0.016828259453177452087 0.17247499525547027588 0.068084068596363067627 0.11548169702291488647 0.16800990700721740723 0.22469450533390045166 0.20747159421443939209 0.17459209263324737549 0.17656719684600830078 0.021030649542808532715 0.11167570203542709351 0.30673009157180786133 0.44042599201202392578 
0.60348832607269287109 0.26036950945854187012 0.69602662324905395508 0.75637078285217285156 0.45294278860092163086 0.00069026002893224358559 0.05486062169075012207 0.00047845000517554581165 0.00075752002885565161705 0.046129021793603897095 0 0.0011174400569871068001 0.031652018427848815918 1 1 0.027698630467057228088 0.99999952316284179688 0.00027367999427951872349 0.99999862909317016602 0.99997627735137939453 0.0030313800089061260223 0.00024853000650182366371 8.5090003267396241426e-05 0 0 0.00012939999578520655632 3.0999999580672010779e-05 8.0549987615086138248e-05 0.00076235999586060643196 3.8760001189075410366e-05 1.1760000234062317759e-05 1.287000031879870221e-05 0 0 0 0 0 0 9.4000000672167516313e-07 4.630000148608814925e-06 2.1299999843904515728e-06 5.2409999625524505973e-05 6.0009999288013204932e-05 0.0030610500834882259369 0.016423169523477554321 0.00014213999384082853794 0.13698579370975494385 0.13809280097484588623 0.080176763236522674561 0.21290339529514312744 0.34898990392684936523 0.28306740522384643555 0.19163949787616729736 0.17650449275970458984 0.17873719334602355957 0.1603094935417175293 0.24966339766979217529 0.25014010071754455566 
0.10541229695081710815 0.36944499611854553223 0.64316481351852416992 0.86681020259857177734 0.14023150503635406494 0.0022631199099123477936 0.00068635999923571944237 0.010063529945909976959 0.010692650452256202698 0.0019118599593639373779 0.027687450870871543884 0.00043014998664148151875 0.019062759354710578918 0.56970077753067016602 0.00044467000407166779041 0.00014446000568568706512 0.00014448000001721084118 0.0002739799965638667345 0.00027367999427951872349 0.001214239979162812233 0.0020001500379294157028 0.00053010002011433243752 0 0 0 0 0.0029823901131749153137 0.0016850200481712818146 0.0013928300468251109123 0.00059468997642397880554 1.1799999811046291143e-05 9.3259986897464841604e-05 0 0 0 0 0 0 0 0 0 8.0399995567859150469e-06 0.00020187000336591154337 0.00049762998241931200027 0.0032110800966620445251 0.015729770064353942871 0.00011085999722126871347 0.21316629648208618164 0.70248281955718994141 0.17138080298900604248 0.23004870116710662842 0.065172322094440460205 0.14793020486831665039 0.12041299790143966675 0.16203099489212036133 0.15847940742969512939 0.092069588601589202881 0.15590779483318328857 
0.006589369848370552063 0.0019576500635594129562 0.053779341280460357666 0.92976081371307373047 0.24501340091228485107 0.00212574005126953125 0.00017431000014767050743 8.619999789516441524e-06 5.1089999033138155937e-05 0.0034209298901259899139 0.00020687999494839459658 0.00041112999315373599529 1 1 0.016100659966468811035 8.6669999291189014912e-05 3.0409999453695490956e-05 7.8000002758926711977e-06 5.1400002121226862073e-06 4.9999998736893758178e-06 1.7709999156068079174e-05 1.9300000531075056642e-06 0 0 0 0 0.00040491000982001423836 0.0016528799897059798241 0.99907767772674560547 0.0046042799949645996094 1.6530000721104443073e-05 0.0010898499749600887299 0 0 0 0 0 0 0 0 0 9.7839998488780111074e-05 0 1.522999991721007973e-05 1.7369999113725498319e-05 0.00091092998627573251724 0.0017114799702540040016 0.015002509579062461853 0.020935060456395149231 0.29508170485496520996 0.015635769814252853394 0.033135820180177688599 0.029349489137530326843 0.10234130173921585083 0.32245180010795593262 0.49194380640983581543 0.48944059014320373535 0 
0.0055451700463891029358 3.5389999538892880082e-05 0.0030252200085669755936 0.0013162300456315279007 0.00013566999405156821012 0.00057676999131217598915 0.0010830300161615014076 0.00020823000522796064615 0.99661177396774291992 0.99979448318481445313 0.99982160329818725586 0.99999272823333740234 1 1 0.000318700011121109128 4.5100000534148421139e-06 3.5299999581184238195e-06 2.7399998998589580879e-06 1.679999968473566696e-06 8.3999998423678334802e-07 0 0 0 0 0 0 0.00039450998883694410324 0.0016653500497341156006 0.0017022000392898917198 0.0045340098440647125244 1.2939999578520655632e-05 1.2909999895782675594e-05 0 0 0 0 0 0 0 0 0 0 0 5.7199999901058617979e-06 8.9999994088429957628e-06 1.4700000065204221755e-05 4.4109998270869255066e-05 0.00013600999955087900162 0.019711719825863838196 0.004474639892578125 0.00052802002755925059319 0.039038009941577911377 0.03810865059494972229 0.076695010066032409668 0.17957550287246704102 0 0.038432419300079345703 0.4272924959659576416 
1.124000027630245313e-05 0.0036698998883366584778 0.00025151000590994954109 0.034608241170644760132 0.97071820497512817383 0.9251232147216796875 0.98363381624221801758 0.99991512298583984375 0.99997681379318237305 0.99991089105606079102 0.99997621774673461914 0.99999588727951049805 0.99996262788772583008 1 1.9639999663922935724e-05 8.3999998423678334802e-07 8.3999998423678334802e-07 0 0 0 0 0 0 0 0 0 0.24382309615612030029 0.0016489799600094556808 0.0016909800469875335693 0.0012197199976071715355 1.2939999578520655632e-05 1.2720000086119398475e-05 0 0 0 0 0 0 0 0 0 0 0 2.7399998998589580879e-06 5.8800001170311588794e-06 1.1649999578366987407e-05 6.184999801917001605e-05 0.0001840799959609284997 0.0099888201802968978882 0.004806939978152513504 0.00069280999014154076576 0.038656238466501235962 0.038586851209402084351 0.030535239726305007935 0.020031029358506202698 0.0052940999157726764679 0.0040920698083937168121 0.21274580061435699463 
0.77588289976119995117 0.98132187128067016602 0.99917328357696533203 0.99992287158966064453 0.99995797872543334961 0.999477386474609375 0.99893641471862792969 0.99982887506484985352 0.99999648332595825195 0.99999910593032836914 0.99998778104782104492 0.99999451637268066406 1 1 0 0 0 0 0 0 0 0 0 0 0 0 0.70899307727813720703 0.0057070702314376831055 0.0017183499876409769058 2.4490000214427709579e-05 0.00032784001086838543415 1.1979999726463574916e-05 0 0 0 0 0 0 0 0 0 0 0 0 0 0 9.1700003395089879632e-06 0.00010081000073114410043 3.9329999708570539951e-05 0.001003460027277469635 0.0074572199955582618713 0.0058211898431181907654 0.00074300001142546534538 0.00023150999913923442364 0.00039177000871859490871 0.021642530336976051331 0.024293079972267150879 0.038890559226274490356 
0.01782465912401676178 0.99836128950119018555 0.99799132347106933594 0.9999713897705078125 0.9998080134391784668 0.999980926513671875 0.99999558925628662109 0.9999980926513671875 0.9999980926513671875 1 1 0.99999690055847167969 0.99996572732925415039 0 0 0 0 0 0 0 0 0 0 0 0 0 0 0.0027419200632721185684 0.0046135499142110347748 2.4420000045211054385e-05 0.001838200027123093605 0 0 0 0 0 0 0 0 0 0 0 0 0 0 0 4.9909998779185116291e-05 0.00018370999896433204412 3.8520000089192762971e-05 8.0350000644102692604e-05 6.1339997046161442995e-05 2.7699999918695539236e-05 0 0 0 0 0.00047828999231569468975 0.059030991047620773315 
0.0042635798454284667969 0.93635857105255126953 0.9968547821044921875 0.99697411060333251953 5.4910000471863895655e-05 0.99999827146530151367 1 1 1 1 0.99999338388442993164 0.99998492002487182617 0.99891102313995361328 0 0 0 0 0 0 0 0 0 0 0 0 0 0 0 0.0017354900483042001724 2.20399997488129884e-05 0 0 0 0 0 0 0 0 0 0 0 0 0 0 0 0 1.4229999578674323857e-05 5.0359998567728325725e-05 0 2.2289999833446927369e-05 2.0030000086990185082e-05 0.00022842999896965920925 0 0 0 0 4.6899999688321258873e-06 0.05023637041449546814 
