ncols        58
nrows        32
xllcorner    -88.230598449707
yllcorner    30.253496170044
cellsize     0.037850160152
NODATA_value -9999
0.0 0 0 0 1 1 1 0 0 0 0 0 0 0 0 0 0 0 0 0 0 0 0 0 0 0 0 0 0.89309418201446533203 1 0 1 1 1 0 0 0 0 0 0 0 0 1 0 0 1 1 0 0 1 1 1 1 0 0 0 0 0 
0 0 0 1 0 1 1 1 0.98850578069686889648 0 0 0 0 0 0 0 0 0 0 0 0 0.4908517003059387207 1 0 0 0 0 0.78762322664260864258 0.68790727853775024414 1 1 1 1 0 0 0 0 0 0 0 0 0.27187529206275939941 1 1 0.93486577272415161133 0 1 1 1 1 1 1 1 1 0 0 0 0 
0 0 0 1 1 1 1 1 0.98161369562149047852 0 0.92910301685333251953 0 0 0 0 0 0 0 0 0 1 1 0 0 0 0.96617132425308227539 1 1 1 1 1 0 0 0 1 1 0 1 1 1 0 1 1 0 1 0 0 0 1 0 1 1 1 1 1 1 1 1 
1 0 0 0.62537658214569091797 1 0.56613862514495849609 1 0.99329638481140136719 1 1 0.97007101774215698242 0 0 0 0 0 1 0 1 0 1 0 0 0 0 1 1 0 0 0 0 0 0 0 0 6.2250001064967364073e-05 0 0 0.0038137699011713266373 0.00011723000352503731847 0.0001776300050551071763 5.6680000852793455124e-05 0.0019262100104242563248 3.1550000130664557219e-05 1 0 0 0 0 1 1 0 0 0 0 0 0 0 
0.9849720001220703125 0.55782991647720336914 0.82364958524703979492 0.99616032838821411133 1 0.95202577114105224609 1 0.80041861534118652344 0.96865552663803100586 0.95252507925033569336 0.91756117343902587891 0.94079291820526123047 0 0.98381388187408447266 0 0 1 0 0 0 1 0 0 0 0.00055018998682498931885 0 0.0005892399931326508522 0 0 0 0 0 0 0 0 1.7559999832883477211e-05 0 0 0 8.8599999799043871462e-06 0.00091962999431416392326 0.0012891299556940793991 9.6700014182715676725e-06 0.12846319377422332764 0 0 0 0 0 0 0 0 0 0 0 0 0 0 
0.723812103271484375 0.88697838783264160156 0.48820930719375610352 0 0 1 0.83438277244567871094 0 0.11248149722814559937 0.48869079351425170898 1 1 1 0 0 0 0 0 0 0 0 0 0.0023481799289584159851 9.7110001661349087954e-05 0 0 0.00082240998744964599609 0.00030611999682150781155 0.0010945900576189160347 0 0 0 0 0 0 4.1229999624192714691e-05 0 0.0023898798972368240356 3.9459999243263155222e-05 0.00022082000214140862226 0.00084208999760448932648 0.00016675000370014458895 0 0.00089301000116392970085 0.00054480001563206315041 0 0 0 0 0 0 0.63358598947525024414 0 0 0.79246771335601806641 0 0 0 
0.080741651356220245361 0.0018181799678131937981 0.045549970120191574097 0.10460030287504196167 0.48821228742599487305 0.28983089327812194824 0.33837249875068664551 0.76299971342086791992 0.18452079594135284424 0 0 0.54516911506652832031 0.17926320433616638184 0.10890279710292816162 0.34149250388145446777 0.11793559789657592773 0 0.071987368166446685791 0.0048985998146235942841 0 0 0 0.00032995999208651483059 0.00011832000018330290914 0.00038792000850662589073 0 0.0024469699710607528687 0.0005145099712535738945 0 0.0027674499433487653732 0 0.00015989999519661068916 0 0 0 0.00015490999794565141201 0 0 0.0003847999905701726675 0.00011886999709531664848 0.001814960036426782608 0.0023508099839091300964 0.00012096000136807560921 0.00096456997562199831009 0.00049572001444175839424 0.0017615499673411250114 6.9319998146966099739e-05 0.00016615999629721045494 0 0.0036524999886751174927 0 0 0 0 1 1 0 0 
0.073383443057537078857 0.21293950080871582031 0.10841999948024749756 0.088941283524036407471 0.11604200303554534912 0.14188529551029205322 0.6937224268913269043 0.39864259958267211914 0.27650099992752075195 0.48564440011978149414 0.13314980268478393555 0.052825201302766799927 0 0 0 0 0 0 0.0046295998618006706238 0 0 0 0.003147719893604516983 0.0001895900059025734663 0 0.0040138899348676204681 0 0.0023219299037009477615 0.00037702001282013952732 0 0 0 0.0033873599022626876831 0.00033894000807777047157 0 0 0.00014742999337613582611 0 0.00082394998753443360329 0.00096475001191720366478 0.00055131997214630246162 0.00041504000546410679817 0.001258700038306415081 0.0018687399569898843765 0.0021217400208115577698 0.00069429998984560370445 0.00029679000726900994778 0 3.9229998947121202946e-05 0.0011825399706140160561 0 0 0.14366610348224639893 1 0.99989598989486694336 1 1 0 
0.056346260011196136475 0.20920099318027496338 0.082761056721210479736 0.43818038702011108398 0.23384930193424224854 0.19095550477504730225 0.056218370795249938965 0.3178037106990814209 0.34648779034614562988 0.21015889942646026611 0.037319388240575790405 0 0.010732609778642654419 0 0.021715840324759483337 0.056358840316534042358 0.0061075701378285884857 0.00086746999295428395271 0.0078706005588173866272 0 0 0 0.00036259999615140259266 0.00018741999519988894463 0 0.0008754599839448928833 0 0.00023896999482531100512 0.00022308999905362725258 0.00033218998578377068043 0.084559060633182525635 0.0089452303946018218994 0.8945369720458984375 0.0035879800561815500259 0.0056704101152718067169 0.0016762600280344486237 0.00032866999390535056591 0 0.0001165200010291300714 0 0.00039097000262700021267 0.0032685298938304185867 0.0063021997921168804169 0.00039912000647746026516 0 0.0018418199615553021431 0.00064788997406139969826 0 0.0016795300180092453957 0 0.00068494997685775160789 0.0045375400222837924957 0 0 0.020755250006914138794 0 1 1 
0.1019868999719619751 0.03171519935131072998 0.081681042909622192383 0.5092251896858215332 0.14933210611343383789 0.2530454099178314209 0.18647730350494384766 0.023394240066409111023 0.0070928498171269893646 0.16143970191478729248 0.14700829982757568359 0.099902957677841186523 0.2283429950475692749 0.02774621918797492981 0 0.018246810883283615112 0.0018919799476861953735 9.7890013421420007944e-05 0 0 0 0 0 0 0 0 0 3.5289998777443543077e-05 0.00152551999781280756 0.94173681735992431641 0.99071151018142700195 0.99028611183166503906 0.89020621776580810547 0.88313567638397216797 0.17960730195045471191 0.033306758850812911987 0.012569000013172626495 0.0032514398917555809021 0.0015045299660414457321 0 0.0005080099799670279026 0 0.004735750146210193634 0.0027862000279128551483 0.00061089999508112668991 0.00011896999785676598549 0.00018406000162940472364 2.759999915724620223e-05 2.3099999452824704349e-05 0.0033078200649470090866 0.00030024000443518161774 0.035261150449514389038 0.012099410407245159149 0.00053223001305013895035 0.0012846899917349219322 0.031178390607237815857 1 1 
0.45480328798294067383 0.33624470233917236328 0.61942762136459350586 0.68663841485977172852 0.14763200283050537109 0.073218606412410736084 0.052959550172090530396 0.01900706067681312561 0.0087053598836064338684 0.089235849678516387939 0.093381538987159729004 0.29775041341781616211 0.007850039750337600708 0 0 0 0.00047857000026851892471 0 0 0 0 4.3860000005224719644e-05 0 0 0 0 0 0.00033313001040369272232 0.0022480199113488197327 0.98151582479476928711 0.97829598188400268555 0.99786812067031860352 0.99184370040893554688 0.98895949125289916992 0.96702748537063598633 0.91043901443481445313 0.0030881799757480621338 0.00087187002645805478096 0.00048907997552305459976 0.0071671297773718833923 0.013586790300905704498 0.034652531147003173828 0.00065265997545793652534 0.028287449851632118225 0.0047950400039553642273 0.000472529995022341609 0.00032642998849041759968 0 0 0.00013658999523613601923 0.13743379712104797363 0.018741849809885025024 0.00095588999101892113686 0.021888470277190208435 0.21870589256286621094 0.031372010707855224609 0.013357870280742645264 1 
0.78842711448669433594 0.59445822238922119141 0.56710618734359741211 0.53519660234451293945 0.24556979537010192871 0.54443788528442382813 0.11125420033931732178 0.20231969654560089111 0.062485411763191223145 0.32229059934616088867 0.023323310539126396179 0 0.00047818999155424535275 0.00017974000365938991308 0 0 0 0 0 0 0 0.00061346002621576189995 0 0 0 0 0 0.00011675999849103391171 0.0068181399255990982056 0.39367339015007019043 0.93204909563064575195 0.89222490787506103516 0.87515908479690551758 0.97901380062103271484 0.87390768527984619141 0.78680187463760375977 0.48878169059753417969 0.18337179720401763916 0.011092100292444229126 0.0055901501327753067017 0.016728550195693969727 0.12113410234451293945 0.013328519649803638458 0.032197128981351852417 0.0041421297937631607056 0.0025040400214493274689 0.00447699008509516716 0 0 0 5.6220000260509550571e-05 0.24497519433498382568 0.34042429924011230469 0.23058770596981048584 0.038931060582399368286 0.10312499850988388062 0.028538320213556289673 0 
0.83008188009262084961 0.57369959354400634766 0.63293570280075073242 0.49168789386749267578 0.19149169325828552246 0.4743595123291015625 0.5085036158561706543 0.032765831798315048218 0.096248857676982879639 0.11129680275917053223 0.08774992823600769043 0 0.0071172001771628856659 0.00041561998659744858742 4.1070001316256821156e-05 0 0 0 0 0 0 0.17409910261631011963 5.8649999118642881513e-05 0.00064307998400181531906 0.001733929966576397419 0.0090124104171991348267 0.061821650713682174683 0.99022352695465087891 0.98665791749954223633 0.88094240427017211914 0.84765511751174926758 0.79395622014999389648 0.83432978391647338867 0.83744597434997558594 0.80407631397247314453 0.72314977645874023438 0.53808760643005371094 0.13860780000686645508 0.12435930222272872925 0.0087257400155067443848 0.008071249350905418396 0.1672181934118270874 0.58818238973617553711 0.59458827972412109375 0.0606517009437084198 0.023906400427222251892 0.27620241045951843262 0.010375750251114368439 0.00054267002269625663757 0.0002316799946129322052 0.00011536000238265842199 0.32248988747596740723 0.29505130648612976074 0.10250020027160644531 0.20776809751987457275 0.03712913021445274353 0.043851461261510848999 0.0013857299927622079849 
0.78794187307357788086 0.54995012283325195313 0.38800251483917236328 0.56182187795639038086 0.25715410709381103516 0.31444060802459716797 0 0 0.0033391199540346860886 0.13351890444755554199 0.10949499905109405518 0 0.00040746000013314187527 0 0.0007532900199294090271 0 0 0 0 0 0 0 0.028774889186024665833 0.00044714999967254698277 0.00078126997686922550201 0.0062502599321305751801 0.99282431602478027344 0.83269041776657104492 0.91064292192459106445 0.98486047983169555664 0.98757439851760864258 0.85085517168045043945 0.78744041919708251953 0.7394211888313293457 0.73136270046234130859 0.66232818365097045898 0.29260051250457763672 0.13323989510536193848 0.097427956759929656982 0.024887060746550559998 0.018825130537152290344 0.32079538702964782715 0.54331290721893310547 0.55636429786682128906 0.029856629669666290283 0.035666670650243759155 0.041559409350156784058 0.01106849033385515213 0.0081010898575186729431 0.0010330999502912163734 0.001086410018615424633 8.920000254875048995e-05 0 0.27905058860778808594 0.21640449762344360352 0.014563489705324172974 0.061703041195869445801 0.094236709177494049072 
0.74352151155471801758 0.36475768685340881348 0.38176929950714111328 0.30836060643196105957 0.087768733501434326172 0.1242344975471496582 0.045130629092454910278 0.13818329572677612305 0.012437700293958187103 0.0030060799326747655869 0.030832530930638313293 8.8070002675522118807e-05 0 0.0019029800314456224442 0.011012259870767593384 0.001118359970860183239 0 0 0 0 0.00050821999320760369301 0.01606950908899307251 0.0022785500623285770416 0.0030038501136004924774 0.0017531099729239940643 0.0042653200216591358185 0.87454849481582641602 0.155329093337059021 0.011326479725539684296 0.50812178850173950195 0.86019361019134521484 0.86068499088287353516 0.74135357141494750977 0.73913627862930297852 0.69742631912231445313 0.67562669515609741211 0.34376990795135498047 0.047395810484886169434 0.22298330068588256836 0.23787519335746765137 0.61910462379455566406 0.44300758838653564453 0.35465419292449951172 0.44256979227066040039 0.024218849837779998779 0.032315358519554138184 0.071785621345043182373 0.037988178431987762451 0.029571380466222763062 0.017245169728994369507 0.0041149500757455825806 0.0002556999970693141222 0.00020485000277403742075 0.038928598165512084961 0.21457029879093170166 0.068215318024158477783 0.19903379678726196289 0.024762339890003204346 
0.60156047344207763672 0.58602392673492431641 0.5008932948112487793 0.59945261478424072266 0.13895219564437866211 0.32204508781433105469 0.14252379536628723145 0.022326799109578132629 0.08601169288158416748 0.031608488410711288452 0.00021527000353671610355 0.00098826992325484752655 0.003092830069363117218 0.0025716798845678567886 0.025501409545540809631 0.001374950050376355648 0 0 0 0.00033668999094516038895 0.011897649616003036499 0.016148069873452186584 0.21493990719318389893 0.19316059350967407227 0.99908578395843505859 0.90597188472747802734 0.52858322858810424805 0.501918792724609375 0.69674342870712280273 0.99421989917755126953 0.57609647512435913086 0.71408981084823608398 0.69972872734069824219 0.68906480073928833008 0.77121138572692871094 0.77575051784515380859 0.66869652271270751953 0.62131702899932861328 0.46839889883995056152 0.42808479070663452148 0.34171760082244873047 0.060597959905862808228 0.25539669394493103027 0.089610278606414794922 0.052037369459867477417 0.25812220573425292969 0.033501870930194854736 0.032081209123134613037 0.03658502921462059021 0.005206509958952665329 0.0035653600934892892838 0.0019957199692726135254 0.0021289200522005558014 0.00095051998505368828773 0.00016528999549336731434 0.029758859425783157349 0.18006320297718048096 0.0018247499829158186913 
0.67402970790863037109 0.61272591352462768555 0.46508449316024780273 0.38575020432472229004 0.24254900217056274414 0.20775209367275238037 0.15864530205726623535 0.35690829157829284668 0.29100519418716430664 0.094871580600738525391 0.010479579679667949677 0.012436450459063053131 0.042716950178146362305 0.00075852998998016119003 0.056579791009426116943 0 0.00083325000014156103134 0.00047199000255204737186 0.00023403999512083828449 0.00094291998539119958878 0.0019672000780701637268 0.026803540065884590149 0.21904200315475463867 0.99467009305953979492 0.89878737926483154297 0.68395537137985229492 0.54318410158157348633 0.52554839849472045898 0.50345987081527709961 0.67580240964889526367 0.98425191640853881836 0.72080439329147338867 0.67205739021301269531 0.63960242271423339844 0.6122729182243347168 0.76867949962615966797 0.67089539766311645508 0.63799607753753662109 0.60346090793609619141 0.66627097129821777344 0.63497471809387207031 0.29958760738372802734 0.42622780799865722656 0.032650809735059738159 0.054562740027904510498 0.080723926424980163574 0.03094285912811756134 0.021687820553779602051 0.032008729875087738037 0.010639790445566177368 0.0030301499646157026291 0.00012019999849144369364 0.0041925599798560142517 0.007315800059586763382 0.0028521800413727760315 0.00028718000976368784904 0.042225159704685211182 0.0071596601046621799469 
0.60240697860717773438 0.42802169919013977051 0.36054190993309020996 0.24945630133152008057 0.12503799796104431152 0.25629991292953491211 0.1425532996654510498 0.19608730077743530273 0.20081029832363128662 0.084982767701148986816 0.0097596505656838417053 0.017636939883232116699 0.059188839048147201538 0.012074319645762443542 0.022641049697995185852 0.01551960967481136322 0.0060469498857855796814 0 0.00018026999896392226219 0.0028539600316435098648 0.10974860191345214844 0.10460740327835083008 0.28224149346351623535 0.92739051580429077148 0.67269057035446166992 0.67280918359756469727 0.97143477201461791992 0.99779212474822998047 0.99780857563018798828 0.99775421619415283203 0.98295921087265014648 0.67388457059860229492 0.67022210359573364258 0.66494697332382202148 0.64809018373489379883 0.46448639035224914551 0.079192891716957092285 0.78799062967300415039 0.80422317981719970703 0.72305929660797119141 0.73021101951599121094 0.61271071434020996094 0.28334259986877441406 0.024248739704489707947 0.39110699295997619629 0.20234979689121246338 0.014716549776494503021 0.016638400033116340637 0.047559499740600585938 0.040894810110330581665 0.0046190000139176845551 0.023303940892219543457 0.0099993301555514335632 0.014723090454936027527 0.034494258463382720947 0.0043940399773418903351 0.0075455200858414173126 0.001846409984864294529 
0.36340638995170593262 0.082664512097835540771 0.3038921058177947998 0.26503801345825195313 0.083212763071060180664 0.11986079812049865723 0.086465053260326385498 0.078683279454708099365 0.21662500500679016113 0.095913797616958618164 0.018973689526319503784 0 0.009589909575879573822 0.0010980200022459030151 0.091491006314754486084 0.0015798700042068958282 0.0073117702268064022064 0 0 0.037390418350696563721 0.12095200270414352417 0.092069149017333984375 0.11642959713935852051 0.91483992338180541992 0.67255520820617675781 0.67283272743225097656 0.98481518030166625977 0.99862951040267944336 0.97826772928237915039 0.98315578699111938477 0.99734652042388916016 0.98319220542907714844 0.66994810104370117188 0.66923451423645019531 0.58792901039123535156 0.60035437345504760742 0.014817610383033752441 0.039345171302556991577 0.80233621597290039063 0.74608218669891357422 0.76178711652755737305 0.73542898893356323242 0.3021399080753326416 0.017697300761938095093 0.028945049270987510681 0.43976759910583496094 0.12148830294609069824 0.12166900187730789185 0.058054059743881225586 0.02558974921703338623 0.017184149473905563354 0.061708331108093261719 0.015161929652094841003 0.010773049667477607727 0.024953449144959449768 0.006224319804459810257 0.010042870417237281799 0.0037321299314498901367 
0.51282912492752075195 0.25237420201301574707 0.52249950170516967773 0.37561529874801635742 0.17076790332794189453 0.01934614032506942749 0.018587820231914520264 0.039031758904457092285 0.084206849336624145508 0.12330359965562820435 0.087056823074817657471 0.014632419683039188385 0.0037357499822974205017 0.0061145001091063022614 0.0089833494275808334351 0.00030847999732941389084 0 0 0 0 0.14291790127754211426 0.18353949487209320068 0.019328180700540542603 0.87145322561264038086 0.070278190076351165771 0.67269617319107055664 0.99994170665740966797 0.99990499019622802734 0.99999880790710449219 0.99996840953826904297 0.99960017204284667969 0.99713051319122314453 0.66578620672225952148 0.66827481985092163086 0.66172242164611816406 0.43940138816833496094 0.13368690013885498047 0.47215890884399414063 0.55582010746002197266 0.16681469976902008057 0.77837270498275756836 0.78491812944412231445 0.6676489710807800293 0.68525958061218261719 0.39294889569282531738 0.3086700141429901123 0.63026338815689086914 0.32489240169525146484 0.24124039709568023682 0.016956919804215431213 0.041007369756698608398 0.061863731592893600464 0.011325740255415439606 0.0051816799677908420563 0.028183279559016227722 0.014126899652183055878 0.042011350393295288086 0.02797262929379940033 
0.67003560066223144531 0.50790011882781982422 0.51587688922882080078 0.55247682332992553711 0.095044337213039398193 0.0036453499924391508102 0.0009967100340873003006 0.00061946001369506120682 0.051081791520118713379 0.012355069629848003387 0.011594030074775218964 0.0019610100425779819489 0.0008839300135150551796 0.016148779541254043579 0.018983550369739532471 0.008896590210497379303 0.0032192899379879236221 0 0 0 0.044974960386753082275 0.067083328962326049805 5.447000148706138134e-05 0.0012350500328466296196 9.8930002423003315926e-05 0.99759638309478759766 0.99992871284484863281 0.99998062849044799805 0.99999749660491943359 0.99996620416641235352 0.99999570846557617188 0.99840378761291503906 0.00023570000485051423311 0.00072070001624524593353 0.0038600899279117584229 0.0042184898629784584045 0.27992969751358032227 0.71176862716674804688 0.75097548961639404297 0.13214190304279327393 0.081046558916568756104 0.70999002456665039063 0.598087310791015625 0.55401748418807983398 0.29192510247230529785 0.30652311444282531738 0.85974961519241333008 0.61294740438461303711 0.20719780027866363525 0.0060346098616719245911 0.026563389226794242859 0 0.011014070361852645874 0.0060949800536036491394 0.030067440122365951538 0.036851719021797180176 0.11981510370969772339 0.14242790639400482178 
0.67215931415557861328 0.65309792757034301758 0.51324087381362915039 0.62681090831756591797 0.50556921958923339844 0.012668300420045852661 0.05638650059700012207 0.015100209973752498627 0.012320620007812976837 0.0022959799971431493759 0.00010140999802388250828 0 0 0.019609900191426277161 0.0189313497394323349 0 0 0 0 0 1.7869999282993376255e-05 1.1700000186465331353e-06 3.3399999665562063456e-05 0.00022359000286087393761 1.5120000171009451151e-05 0.99977707862854003906 0.99993050098419189453 0.99998331069946289063 0.99999088048934936523 0.99997228384017944336 0.99993002414703369141 0.99921518564224243164 0.0057776300236582756042 0.00065670988988131284714 0.00015654000162612646818 0.00011056000221287831664 0.00099156994838267564774 0.47913640737533569336 0.71719139814376831055 0.60724890232086181641 0.69005918502807617188 0.68001472949981689453 0.67803961038589477539 0.54024738073348999023 0.55644118785858154297 0.19397680461406707764 0.60535520315170288086 0.71099072694778442383 0.36052280664443969727 0.019686030223965644836 0.0062028998509049415588 0.022862989455461502075 0.011149539612233638763 0.007581300102174282074 0.030674509704113006592 0.02054120972752571106 0.055984951555728912354 0.15431439876556396484 
0.706935882568359375 0.69093191623687744141 0.48624160885810852051 0.28230059146881103516 0.2283166050910949707 0.010670430026948451996 0.00651325983926653862 0.098520867526531219482 0.026605760678648948669 0.026498999446630477905 0.028636030852794647217 0 0.0020742500200867652893 0 0 0.99769872426986694336 0 0 0 0 0 2.1000000742787960917e-06 3.4019998565781861544e-05 4.4799999159295111895e-06 0.99047678709030151367 0.99998688697814941406 0.99977928400039672852 0.99999237060546875 0.99998378753662109375 0.83069878816604614258 0.99989157915115356445 0.99999320507049560547 0.50407677888870239258 0.49444401264190673828 0.00021427999308798462152 7.0160000177565962076e-05 0.00013370999658945947886 0.60938280820846557617 0.52852731943130493164 0.71954607963562011719 0.70786011219024658203 0.65589451789855957031 0.67888808250427246094 0.11399590224027633667 0.53315949440002441406 0.31314989924430847168 0.27646949887275695801 0.33206060528755187988 0.63413161039352416992 0.08201389014720916748 0.019342649728059768677 0.026120949536561965942 0.017216639593243598938 0.03968705981969833374 0.028759889304637908936 0.026725500822067260742 0.0090149696916341781616 0.00036830999306403100491 
0.11881069839000701904 0.061766840517520904541 0.052958801388740539551 0.1677570044994354248 0.16329179704189300537 0.59959149360656738281 0.65016388893127441406 0.075453862547874450684 0.76376730203628540039 0.00015239999629557132721 0.62020659446716308594 0.13344679772853851318 0.10704299807548522949 0 0.084935560822486877441 0 1.8000000068241206463e-07 8.3999998423678334802e-07 4.7399998948094435036e-06 0 0 2.1200000901444582269e-06 1.0140000085812062025e-05 7.5980002293363213539e-05 0.0083095701411366462708 0.99998867511749267578 0.99998688697814941406 0.99997210502624511719 0.99888539314270019531 0.83079129457473754883 0.99781280755996704102 0.99999350309371948242 0.51644647121429443359 0.50006222724914550781 0.49777969717979431152 0.47364738583564758301 0.014006589539349079132 0.018317420035600662231 0.66756981611251831055 0.51598912477493286133 0.74749022722244262695 0.99752098321914672852 0.97224348783493041992 0.28647160530090332031 0.18459549546241760254 0.35026589035987854004 0.21413710713386535645 0.10163889825344085693 0.034851070493459701538 0.13019520044326782227 0.021148269996047019958 0.021613579243421554565 0.023950710892677307129 0.043161578476428985596 0.087757930159568786621 0.020431639626622200012 0.0062863901257514953613 0.0012169899418950080872 
0.1704962998628616333 0.36613279581069946289 0.15192289650440216064 0.15444719791412353516 0.36301469802856445313 0.13416349887847900391 0.27720868587493896484 0.99185991287231445313 0.99067538976669311523 0.48871260881423950195 0 0.037322320044040679932 0.64879322052001953125 0 0 5.6550001318100839853e-05 3.0000001061125658453e-07 1.6300000424962490797e-06 9.8999998954241164029e-07 1.5890000213403254747e-05 0 1.9889999748556874692e-05 0.49467810988426208496 0.49986580014228820801 0.5 0.99940907955169677734 0.99993789196014404297 0.99979418516159057617 0.99898391962051391602 0.99994951486587524414 0.99993151426315307617 0.99998712539672851563 0.53913962841033935547 0.50017189979553222656 0.49844419956207275391 0.49610170722007751465 0.63665407896041870117 0.65868777036666870117 0.66749602556228637695 0.6679204106330871582 0.50312340259552001953 0.99430930614471435547 0.99870020151138305664 0.91890847682952880859 0.61466252803802490234 0.0034132599830627441406 0.18596960604190826416 0.17077669501304626465 0.057729881256818771362 0.22258810698986053467 0.052692960947751998901 0.010432880371809005737 0.024878289550542831421 0.039179749786853790283 0.038030590862035751343 0.049920998513698577881 0.00017836000188253819942 0.00017641000158619135618 
0.37402489781379699707 0.26039388775825500488 0.17717629671096801758 0.071466460824012756348 0.25652560591697692871 0.36910769343376159668 0.76651948690414428711 0.29362380504608154297 0.36866790056228637695 0.996212005615234375 0.97231262922286987305 0.99936240911483764648 0.98093718290328979492 0.12908980250358581543 0.49977800250053405762 1.7900000557347084396e-06 2.2300000637187622488e-06 9.540000064589548856e-06 4.5730001147603616118e-05 0.66918647289276123047 0 0 0.49999481439590454102 0.5 0.5 0.92965078353881835938 0.97195702791213989258 0.79768460988998413086 0.83009362220764160156 0.99908012151718139648 0.99995827674865722656 0.99990677833557128906 0.97234451770782470703 0.50072157382965087891 0.49997970461845397949 0.49843919277191162109 0.64526998996734619141 0.66952621936798095703 0.77572751045227050781 0.92302441596984863281 0.6689090728759765625 0.50310647487640380859 0.71240687370300292969 0.97646892070770263672 0.7455310821533203125 0.67522132396697998047 0.0041412701830267906189 0.099583007395267486572 0.040326330810785293579 0.11663229763507843018 0.039655700325965881348 0.012349730357527732849 0.23460030555725097656 0.043919950723648071289 0.041093181818723678589 0.019314270466566085815 0.0013636599760502576828 8.4469997091218829155e-05 
0.01307037007063627243 0.59827631711959838867 0.3870271146297454834 0.021213119849562644958 0.69401621818542480469 0.98183709383010864258 0.86732381582260131836 0.95741999149322509766 0.95006167888641357422 0.99335759878158569336 0.99977457523345947266 0.9995632171630859375 0 0 0.98329728841781616211 2.1620000552502460778e-05 0.66993868350982666016 0.66999191045761108398 0.66999489068984985352 0.66999661922454833984 0.67020648717880249023 0.9999980926513671875 0.5000088810920715332 0.50000578165054321289 0.50000578165054321289 0.50138401985168457031 0.51802551746368408203 0.81195467710494995117 0.00064470001962035894394 0.99406778812408447266 0.9999802708625793457 0.99864917993545532227 0.93909722566604614258 0.50005239248275756836 0.50001877546310424805 0.5 0.56340801715850830078 0.6589298248291015625 0.6703745722770690918 0.87377107143402099609 0.99865567684173583984 0.81665480136871337891 0.61049622297286987305 0.9993674159049987793 0.99888342618942260742 0.75071471929550170898 0.66727501153945922852 0.64884132146835327148 0.017053419724106788635 0.44165828824043273926 0.65942299365997314453 0.49393871426582336426 0.49115240573883056641 0.37749439477920532227 0.11741250008344650269 0.001314840046688914299 0.00011092999920947477221 0 
0.76503258943557739258 0.67613822221755981445 0.84660041332244873047 0.67283111810684204102 0.67076218128204345703 0.8612887263298034668 0.95159578323364257813 0.9622364044189453125 0.0031405501067638397217 0.00020166000467725098133 0.00017836000188253819942 6.3399997998203616589e-06 0 0 0.66978651285171508789 0.66999518871307373047 0.66999638080596923828 0.66999727487564086914 0.66999822854995727539 0.66999948024749755859 0.67165857553482055664 0.67149382829666137695 0.50203382968902587891 0.50002008676528930664 0.50018060207366943359 0.5056521296501159668 0.52361017465591430664 0.81660097837448120117 0.82480788230895996094 0.99439078569412231445 0.99998390674591064453 0.99998390674591064453 0.66790151596069335938 0.5122401118278503418 0.50003618001937866211 0.5 0.50054007768630981445 0.63631898164749145508 0.67012071609497070313 0.67096441984176635742 0.99711769819259643555 0.99891227483749389648 0.95899271965026855469 0.99966901540756225586 0.99938058853149414063 0.99919801950454711914 0.67131388187408447266 0.67005568742752075195 0.66293680667877197266 0.0096768299117684364319 0.98185557126998901367 0.42245858907699584961 0.43066918849945068359 0.38654789328575134277 0.18178489804267883301 0 0.00027084001339972019196 0.013795030303299427032 
0.99882751703262329102 0.98108351230621337891 0.99404639005661010742 0.96518892049789428711 0.019618779420852661133 0.065806843340396881104 0.014465729705989360809 7.5939999078400433064e-05 2.2349999198922887444e-05 8.6450003436766564846e-05 2.3840000721975229681e-05 4.0800000533636193722e-06 3.7469999369932338595e-05 0 0.66998690366744995117 0.66999858617782592773 0.66999858617782592773 0.67000001668930053711 0.67000001668930053711 0.67000001668930053711 0.99995690584182739258 0.99995332956314086914 0.67051959037780761719 0.99017822742462158203 0.98672240972518920898 0.73942232131958007813 0.54001200199127197266 0.81550538539886474609 0.82409560680389404297 0.9984455108642578125 0.99998390674591064453 0.99709558486938476563 0.67124068737030029297 0.65151232481002807617 0.50071489810943603516 0.5 0.50033032894134521484 0.57439059019088745117 0.67025417089462280273 0.6726881861686706543 0.93062841892242431641 0.99915117025375366211 0.99962651729583740234 0.9999644160270690918 0.99937391281127929688 0.99928468465805053711 0.97558349370956420898 0.68343269824981689453 0.51146811246871948242 0.47934868931770324707 0.20282560586929321289 0.42779308557510375977 0.43472409248352050781 0.33960750699043273926 0.60812640190124511719 0.78985011577606201172 0.02529622986912727356 0.069186963140964508057 
0.060515571385622024536 0.00028276001103222370148 8.7859996710903942585e-05 2.7259999114903621376e-05 1.3019999641983304173e-05 0.0003949000092688947916 0.00087574997451156377792 0.00016517000040039420128 3.2999998893501469865e-06 8.9999997499035089277e-07 1.2129999959142878652e-05 5.4699999054719228297e-06 0 0 0.67000001668930053711 0.67007917165756225586 0.67002761363983154297 0.67000001668930053711 0.67000001668930053711 0.67000937461853027344 0.67001050710678100586 0.99903637170791625977 0.68302077054977416992 0.67006361484527587891 0.98236048221588134766 0.99988120794296264648 0.2056427001953125 0.69441080093383789063 0.97617137432098388672 0.99996858835220336914 0.99769228696823120117 0.67408788204193115234 0.67010521888732910156 0.66996628046035766602 0.50237542390823364258 0.50084227323532104492 0.50889921188354492188 0.90360528230667114258 0.67041379213333129883 0.67037689685821533203 0.69775277376174926758 0.99267351627349853516 0.99965620040893554688 0.99982208013534545898 0.99978220462799072266 0.99708628654479980469 0.99902212619781494141 0.79564881324768066406 0.98963648080825805664 0.077319629490375518799 0.44061279296875 0.77828478813171386719 0.98797971010208129883 0.99564450979232788086 0.9938812255859375 0.93487519025802612305 0.92426252365112304688 0.12543529272079467773 
0.96687918901443481445 2.6699999580159783363e-05 0.00082636001752689480782 1.9139999494655057788e-05 0.00011945999722229316831 1.4719999853696208447e-05 3.5699999898497480899e-06 1.8299999737791949883e-06 1.8199999658463639207e-06 0 0 2.1099999685247894377e-06 2.2969999918132089078e-05 0.67000001668930053711 0.67075639963150024414 0.67009729146957397461 0.67003679275512695313 0.67000937461853027344 0.67000931501388549805 0.67003387212753295898 0.67001199722290039063 0.67070037126541137695 0.99952560663223266602 0.67004942893981933594 0.69143432378768920898 0.99974751472473144531 0.64084130525588989258 0.69351941347122192383 0.68720632791519165039 0.9999039769172668457 0.98729109764099121094 0.67490667104721069336 0.67010259628295898438 0.67007970809936523438 0.51268088817596435547 0.50751847028732299805 0.51580822467803955078 0.99307560920715332031 0.67333072423934936523 0.67034012079238891602 0.75759798288345336914 0.96358948945999145508 0.99684691429138183594 0.99981802701950073242 1 0.99973070621490478516 0.9945647120475769043 0.97528487443923950195 0.99025911092758178711 0.97501671314239501953 0.02146860957145690918 0.50986838340759277344 0.77446061372756958008 0.91505831480026245117 0.97085547447204589844 0.97619497776031494141 0.98044341802597045898 0.032705251127481460571 
0.86761128902435302734 0.0059402598999440670013 0.0018395000370219349861 0.0020273800473660230637 0.6699631810188293457 1.2000000424450263381e-06 0 0 0 0 4.3899999582208693027e-06 1.0110000403074081987e-05 0.00072964001446962356567 0.67027211189270019531 0.67080271244049072266 0.71540951728820800781 0.92006832361221313477 0.67006129026412963867 0.67023980617523193359 0.99970328807830810547 0.67001777887344360352 0.67057842016220092773 0.99992352724075317383 0.67008137702941894531 0.67473578453063964844 0.99972748756408691406 0.56513518095016479492 0.68947207927703857422 0.68842601776123046875 0.99887567758560180664 0.99826478958129882813 0.67207062244415283203 0.67002218961715698242 0.67000001668930053711 0.67000001668930053711 0.65736401081085205078 0.90702867507934570313 0.99977982044219970703 0.94840520620346069336 0.67038041353225708008 0.75198590755462646484 0.9866917729377746582 0.98788988590240478516 0.99971270561218261719 0.99982339143753051758 0.99982231855392456055 0.9934539794921875 0.54081171751022338867 0.98666542768478393555 0.96698462963104248047 0.69968247413635253906 0.31194680929183959961 0.9618104100227355957 0.99756252765655517578 0.99983918666839599609 0.99944651126861572266 0.99183499813079833984 0.0017399200005456805229 
