ncols        58
nrows        32
xllcorner    -88.230598449707
yllcorner    30.253496170044
cellsize     0.037850160152
NODATA_value -9999
0.0 0 0 0 0 0 0 0 0 0 0 0 0 0 0 0 0 0 0 0 0 0 0 0 0 0 0 0 0 0 0 0 0 0 0 0 0 0 0 0 0 0 0 0 0 0 0 0 0 0 0 0 0 0 0 0 0 0 
0 0 0 0 0 0 0 0 0.27016168832778930664 0 0 0 0 0 0 0 0 0 0 0 0 0 0 0 0 0 0 0 0 0 0 0 0 0 0 0 0 0 0 0 0 0 0 0 0 0 0 0 0 0 0 0 0 0 0 0 0 0 
0 0 0 0 0 0 0 0 0.51566201448440551758 0 0 0 0 0 0 0 0 0 0 0 0 0 0 0 0 0 0 0 0 0 0 0 0 0 0 0 0 0 0 0 0 0 0 0 0 0 0 0 0 0 0 0 0 0 0 0 0 0 
0 0 0 0 0.48134011030197143555 0 0 0.49401891231536865234 0 0 0 0 0 0 0 0 0 0 0 0 0 0 0 0 0 0 0 0 0 0 0 0.071247622370719909668 0 0 0 0 0 0 0 0.023083150386810302734 0 0 0 0 0 0 0 0 0 0 0 0 0 0 0 0 0 0 
0 0 0 0 0 0 0 0.58747261762619018555 0 0 0 0 0 0 0 0 0 0 0 0 0 0 0 0 0 0 0 0 0 0 0 0 0 0 0 0 0 0 0 0 0 0 0.067397542297840118408 0 0 0.010132369585335254669 0 0 0 0 0 0 0 0 0 0 0 0 
0 0 0 0 0 0 0 0 0 0 0 0 0 0 0 0 0 0 0 0 0 0 0 0 0 0 0 0 0 0 0 0 0 0 0 0 0 0 0 0 0 0 0 0.20790320634841918945 0 0 0.22245560586452484131 0 0.0038336000870913267136 0 0 0 0 0 0 0 0 0 
0 0 0 0 0 0 0 0 0 0 0 0 0 0 0 0 0 0 0 0 0 0 0 0 0 0 0 0 0 0 0 0 0 0 0 0 0 0 0 0 0 0 0 0 0 0 0 0 0 0.30812311172485351563 0.0069388798438012599945 0 0 0 0 0 0 0 
0 0 0 0 0 0 0 0 0 0 0 0 0 0 0 0 0 0 0 0 0 0 0 0 0 0 0 0 0 0.00043747999006882309914 0 0.0063397102057933807373 0.0064721498638391494751 0.00072041997918859124184 0.0017015200573951005936 0.0002007199946092441678 0 0 0 0 0 0 0 0 0 0.02768464013934135437 0 0 0.14644180238246917725 0 0 0 0 0 0 0 0 0 
0 0 0 0 0 0.35491931438446044922 0.034117728471755981445 0 0 0.0025909699033945798874 0 0 0 0 0 0 0 0 0 0 0 0 0 0 0 0 0 0 0.00070140999741852283478 0.00087951001478359103203 0.0065817800350487232208 0.00024696000036783516407 0.00055689999135211110115 0.0047185798175632953644 0.0023953900672495365143 0.0010007800301536917686 0 0 0 0 0 0 0 0 0 0.23034229874610900879 0 0 0 0 0 0 0 0 0 0 0 0 
0 0 0 0 0 0 0 0 0 0 0 0 0 0 0 0 0 0 0 0 0.0027640201151371002197 0 0 0 0 0 0 0.0010661500273272395134 0.0036012800410389900208 0.010080349631607532501 7.611000182805582881e-05 9.6580013632774353027e-05 0.00020835000032093375921 0.00076188001548871397972 0.010808270424604415894 0.0021534399129450321198 0.00013332000526133924723 0.0006156599847599864006 0.00018743000691756606102 0 0 0 0 0 0 0 0 0 0 0 0 0 0 0 0 0 0 0 
0 0 0 0 0 0 0 0 0 0.013389989733695983887 0 0 0 0 0 0 0 0 0 0.018599089235067367554 0.01100002974271774292 0 0 0 0 0 0 0.0014210599474608898163 0.02258075028657913208 0.0075386501848697662354 6.5230000473093241453e-05 2.5549999918439425528e-05 0 7.5709998782258480787e-05 4.3280000681988894939e-05 0.00017183000454679131508 0 0.00128375994972884655 0.0011333900038152933121 0.0020795399323105812073 0.0014160899445414543152 0 0 0 0 0 0 0 0 0 0 0 0 0 0 0 0 0 
0 0 0 0 0 0 0 0 0 0 0 0 0 0 0 0 0 0 0.0049460697919130325317 0.046261668205261230469 0.0075888601131737232208 0.0021953999530524015427 0 0.00031835000845603644848 0.00028089000261388719082 0.0091413585469126701355 0.090773299336433410645 0.0053151100873947143555 0.00014059999375604093075 0.00038854999002069234848 0.00011521000124048441648 5.0099999498343095183e-05 0.00013628999295178800821 0 0 0.0020934599451720714569 0.0039290799759328365326 0.01607743091881275177 0.063146971166133880615 0.2922446131706237793 0.022808900102972984314 0 0 0 0 0 0 0 0 0 0 0 0 0 0 0 0 0 
0 0 0 0 0 0 0 0 0 0.0005212199757806956768 0.00052027998026460409164 0 0 0 0 0 0 0 0.0061012902297079563141 0.058133911341428756714 0 0.0017032499890774488449 0.00020521999977063387632 0.00074912002310156822205 0.0034888100344687700272 0.53171890974044799805 0.036228518933057785034 9.2369999038055539131e-05 0.00020440999651327729225 0.0036958400160074234009 0.00036105001345276832581 0 0 0 0 0 9.7110001661349087954e-05 0.00019724000594578683376 0.0058413599617779254913 0.00073526002233847975731 0.00038775001303292810917 0.00022022999473847448826 0 0 0 0 0 0 0 0 0 0 0 0 0 0 0 0 
0 0 0 0 0 0 0 0 0 0.0014948500320315361023 0.00055459002032876014709 0 0 0 0 0 0 0 0 0.0044006397947669029236 0.010206540115177631378 0 0.0061131599359214305878 0.00069736002478748559952 0.77882182598114013672 0.66941481828689575195 0.00099577999208122491837 0.0025414600968360900879 0 6.3810002757236361504e-05 1.2630000128410756588e-05 0 0 0 0 0 9.6440002380404621363e-05 0.0010451100533828139305 0.0025620099622756242752 0.000657270022202283144 0.00030844999128021299839 0 0 0 0 0 0 0 0 0 0 0 0 0 0 0 0 0 
0 0 0 0 0 0 0 0 0 0 0 0 0 0 0 0 0 0 0 0 0.0028372299857437610626 0.0028272299095988273621 0.0041164401918649673462 0.034949079155921936035 0.33508351445198059082 0.34374910593032836914 0.0044176001101732254028 0.0030190800316631793976 0 0.00029279000591486692429 1.1619999895629007369e-05 0 0 0 0 0 0 0.0010478900512680411339 0 0 7.1499998739454895258e-05 0 0 0 0 0 0 0 0 0 0 0 0 0 0 0 0 0 
0 0 0 0 0 0 0 0 0 0 0 0 0 0 0 0 0 0 0 0.00041129998862743377686 0.0011807800037786364555 0.0043433997780084609985 0.30000001192092895508 0.004620919935405254364 7.5780000770464539528e-05 0.00088954000966623425484 0.00018678000196814537048 1.3220000255387276411e-05 0 0 0 0 0 0 0 0 0 0 0 0 0 0 0 0 0 0 0 0 0 0 0 0 0 0 0 0 0 0 
0 0 0 0 0 0 0 0 0 0 0 0 0 0 0 0 0 0 0.00028601998928934335709 0.0075443098321557044983 0.0021629598923027515411 0.013858390040695667267 8.8290013081859797239e-05 0.00021219000336714088917 0.00022981999791227281094 0.0001481100043747574091 1.9810000594588927925e-05 5.859999873791821301e-06 0 0 0 0 0 0 0 0 0 0 0 0 0 0 0 0 0 0 0 0 0 0 0.0003723599947988986969 0 0 0 0 0 0 0 
0 0 0 0 0 0 0 0 0 0 0 0 0 0 0 0.00046308999299071729183 0.002789659891277551651 0.001198490033857524395 0.0010643800487741827965 0.021814620122313499451 1 1 0.0011976499808952212334 1.287000031879870221e-05 2.7340000087860971689e-05 6.8399999690882395953e-06 5.7059998653130605817e-05 0 0 0 0 0 0 0 0 0 0 0 0 0 0 0 0 0 0 0 0.00037461001193150877953 0.00036114000249654054642 0.0018363000126555562019 0.002470670035108923912 0.0010524799581617116928 0.00027543000760488212109 0 0 0 0 0 0 
0 0 0 0 0 0 0 0 0 0 0 0 0 0 0 0.00061648001428693532944 0.0069852699525654315948 0.015746969729661941528 0.013136840425431728363 0.045016020536422729492 0.0014064799761399626732 0.0036553100217133760452 0.006844390183687210083 8.5739986388944089413e-05 4.0999999328050762415e-05 1.3689999832422472537e-05 3.1330000638263300061e-05 0 0 0 0 0 0 0 0 0 0 0 0 0 0 0 0 0 0.00014093000208958983421 0.0015765300486236810684 0.003922299947589635849 0.0012308099539950489998 0.0075711198151111602783 0.0010881599737331271172 0.0023447300773113965988 0.00059150002198293805122 0 0 0 0 0 0 
0 0 0 0 0 0 0 0 0.0004808900121133774519 0.00026279001031070947647 0.00031738998950459063053 0 0.0024454400409013032913 0.0048983399756252765656 0.00056960998335853219032 0.002677229931578040123 0.0089910598471760749817 0.07838977128267288208 0.26858541369438171387 0.34923070669174194336 0.0070849899202585220337 0.00047937000636011362076 7.9079996794462203979e-05 0.00021702999947592616081 0 1.3689999832422472537e-05 0 0 0 0 0 0 0 0 0 0 0 0 0 0 0 0 0 0 0.0045839301310479640961 0.00012257999333087354898 0.00042473999201320111752 0.00080913002602756023407 0.043699938803911209106 0.010969650000333786011 0.0011897099902853369713 0.0012435499811545014381 0.0013239199761301279068 0 0 0 0 0 
0 0 0 0 0 0 0 0 0.00052633002633228898048 0.00019310999778099358082 0.00069983000867068767548 0.0053160297684371471405 0.011874429881572723389 0.012384559959173202515 0.021070269867777824402 0.17808620631694793701 0.30063751339912414551 0.30000001192092895508 0.2999204099178314209 0.29633298516273498535 0.029228899627923965454 0.0019524300005286931992 0.00057494000066071748734 0.2942225039005279541 0.2992222905158996582 0 1.9700000848388299346e-05 1.9360000806045718491e-05 0 0 0 0 0 0 0 0 0 0 0 0 0 0 0 0.00028726999880746006966 0.0039781299419701099396 0.011948900297284126282 0.002647900022566318512 0.012798559851944446564 0.0023847399279475212097 0.0014879299560561776161 0.0035143198911100625992 0 0.00036184000782668590546 0 0 0 0 0 
0 0 0 0 0 0.00011976999667240306735 0.0018451600335538387299 0 0.0012623299844563007355 0.0022646998986601829529 0.0021498599089682102203 0.020841019228100776672 0.2690970003604888916 0.29934960603713989258 0.29712238907814025879 0.3003062903881072998 0.29995641112327575684 0.29990470409393310547 0.29969608783721923828 0.29953581094741821289 0.29601120948791503906 0.00086661998648196458817 0.29820969700813293457 0.29855129122734069824 0.29974359273910522461 0.00048966001486405730247 6.9499998062383383512e-05 9.0699995780596509576e-06 9.0599996838136576116e-06 9.0699995780596509576e-06 0 0 0 0 0 0 0 0 0 0 0 0 0 1.215999964188085869e-05 0.0029584800358861684799 0.00028604001272469758987 0.00064172002021223306656 0.0054794200696051120758 0.0038637800607830286026 0 0 0.0015037100529298186302 0 0 0 0 0 0 
0 0 0 0 0 0 0.00121533998753875494 0.0007697200053371489048 0.018882259726524353027 0.06529884040355682373 0.17346489429473876953 0.29630300402641296387 0.29260230064392089844 0.29396760463714599609 0.30002290010452270508 0.33497419953346252441 0.3027077019214630127 0.79382568597793579102 0.29912969470024108887 0.29992130398750305176 0.29999890923500061035 0.29992619156837463379 0.29992508888244628906 0.29996609687805175781 0.29987379908561706543 0.29926359653472900391 0.00022062000061850994825 1.1989999620709568262e-05 7.2600000748934689909e-06 1.4299999975264654495e-06 3.8099999528640182689e-06 0 0 0 0 0 0 0 0 0 0 0 5.4020001698518171906e-05 0.00015040999278426170349 0.00053488998673856258392 0.003068140009418129921 0.0095855500549077987671 0.017675440758466720581 0.0010509099811315536499 0.0041040000505745410919 0 0 0 0 0 0 0 0 
0 0.00043871998786926269531 0 0.00054218998411670327187 0 0 0.28536590933799743652 0.28926569223403930664 0.29930710792541503906 0.30000001192092895508 0.30008068680763244629 0.29706469178199768066 0.29998931288719177246 0.30010241270065307617 0.3000608980655670166 0.29991009831428527832 0.29961898922920227051 0.29808381199836730957 0.29993110895156860352 0.29998719692230224609 0.30000001192092895508 0.30000001192092895508 0.29999569058418273926 0.29998868703842163086 0.29998660087585449219 0.00011061999975936487317 7.1999997999228071421e-06 7.1999997999228071421e-06 0.00044756001443602144718 8.62999968376243487e-06 5.8390000049257650971e-05 6.469999789260327816e-06 0 0 0 0 0 0 0 0 0 0 0 3.9999999899009708315e-06 4.5410000893753021955e-05 0.011713019572198390961 0.018091419711709022522 0.0004741699958685785532 0.00040533000719733536243 0 0 0 0 0 0 0 0 0 
0 0.00059085001703351736069 0.0021192100830376148224 0.020321000367403030396 0 0.097385667264461517334 0.29987940192222595215 0.11504930257797241211 0.30000001192092895508 0.30000001192092895508 0 0.29996201395988464355 0.30000001192092895508 0.29998049139976501465 0.30014878511428833008 0.29997450113296508789 0.29999980330467224121 0.29999938607215881348 0.29993990063667297363 0.29973620176315307617 0.30000001192092895508 0.30000001192092895508 0.29998859763145446777 0.29998451471328735352 0.29997301101684570313 0.0027930999640375375748 7.1999997999228071421e-06 0.00039346999255940318108 0.00044199998956173658371 3.9999999899009708315e-06 0 8.7899998106877319515e-06 0 0 0 0 0 0 0 0 0 0 0 1.6489999325131066144e-05 7.4019997555296868086e-05 2.001000029849819839e-05 0.025023419409990310669 0.0009952300461009144783 0 0.0022090200800448656082 0 0 0 0 0 0 0 0 
0.00010828999802470207214 0.0858936309814453125 0.28990611433982849121 0.24922420084476470947 0 0.29997730255126953125 0.2816371917724609375 0.29951968789100646973 0.29698491096496582031 0.29959160089492797852 0.29999589920043945313 0.29975679516792297363 0.29997709393501281738 0.29974579811096191406 0.29998558759689331055 0.29998859763145446777 0.3000088036060333252 0.29999768733978271484 0.29999339580535888672 0.29339489340782165527 0.30000001192092895508 0.30000001192092895508 0.0024979100562632083893 0.00065117998747155070305 0.00017559999832883477211 0.0095096398144960403442 5.8030000218423083425e-05 2.597999991849064827e-05 1.1109999832115136087e-05 2.4159999156836420298e-05 0 0 0 0 0 0 0 0 0 0 0 0 0 5.8559999160934239626e-05 0.00015978999726939946413 1.0089999705087393522e-05 0.0056061497889459133148 0.0043687201105058193207 0.002503920113667845726 0 0 0 0 0 0 0 0 0 
0.58440357446670532227 0.024915650486946105957 0.37745648622512817383 0.48507770895957946777 0.99931752681732177734 0.99553382396697998047 0.9934266209602355957 6.5700000959623139352e-06 0.22564169764518737793 0.29988229274749755859 0.29998180270195007324 0.29998669028282165527 0.30000001192092895508 0.30000001192092895508 0.29988148808479309082 0.29851821064949035645 0.00019761000294238328934 6.8600002123275771737e-06 3.7499999052670318633e-06 2.4399998892477015033e-06 0.00014641000598203390837 8.0140001955442130566e-05 5.7399997785978484899e-06 4.630000148608814925e-06 5.8000000535685103387e-06 0 4.4600001274375244975e-06 1.9080000129179097712e-05 2.4700000267330324277e-06 0.00064735999330878257751 3.699999979289714247e-06 0 0 0 0 0 0 0 0 0 0 0 0 0 4.0199997783929575235e-06 0.00027563999174162745476 3.3380001696059480309e-05 1.4940000255592167377e-05 0.00024107999342959374189 0 0 0 0 0 0 0 0.00019688000611495226622 0 
0.011326150037348270416 0.013121140189468860626 0.85808652639389038086 0.42596858739852905273 0.0029444401152431964874 0.043722148984670639038 0.99962651729583740234 0.00041382000199519097805 0.00029912000172771513462 5.6209999456768855453e-05 0.00028340000426396727562 0.00022483999782707542181 0.00065514998277649283409 0.30000001192092895508 0.00045421000686474144459 2.2399999579647555947e-06 2.1200000901444582269e-06 1.679999968473566696e-06 1.5000000530562829226e-06 1.9799999790848232806e-06 2.7649999537970870733e-05 9.704999683890491724e-05 5.5579999752808362246e-05 2.5800000003073364496e-06 0 0 0 1.2620000234164763242e-05 0 0.00057689001550897955894 0 0 0 0 0 0 0 0 0 0 0 0 0 0 0 0 0 0 0 0 0 0 0 0 0 0 6.0909998865099623799e-05 0.0010666199959814548492 
0.0012717599747702479362 0.0037873201072216033936 0.00035759998718276619911 0.0013390900567173957825 0.0052525298669934272766 0.012858320027589797974 0.0080733196809887886047 1.3490000128513202071e-05 1.5719999282737262547e-05 0 2.2700000045006163418e-05 1.287000031879870221e-05 0.00021256000036373734474 0.30000001192092895508 1.8040000213659368455e-05 1.0899999551838845946e-06 7.0999999479681719095e-07 1.1500000027808710001e-06 4.0000000467443896923e-07 0 0 0 0 0 0 0 0 0 0 0 0 0 0 0 0 0 0 0 0 0 0 0 0 0 0 0 0 0 0 0 0 0 0 0 0 0 0 0.0016521699726581573486 
0 0.00014502000703942030668 0 1.5130000065255444497e-05 7.8000002758926711977e-06 0.00035094001214019954205 0.00070391001645475625992 0 0 0 9.1100000645383261144e-06 3.9500000639236532152e-06 4.5079999836161732674e-05 0.30000001192092895508 9.0999998292318196036e-07 0 0 0 0 0 0 0 0 0 0 0 0 0 0 0 0 0 0 0 0 0 0 0 0 0 0 0 0 0 0 0 0 0 0 0 0 0 0 0 0 0 0 0.00040054001146927475929 
0 0 0 8.6999998529790900648e-06 7.0699998104828409851e-06 1.0920000022451858968e-05 2.859999995052930899e-06 0 0 0 3.7999998880877683405e-07 3.8999999674160790164e-07 0 0 0 0 0 0 0 0 0 0 0 0 0 0 0 0 0 0 0 0 0 0 0 0 0 0 0 0 0 0 0 0 0 0 0 0 0 0 0 0 0 0 0 0 0 0 
0 0 0 0 4.7300000005634501576e-06 8.700000080352765508e-07 6.6799998421629425138e-06 0 0 0 0 0 0 0 0 0 0 0 0 0 0 0 0 0 0 0 0 0 0 0 0 0 0 0 0 0 0 0 0 0 0 0 0 0 0 0 0 0 0 0 0 0 0 0 0 0 0 0 
