ncols        58
nrows        32
xllcorner    -88.230598449707
yllcorner    30.253496170044
cellsize     0.037850160152
NODATA_value -9999
0.0 0 0 0 0 0 0 0 0 0 0 0 0 0 0 0 0 0 0 0 0 0 0 0 0 0 0 0 0.10690589994192123413 0 0 0 0 0 0 0 0 0 0 0 0 0 0 0 0 0 0 0 0 0 0 0 0 0 0 0 0 0 
0 0 0 0 0 0 0 0 0.011494110338389873505 0 0 0 0 0 0 0 0 0 0 0 0 0.28458839654922485352 0 0 0 0 0 0.19397039711475372314 0.011832829564809799194 0 0 0 0 0 0 0 0 0 0 0 0 0.72812479734420776367 0 0 0.028921140357851982117 0 0 0 0 0 0 0 0 0 0 0 0 0 
0 0 0 0 0 0 0 0 0.018386309966444969177 0 0 0 0 0 0 0 0 0 0 0 0 0 0 0 0 0.033828660845756530762 0 0 0 0 0 0 0 0 0 0 0 0 0 0 0 0 0 0 0 0 0 0 0 0 0 0 0 0 0 0 0 0 
0 0 0 0.37462338805198669434 0 0.21250359714031219482 0 0.0067035299725830554962 0 0 0.029929030686616897583 0 0 0 0 0 0 0 0 0 0 0 0 0 0 0 0 0.96957391500473022461 0.79476237297058105469 0.54003787040710449219 0.7661011815071105957 0.49844089150428771973 0.6997591853141784668 0 0.48687279224395751953 0.49391710758209228516 0.68110120296478271484 0.54497039318084716797 0.44602170586585998535 0.50028127431869506836 0.34031799435615539551 0.43106660246849060059 0.68885451555252075195 0.86935049295425415039 0 0 0 0 0 0 0 0 0 0 0 0 0 0 
0.01502801012247800827 0.44217011332511901855 0.17635039985179901123 0.0038397300522774457932 0 0.047974180430173873901 0 0.19958139955997467041 0.020537879317998886108 0.046126380562782287598 0.082438841462135314941 0.059207148849964141846 0 0.016186140477657318115 0 0 0 0 0 0 0 0.80490261316299438477 0.85100030899047851563 0.95904302597045898438 0.708805084228515625 0.59911698102951049805 0.60055881738662719727 0.58246582746505737305 0.72012501955032348633 0.76644051074981689453 0.5882288813591003418 0.75996160507202148438 0.91309082508087158203 0.80303239822387695313 0.67677450180053710938 0.79457992315292358398 0.46994569897651672363 0.44591128826141357422 0.48792719841003417969 0.61593669652938842773 0.62272042036056518555 0.63305711746215820313 0.43988978862762451172 0.47013211250305175781 0.50606000423431396484 0.66473692655563354492 0.50304812192916870117 0 0 0 0 0 0 0 0 0 0 0 
0.24748939275741577148 0.11302159726619720459 0.51179069280624389648 0 0 0 0.16498750448226928711 0 0.88597732782363891602 0.50866842269897460938 0 0 0 0 0 0 0 0 0.91210532188415527344 0.87638640403747558594 0.73886471986770629883 0.84970062971115112305 0.54527342319488525391 0.42616710066795349121 0.84869182109832763672 0.53109610080718994141 0.56433427333831787109 0.55642551183700561523 0.71496528387069702148 0.84169441461563110352 0.79563277959823608398 0.84056198596954345703 0.72869628667831420898 0.59929001331329345703 0.7646579742431640625 0.73576331138610839844 0.51909697055816650391 0.27836358547210693359 0.83357501029968261719 0.44366279244422912598 0.59810012578964233398 0.52711009979248046875 0.48023769259452819824 0.48976111412048339844 0.7104809880256652832 0.4326171875 0.58753597736358642578 0.71515238285064697266 0.88340997695922851563 0 0 0.26152178645133972168 0 0 0.20753230154514312744 0 0 0 
0.91624528169631958008 0.99818181991577148438 0.76448321342468261719 0.88898092508316040039 0.50615751743316650391 0.7036272883415222168 0.65734571218490600586 0.23294690251350402832 0.80618059635162353516 0 0 0.41446989774703979492 0.77408677339553833008 0.80143558979034423828 0.46979030966758728027 0.81954038143157958984 0.95793557167053222656 0.89868569374084472656 0.5227565765380859375 0.57532387971878051758 0.68009680509567260742 0.53304392099380493164 0.72499012947082519531 0.70408880710601806641 0.63417029380798339844 0.72139799594879150391 0.64049172401428222656 0.70142662525177001953 0.56976491212844848633 0.64714729785919189453 0.57255142927169799805 0.68975180387496948242 0.54326862096786499023 0.90373367071151733398 0.62223792076110839844 0.67716699838638305664 0 0.7164325714111328125 0.56125140190124511719 0.70365482568740844727 0.61340731382369995117 0.57678210735321044922 0.49357530474662780762 0.49940320849418640137 0.12309540063142776489 0.48119321465492248535 0.72685301303863525391 0.32886138558387756348 0.32855129241943359375 0.33218720555305480957 0.8489558100700378418 0 0 0 0 0 0 0 
0.92661660909652709961 0.72832918167114257813 0.85539871454238891602 0.80195128917694091797 0.75697600841522216797 0.84278571605682373047 0.30130279064178466797 0.59725081920623779297 0.69407600164413452148 0.49041289091110229492 0.80101740360260009766 0.9403057098388671875 0.97956192493438720703 0.91868567466735839844 0.66003072261810302734 0.76660370826721191406 0.92924892902374267578 0.80537122488021850586 0.65997362136840820313 0.52846837043762207031 0.60440117120742797852 0.59646791219711303711 0.65031278133392333984 0.56425231695175170898 0.69088828563690185547 0.51624131202697753906 0.59335500001907348633 0.74267822504043579102 0.70140111446380615234 0.43338850140571594238 0.65160208940505981445 0.74230158329010009766 0.50084441900253295898 0.94078361988067626953 0.65411078929901123047 0.82672417163848876953 0.662456512451171875 0.51043027639389038086 0.55636179447174072266 0.69110387563705444336 0.34073591232299804688 0.64652371406555175781 0.65042221546173095703 0.75179052352905273438 0.58227229118347167969 0.48688229918479919434 0.47880670428276062012 0.30074810981750488281 0.52755892276763916016 0.36731618642807006836 0.30818700790405273438 0 0.51120299100875854492 0 6.7599998146761208773e-05 0 0 0 
0.94365370273590087891 0.6859912872314453125 0.83592057228088378906 0.42954310774803161621 0.71871542930603027344 0.72044461965560913086 0.8164196014404296875 0.65698248147964477539 0.545989990234375 0.60246521234512329102 0.95069968700408935547 0.93111377954483032227 0.94662427902221679688 0.95162099599838256836 0.96604377031326293945 0.87555962800979614258 0.88627600669860839844 0.83523541688919067383 0.63611358404159545898 0.53351140022277832031 0.45802450180053710938 0.77517080307006835938 0.67547249794006347656 0.76095497608184814453 0.82683598995208740234 0.70948112010955810547 0.80424642562866210938 0.58027261495590209961 0.19283500313758850098 0.11251089721918106079 0.65747481584548950195 0.51942068338394165039 0.074321120977401733398 0.69589579105377197266 0.10093840211629867554 0.76763159036636352539 0.10080710053443908691 0.03531308099627494812 0.75528818368911743164 0.10413599759340286255 0.45539191365242004395 0.55151337385177612305 0.66666722297668457031 0.41161060333251953125 0.53547507524490356445 0.37238010764122009277 0.42810329794883728027 0.4690932929515838623 0.51528847217559814453 0.46618351340293884277 0.64912950992584228516 0.53787660598754882813 0.89872431755065917969 1 0.70917510986328125 0 0 0 
0.70968168973922729492 0.82429087162017822266 0.90749007463455200195 0.4169234931468963623 0.75451391935348510742 0.57309502363204956055 0.49921411275863647461 0.84939581155776977539 0.53758710622787475586 0.813823699951171875 0.71864467859268188477 0.82367241382598876953 0.74878209829330444336 0.95230251550674438477 1 0.96408301591873168945 0.79071688652038574219 0.80011689662933349609 0.18482409417629241943 0.70144951343536376953 0.71668618917465209961 0.85168302059173583984 0.77874529361724853516 0.71337741613388061523 0.60469901561737060547 0.53460872173309326172 0.58160871267318725586 0.091324746608734130859 0.55847191810607910156 0.032903891056776046753 0.003317790105938911438 0.0012358099920675158501 0.10979370027780532837 0.10177139937877655029 0.70559251308441162109 0.37885558605194091797 0.39568841457366943359 0.11130400002002716064 0.22092710435390472412 0.067200191318988800049 0.36799541115760803223 0.29666280746459960938 0.13804230093955993652 0.10575979948043823242 0.25159651041030883789 0.44140478968620300293 0.39812260866165161133 0.46693658828735351563 0.54575318098068237305 0.57620471715927124023 0.59110409021377563477 0.24844489991664886475 0.69944691658020019531 0.57818257808685302734 0.72024798393249511719 0.66762757301330566406 0 0 
0.45664268732070922852 0.25395789742469787598 0.25672298669815063477 0.08266544342041015625 0.76061528921127319336 0.91743969917297363281 0.92863422632217407227 0.87886190414428710938 0.78509998321533203125 0.85374778509140014648 0.90021187067031860352 0.65489828586578369141 0.91219812631607055664 0.80000668764114379883 0.99338531494140625 0.92282032966613769531 0.7463932037353515625 0.53006350994110107422 0.074172109365463256836 0.55189418792724609375 0.74943107366561889648 0.87638187408447265625 0.85584658384323120117 0.80308181047439575195 0.57507950067520141602 0.20970439910888671875 0.57159250974655151367 0.3772175908088684082 0.23307999968528747559 0.0044668698683381080627 0.0017632000381126999855 0.0016348999924957752228 0.0079264696687459945679 0.010657150298357009888 0.031505510210990905762 0.086839258670806884766 0.51104527711868286133 0.56618291139602661133 0.0088101206347346305847 0.39657220244407653809 0.88466411828994750977 0.4195931851863861084 0.032340370118618011475 0.25974410772323608398 0.1152148023247718811 0.47647649049758911133 0.87031382322311401367 0.77161622047424316406 0.59055548906326293945 0.40460738539695739746 0.63194227218627929688 0.49512389302253723145 0.4475879967212677002 0.62193989753723144531 0.68830072879791259766 0.65868002176284790039 0.95324051380157470703 0 
0.17089310288429260254 0.38469031453132629395 0.29107150435447692871 0.34487551450729370117 0.71242827177047729492 0.39428418874740600586 0.8740940093994140625 0.79381632804870605469 0.77418828010559082031 0.63325709104537963867 0.68404608964920043945 0.71603220701217651367 0.75691992044448852539 0.80440157651901245117 0.9527149200439453125 0.95086318254470825195 0.75124597549438476563 0.22899599373340606689 0.093053266406059265137 0.57590222358703613281 0.74400001764297485352 0.92876952886581420898 0.92162191867828369141 0.90167152881622314453 0.63981282711029052734 0.51303118467330932617 0.62005937099456787109 0.67401957511901855469 0.69396167993545532227 0.015907039865851402283 0.0024889800697565078735 0.10062240064144134521 0.12408349663019180298 0.02070317976176738739 0.12343080341815948486 0.20820020139217376709 0.45771750807762145996 0.25436490774154663086 0.10412470251321792603 0.17873850464820861816 0.55180150270462036133 0.60632467269897460938 0.35663369297981262207 0.19913740456104278564 0.16216400265693664551 0.77964687347412109375 0.52714288234710693359 0 0.80135887861251831055 0.62005591392517089844 0.46448540687561035156 0.49508708715438842773 0.38059520721435546875 0.29479920864105224609 0.28952988982200622559 0.68941032886505126953 0.85124337673187255859 0.73000001907348632813 
0.13868850469589233398 0.42221081256866455078 0.25980320572853088379 0.44022598862648010254 0.79337608814239501953 0.48720979690551757813 0.43159058690071105957 0.9546756744384765625 0.76390188932418823242 0.86057847738265991211 0.88004499673843383789 0.86857420206069946289 0.91369879245758056641 0.9412810206413269043 0.93600428104400634766 0.97800439596176147461 0.94712358713150024414 0.88837617635726928711 0.28530961275100708008 0.41418889164924621582 0 0.63969361782073974609 0.70427668094635009766 0.70698881149291992188 0.7907053828239440918 0.53565418720245361328 0.29852470755577087402 0.0018083100439980626106 0.0066590798087418079376 0.060255259275436401367 0.11265990138053894043 0.18761320412158966064 0.16398139297962188721 0.16213080286979675293 0.19080659747123718262 0.27042049169540405273 0.44341370463371276855 0.84173470735549926758 0.56138217449188232422 0.50658398866653442383 0.53257411718368530273 0.49562570452690124512 0.33243611454963684082 0.37125420570373535156 0.88810950517654418945 0.44599568843841552734 0.83313572406768798828 0.32847309112548828125 0.61195641756057739258 0.82321411371231079102 0.67394930124282836914 0.56569439172744750977 0.57949692010879516602 0.64929372072219848633 0.53073590993881225586 0.5788376927375793457 0.63710302114486694336 0.90989851951599121094 
0.11294809728860855103 0.33647859096527099609 0.57282692193984985352 0.3944607079029083252 0.69975507259368896484 0.067754402756690979004 0.36830461025238037109 0.98607802391052246094 0.83541351556777954102 0.81486070156097412109 0.83221358060836791992 0.69696611166000366211 0.77695161104202270508 0.90188819169998168945 0.83555257320404052734 0.95994162559509277344 0.89374321699142456055 0.6515324711799621582 0.14213649928569793701 0.51125788688659667969 0.81197601556777954102 0 0.67697298526763916016 0.98572182655334472656 0.98529541492462158203 0.75556087493896484375 0.0057598198764026165009 0.12361869961023330688 0.081636823713779449463 0.014579109847545623779 0.011572379618883132935 0.140356406569480896 0.19347479939460754395 0.24774460494518280029 0.26055040955543518066 0.32837110757827758789 0.69731658697128295898 0.85503172874450683594 0.71879160404205322266 0.51072877645492553711 0.50587308406829833984 0.50181120634078979492 0.41346529126167297363 0.40521290898323059082 0.60177028179168701172 0.85216259956359863281 0.73843741416931152344 0.41246938705444335938 0.63775247335433959961 0.60163587331771850586 0.72015100717544555664 0.77131682634353637695 0.93266808986663818359 0.48276180028915405273 0.5664958953857421875 0.56270122528076171875 0.46672379970550537109 0.85482817888259887695 
0.19603730738162994385 0.53294068574905395508 0.60874927043914794922 0.68503099679946899414 0.91097187995910644531 0.84446477890014648438 0.82950651645660400391 0.86181670427322387695 0.94914948940277099609 0.89536297321319580078 0.43640619516372680664 0.43494379520416259766 0.97641777992248535156 0.96556329727172851563 0.98132872581481933594 0.98178857564926147461 0.83929419517517089844 0.53419727087020874023 0.38605049252510070801 0.70885121822357177734 0.90939998626708984375 0.76568758487701416016 0.99271219968795776367 0.99106901884078979492 0.9846655726432800293 0.96968102455139160156 0.12072099745273590088 0.83918547630310058594 0.98868262767791748047 0.48598191142082214355 0.13915090262889862061 0.13894729316234588623 0.24826960265636444092 0.25072228908538818359 0.29235979914665222168 0.31430360674858093262 0.64517712593078613281 0.95055311918258666992 0.73948591947555541992 0.63034898042678833008 0.37146261334419250488 0.46194091439247131348 0.39972358942031860352 0.61489510536193847656 0.52320462465286254883 0.88295990228652954102 0.35944780707359313965 0.42836090922355651855 0.72402012348175048828 0.63139587640762329102 0.5446224212646484375 0.84324127435684204102 0.92665368318557739258 0.67626678943634033203 0.54500788450241088867 0.74544697999954223633 0.39406579732894897461 0.67648017406463623047 
0.37129080295562744141 0.37523540854454040527 0.48572498559951782227 0.40054738521575927734 0.85718101263046264648 0.78279972076416015625 0.80065292119979858398 0.97679680585861206055 0.87673169374465942383 0.94165682792663574219 0.80240052938461303711 0.77793371677398681641 0.96260911226272583008 0.98840630054473876953 0.96495610475540161133 0.88438612222671508789 0.87055909633636474609 0.84695541858673095703 0.29460069537162780762 0.76879179477691650391 0.98160398006439208984 0.97630548477172851563 0.59017831087112426758 0.59809142351150512695 0.00065877998713403940201 0.057895399630069732666 0.47058659791946411133 0.49806579947471618652 0.30325660109519958496 0.0054426002316176891327 0.40658029913902282715 0.27571690082550048828 0.29023849964141845703 0.30086478590965270996 0.21880440413951873779 0.21415489912033081055 0.32126671075820922852 0.36824870109558105469 0.50692468881607055664 0.51418870687484741211 0.62347441911697387695 0.93684327602386474609 0.73002982139587402344 0.85757559537887573242 0.23859730362892150879 0.6087080836296081543 0.41702139377593994141 0.34920358657836914063 0.70545238256454467773 0.43094581365585327148 0.4666588902473449707 0.90152722597122192383 0.69145852327346801758 0.60390752553939819336 0.70017600059509277344 0.59933352470397949219 0.67339777946472167969 0.62227320671081542969 
0.32597029209136962891 0.38727408647537231445 0.53491562604904174805 0.61424982547760009766 0.75745087862014770508 0.77299451828002929688 0.80502301454544067383 0.63477689027786254883 0.70019829273223876953 0.849025726318359375 0.6199023127555847168 0.78179061412811279297 0.90371757745742797852 0.96542090177536010742 0.92137902975082397461 0.86583030223846435547 0.88796651363372802734 0.71624869108200073242 0.47915530204772949219 0.68146342039108276367 0.99384427070617675781 0.98516201972961425781 0.6093947291374206543 0.0043678600341081619263 0.060935761779546737671 0.31336170434951782227 0.45679339766502380371 0.47445160150527954102 0.49652710556983947754 0.32356330752372741699 0.015448279678821563721 0.26898780465126037598 0.31795489788055419922 0.35044321417808532715 0.37778940796852111816 0.22110100090503692627 0.31027430295944213867 0.35060349106788635254 0.38633820414543151855 0.31828668713569641113 0.3544673919677734375 0.69344621896743774414 0.58386552333831787109 0.62983882427215576172 0.85243028402328491211 0.46068361401557922363 0.14345249533653259277 0.44482138752937316895 0.77868962287902832031 0.41465270519256591797 0.49242770671844482422 0.62595647573471069336 0.71730142831802368164 0.82825577259063720703 0.63648897409439086914 0.76294851303100585938 0.61580127477645874023 0.69526779651641845703 
0.35724729299545288086 0.44925299286842346191 0.51348471641540527344 0.75054371356964111328 0.87496191263198852539 0.74370008707046508789 0.77850508689880371094 0.7236480712890625 0.76142227649688720703 0.89876770973205566406 0.89440011978149414063 0.89034122228622436523 0.36738169193267822266 0.6029980778694152832 0.92693972587585449219 0.941158294677734375 0.86366808414459228516 0.11733350157737731934 0.088297076523303985596 0.95552748441696166992 0.78362870216369628906 0.8587201237678527832 0.63853752613067626953 0.065087370574474334717 0.32682880759239196777 0.3266162872314453125 0.028240889310836791992 0.002207889920100569725 0.0021914099343121051788 0.0022359900176525115967 0.017019400373101234436 0.32605558633804321289 0.32959789037704467773 0.33397069573402404785 0.34203419089317321777 0.52787047624588012695 0.91942298412322998047 0.20132389664649963379 0.1856126934289932251 0.26921689510345458984 0.26052141189575195313 0.38722380995750427246 0.52748638391494750977 0.84357047080993652344 0.56806778907775878906 0.58662241697311401367 0.048872049897909164429 0.050801940262317657471 0.5912392735481262207 0.48649820685386657715 0.97134357690811157227 0.7623538970947265625 0.70091390609741210938 0.97177422046661376953 0.92697691917419433594 0.66364121437072753906 0.79003548622131347656 0.68889212608337402344 
0.31832051277160644531 0.081471212208271026611 0.38575890660285949707 0.73496192693710327148 0.91678732633590698242 0.83853232860565185547 0.68653208017349243164 0.77646279335021972656 0.58935469388961791992 0.85565048456192016602 0.65447998046875 0.69958597421646118164 0.15432749688625335693 0.53170418739318847656 0.80431139469146728516 0.85095238685607910156 0.78001701831817626953 0.15969860553741455078 0.89279472827911376953 0.86679762601852416992 0.9407367706298828125 0.79611611366271972656 0.73133140802383422852 0.080122433602809906006 0.32693409919738769531 0.32674890756607055664 0.015006699599325656891 0.0013704600278288125992 0.021732350811362266541 0.016814019531011581421 0.0026433900929987430573 0.016595609486103057861 0.33001318573951721191 0.33073499798774719238 0.40632221102714538574 0.39062890410423278809 0.98496848344802856445 0.96012711524963378906 0.18778330087661743164 0.24301689863204956055 0.23654909431934356689 0.29989770054817199707 0.69209647178649902344 0.87124818563461303711 0.95878738164901733398 0.40850278735160827637 0.49502348899841308594 0.26323109865188598633 0.67232292890548706055 0.76489371061325073242 0.31560561060905456543 0.89800417423248291016 0.85025727748870849609 0.97061651945114135742 0.93123441934585571289 0.7130553126335144043 0.81146061420440673828 0.76383751630783081055 
0.29957780241966247559 0.20442649722099304199 0.35267621278762817383 0.61999499797821044922 0.81337249279022216797 0.40896400809288024902 0.13425390422344207764 0.11298970133066177368 0.3199087977409362793 0.84315991401672363281 0.72992271184921264648 0.68321251869201660156 0.63377308845520019531 0.7908089756965637207 0.98106008768081665039 0.94203239679336547852 0.069012247025966644287 0.87510329484939575195 0.66884750127792358398 0 0.30962568521499633789 0.76685988903045654297 0.94271987676620483398 0.12294589728116989136 0.92762482166290283203 0.32681471109390258789 5.3659998229704797268e-05 9.49599998421035707e-05 1.2100000503778574057e-06 3.0539998988388106227e-05 0.00039843999547883868217 0.0028377899434417486191 0.33418551087379455566 0.33169460296630859375 0.33807471394538879395 0.55385261774063110352 0.86439841985702514648 0.52383810281753540039 0.43711030483245849609 0.89136677980422973633 0.2205606997013092041 0.21387679874897003174 0.34027141332626342773 0.30501970648765563965 0.41175320744514465332 0.34307879209518432617 0.3585281074047088623 0.6622803807258605957 0.69173401594161987305 0.86596387624740600586 0.88681268692016601563 0.90984898805618286133 0.85078728199005126953 0.98487752676010131836 0.95729410648345947266 0.82744622230529785156 0.83632218837738037109 0.88172477483749389648 
0.32996439933776855469 0.49209991097450256348 0.48173120617866516113 0.43681940436363220215 0.82218468189239501953 0.13328319787979125977 0.052216220647096633911 0.82154619693756103516 0.31588929891586303711 0.9697272181510925293 0.76604217290878295898 0.69497251510620117188 0.089672088623046875 0.89382898807525634766 0.97037392854690551758 0.84421318769454956055 0.46517980098724365234 0 0.47065401077270507813 0.99393767118453979492 0.46981459856033325195 0.81976020336151123047 0.99993711709976196289 0.99870431423187255859 0.99979537725448608398 0.0021905300673097372055 4.7559999075019732118e-05 0 2.4900000425986945629e-06 3.3770000300137326121e-05 4.2400001802889164537e-06 0.0015961299650371074677 0.99976330995559692383 0.99927377700805664063 0.99612838029861450195 0.99571818113327026367 0.71635651588439941406 0.27909439802169799805 0.23951129615306854248 0.86694091558456420898 0.86360251903533935547 0.2749862968921661377 0.38550499081611633301 0.43628680706024169922 0.51816391944885253906 0.3220354914665222168 0.10994199663400650024 0.3624292910099029541 0.77514809370040893555 0.97876441478729248047 0.91924232244491577148 0 0.89680612087249755859 0.98516058921813964844 0.93484950065612792969 0.93841248750686645508 0.72145950794219970703 0.67760008573532104492 
0.32784068584442138672 0.34666138887405395508 0.47223120927810668945 0.36456659436225891113 0.47924691438674926758 0.67546361684799194336 0.39887869358062744141 0.73470848798751831055 0.94435518980026245117 0.98292481899261474609 0.69304281473159790039 0.96886831521987915039 0.94053179025650024414 0.47669389843940734863 0.97643369436264038086 0.74965381622314453125 0.018469739705324172974 0 0.40211760997772216797 0 0.99976211786270141602 0.99992680549621582031 0.99996477365493774414 0.99976402521133422852 0.99998801946640014648 0.00019568999414332211018 0 7.6199999057280365378e-06 0 1.865000012912787497e-05 7.0069996581878513098e-05 0.00078479998046532273293 0.99422228336334228516 0.99934190511703491211 0.99984282255172729492 0.99988830089569091797 0.99899542331695556641 0.52012997865676879883 0.27442649006843566895 0.38807120919227600098 0.29120740294456481934 0.29317840933799743652 0.30075019598007202148 0.44933208823204040527 0.39270320534706115723 0.58708322048187255859 0.35130590200424194336 0.2674109041690826416 0.62229782342910766602 0.97064119577407836914 0.98827517032623291016 0.93804198503494262695 0.93545478582382202148 0.97390788793563842773 0.93100267648696899414 0.96915292739868164063 0.82061582803726196289 0.51025319099426269531 
0.27439060807228088379 0.3002611994743347168 0.50420922040939331055 0.69303882122039794922 0.694019317626953125 0.9155216217041015625 0.92333161830902099609 0.83395868539810180664 0.6973419189453125 0.83354777097702026367 0.55699717998504638672 0.91342628002166748047 0.25614601373672485352 0.0038275299593806266785 0 0 0 0 0 0 0.99837577342987060547 0.99995940923690795898 0.99996858835220336914 0.99998289346694946289 0.0096770199015736579895 0 0 0 1.1590000212891027331e-05 0.16929970681667327881 0.00010451999696670100093 6.790000043110921979e-06 0.49592319130897521973 0.50555598735809326172 0.9997857213020324707 0.99992978572845458984 0.99986511468887329102 0.39030981063842773438 0.47072198987007141113 0.2801685035228729248 0.29081520438194274902 0.32376238703727722168 0.29828611016273498535 0.88174778223037719727 0.4521445930004119873 0.54374969005584716797 0.6875603795051574707 0.62721502780914306641 0.36143991351127624512 0.83313697576522827148 0.95242357254028320313 0.92664748430252075195 0.88881909847259521484 0.93348562717437744141 0.87323820590972900391 0.91846901178359985352 0.94100207090377807617 0.81714457273483276367 
0.074228100478649139404 0.24780519306659698486 0.10327540338039398193 0.712123870849609375 0.72824090719223022461 0.32592260837554931641 0.33175298571586608887 0.67036992311477661133 0.23549290001392364502 0 0.32411170005798339844 0.10064160078763961792 0.25341001152992248535 0.58970761299133300781 0.91430628299713134766 0.94565451145172119141 9.0000000341206032317e-08 0.99961578845977783203 0.99846208095550537109 0 0.99802261590957641602 0.99992692470550537109 0.99995779991149902344 0.99992400407791137695 0.99169051647186279297 6.7599999056255910546e-06 8.5299998318077996373e-06 4.8900001274887472391e-06 0.00025134001043625175953 0.16915260255336761475 0.0013597200158983469009 0 0.48355349898338317871 0.49993789196014404297 0.50222027301788330078 0.5263525843620300293 0.98598951101303100586 0.98168021440505981445 0.33242920041084289551 0.48395010828971862793 0.25005760788917541504 0.0022746799513697624207 0.026124730706214904785 0.70057731866836547852 0.80562472343444824219 0.63249337673187255859 0.61360490322113037109 0.83033597469329833984 0.85749268531799316406 0.70184552669525146484 0.75419121980667114258 0.77192568778991699219 0.77875238656997680664 0.78609520196914672852 0.89072710275650024414 0.81631368398666381836 0.68348032236099243164 0.55861479043960571289 
0.2260154038667678833 0.37349769473075866699 0.15205059945583343506 0.089181907474994659424 0.18404249846935272217 0.86514621973037719727 0.65885710716247558594 0.0075616501271724700928 0.0084481500089168548584 0.45816528797149658203 0 0.96156018972396850586 0.31955480575561523438 0 0 0.97224479913711547852 1.5000000530562829226e-07 0.99972462654113769531 4.8999999080479028635e-07 7.8299999586306512356e-06 0.99696862697601318359 0.99974930286407470703 0.50523680448532104492 0.50013422966003417969 0.5 0.00046151998685672879219 3.1139999919105321169e-05 0.00012523999612312763929 0.00025375001132488250732 1.1740000445570331067e-05 5.6730001233518123627e-05 0 0.46086040139198303223 0.49982810020446777344 0.50155580043792724609 0.50389832258224487305 0.36334589123725891113 0.34131219983100891113 0.33250311017036437988 0.33207398653030395508 0.49687230587005615234 0.0056209499016404151917 0.0012147000525146722794 0.076835870742797851563 0.36100891232490539551 0.99641400575637817383 0.67733818292617797852 0.69154310226440429688 0.86528801918029785156 0.56515747308731079102 0.5986353754997253418 0.70674532651901245117 0.78571307659149169922 0.79370832443237304688 0.79270797967910766602 0.79563820362091064453 0.75014531612396240234 0.7496318817138671875 
0.52056282758712768555 0.37016120553016662598 0.17965899407863616943 0.061723340302705764771 0.6032428741455078125 0.62862920761108398438 0.23262569308280944824 0.68637448549270629883 0.61124092340469360352 0.0018524799961596727371 0 0.00020744999346788972616 0 0.30120939016342163086 0.49977728724479675293 0.99985367059707641602 0.99985331296920776367 0.99971652030944824219 0.99968057870864868164 0.32959929108619689941 0.99799990653991699219 0.99946987628936767578 0.50000518560409545898 0.5 0.5 0.070349231362342834473 0.025060620158910751343 0.20063039660453796387 0.1685135960578918457 0.00032521001412533223629 2.9849999918951652944e-05 0 0.027655549347400665283 0.4992783963680267334 0.5000203251838684082 0.50156080722808837891 0.35473001003265380859 0.33047381043434143066 0.22427250444889068604 0.076975651085376739502 0.3310908973217010498 0.49688228964805603027 0.2872600853443145752 0.022834090515971183777 0.25013071298599243164 0.30218181014060974121 0.99572652578353881836 0.68700492382049560547 0.2574583888053894043 0.71732550859451293945 0.73078668117523193359 0.92256218194961547852 0.61803191900253295898 0.84022998809814453125 0.80712240934371948242 0.83217632770538330078 0.9071171879768371582 0.84405761957168579102 
0.98034018278121948242 0.39976608753204345703 0.55919361114501953125 0.049026079475879669189 0.060970429331064224243 0.016037169843912124634 0.1323572993278503418 0.037572950124740600586 0.039915829896926879883 0.0031726199667900800705 1.8509999790694564581e-05 2.5659999664640054107e-05 0 0 0.00060197000857442617416 0.99989181756973266602 0.33003079891204833984 0.33000031113624572754 0.33000001311302185059 0.32999840378761291504 0.32977581024169921875 0 0.4999910891056060791 0.49999418854713439941 0.49999418854713439941 0.49861609935760498047 0.48156958818435668945 0.18639239668846130371 0.00027759998920373618603 0.0013279099948704242706 3.1300000955525320023e-06 0.00026098001399077475071 0.060902878642082214355 0.49994760751724243164 0.49998119473457336426 0.5 0.43659201264381408691 0.34107029438018798828 0.32962539792060852051 0.12622879445552825928 0.001344269956462085247 0.18321469426155090332 0.38950380682945251465 0.00061132997507229447365 0.0010934600140899419785 0.24811470508575439453 0.33066299557685852051 0.33131629228591918945 0.96193778514862060547 0.26325219869613647461 0.32480451464653015137 0.46762579679489135742 0.47467631101608276367 0.52088087797164916992 0.58936488628387451172 0.50686538219451904297 0.51050388813018798828 0 
0.22942219674587249756 0.3238264918327331543 0.15037450194358825684 0.3258526921272277832 0.32910209894180297852 0.13811570405960083008 0.047321099787950515747 0.037555351853370666504 0.00021661000209860503674 3.9100000321923289448e-06 0 8.6000000010244548321e-07 0 0 0.32989481091499328613 0.33000019192695617676 0.33000010251998901367 0.3299998939037322998 0.33000019192695617676 0.32999968528747558594 0.32834139466285705566 0.32850620150566101074 0.49796620011329650879 0.49997991323471069336 0.49981939792633056641 0.4943479001522064209 0.4759953916072845459 0.18173359334468841553 0.1734898984432220459 0.0010750900255516171455 3.1600000056641874835e-06 3.1399999897985253483e-06 0.33209851384162902832 0.4877598881721496582 0.4999637901782989502 0.5 0.49945989251136779785 0.36368098855018615723 0.32987931370735168457 0.32903560996055603027 0.0028822899330407381058 0.0010876100277528166771 0.041007310152053833008 0.00032240999280475080013 0.0006073199911043047905 0.00078142998972907662392 0.32864159345626831055 0.32978859543800354004 0.32442590594291687012 0.98582220077514648438 0.017495499923825263977 0.52880018949508666992 0.52205497026443481445 0.53719878196716308594 0.64503580331802368164 0 0.96132248640060424805 0.55891251564025878906 
0.0011612500529736280441 0.015246570110321044922 0.0057020201347768306732 0.00020284000493120402098 0.0096629802137613296509 0.0090699605643749237061 0.001900480012409389019 8.9999994088429957628e-06 9.2999999878884409554e-07 2.6699999580159783363e-06 0 0 0 0 0.32999348640441894531 0.33000048995018005371 0.33000048995018005371 0.33000001311302185059 0.33000001311302185059 0.33000001311302185059 4.3069998355349525809e-05 4.6699999074917286634e-05 0.32948029041290283203 0.0098218796774744987488 0.013277590274810791016 0.26057770848274230957 0.21616490185260772705 0.18284560739994049072 0.17421349883079528809 0.00033474000520072877407 3.1600000056641874835e-06 0.0028916299343109130859 0.32875931262969970703 0.34848770499229431152 0.49928510189056396484 0.5 0.49966970086097717285 0.42560940980911254883 0.32974579930305480957 0.3273118138313293457 0.069371603429317474365 0.00084877997869625687599 0.00037344999145716428757 3.15399993269238621e-05 0.0006172999856062233448 0.00070357997901737689972 0.024355100467801094055 0.3163528144359588623 0.4768644869327545166 0.51555848121643066406 0.79634749889373779297 0.52390402555465698242 0.5172036290168762207 0.63070541620254516602 0.37146720290184020996 0.20490519702434539795 0.97062522172927856445 0.71806722879409790039 
0.16360150277614593506 0.018395369872450828552 0.00073885999154299497604 4.9900001613423228264e-05 2.9029999495833180845e-05 0.00012774999777320772409 0.0001879000046756118536 5.9899998632317874581e-06 1.3999999737279722467e-07 3.9999999756901161163e-08 0 0 0 0 0.33000001311302185059 0.32992079854011535645 0.32997238636016845703 0.33000001311302185059 0.33000001311302185059 0.32999050617218017578 0.32998949289321899414 0.000963620026595890522 0.3169791102409362793 0.32993638515472412109 0.01763953082263469696 0.00011880999954883009195 0.085364133119583129883 0.29988211393356323242 0.022110259160399436951 6.9799998527741990983e-06 0.0019797899294644594193 0.32590010762214660645 0.32989490032196044922 0.33003368973731994629 0.49762448668479919434 0.4991576075553894043 0.49110078811645507813 0.096394672989845275879 0.32958620786666870117 0.32962310314178466797 0.30224728584289550781 0.0073264702223241329193 0.00034379999851807951927 0.0001778599980752915144 0.00021779999951831996441 0.0029137600213289260864 0.00096254999516531825066 0.20425039529800415039 0.010316359810531139374 0.92155778408050537109 0.54982322454452514648 0.21443870663642883301 0.011091520078480243683 0.0040661999955773353577 0.0056627797894179821014 0.043482318520545959473 0.051444470882415771484 0.83567410707473754883 
0.015296149998903274536 0.001611990039236843586 0.0011824100511148571968 9.4300003183889202774e-06 7.2609997005201876163e-05 4.4499997784441802651e-06 7.7999999348321580328e-07 6.9999998686398612335e-08 7.9999999513802322326e-08 0 0 1.0400000292065669782e-06 1.1310000445519108325e-05 0.33000001311302185059 0.32924360036849975586 0.32990270853042602539 0.32996329665184020996 0.32999059557914733887 0.32999071478843688965 0.32996609807014465332 0.32998800277709960938 0.32929959893226623535 0.00047436999739147722721 0.32995060086250305176 0.30856570601463317871 0.0002524300070945173502 0.35915869474411010742 0.30373871326446533203 0.30818021297454833984 7.1540001954417675734e-05 0.010870659723877906799 0.32509338855743408203 0.32989731431007385254 0.32992029190063476563 0.48731899261474609375 0.49248149991035461426 0.48419180512428283691 0.006924389861524105072 0.32666930556297302246 0.32965999841690063477 0.24240200221538543701 0.036410421133041381836 0.0031531900167465209961 0.00018199000624008476734 0 0.00026930001331493258476 0.005410380195826292038 0.024531390517950057983 0.0096948603168129920959 0.024897670373320579529 0.9784088134765625 0.49009698629379272461 0.22553940117359161377 0.084941692650318145752 0.029144449159502983093 0.023804999887943267822 0.019078290089964866638 0.90826380252838134766 
0.12812510132789611816 0.057701099663972854614 0.0013056800235062837601 0.00099855998996645212173 0.32998189330101013184 5.9000001328968210146e-07 0 0 0 0 2.159999894502107054e-06 4.9800000851973891258e-06 0.00035938000655733048916 0.32972788810729980469 0.32919728755950927734 0.28459051251411437988 0.079931721091270446777 0.32993879914283752441 0.32976031303405761719 0.00029671000083908438683 0.32998219132423400879 0.32942160964012145996 7.646998710697516799e-05 0.32991859316825866699 0.32526418566703796387 0.00027243001386523246765 0.43486478924751281738 0.31052789092063903809 0.30983850359916687012 0.0011022400576621294022 0.0017352299764752388 0.32792928814888000488 0.32997781038284301758 0.33000001311302185059 0.33000001311302185059 0.34263598918914794922 0.092971280217170715332 0.00022022999473847448826 0.051594749093055725098 0.3296197056770324707 0.248014107346534729 0.013308149762451648712 0.012110110372304916382 0.00028731999918818473816 0.00017661000310909003019 0.00017773000581655651331 0.0065387999638915061951 0.45908761024475097656 0.013334609568119049072 0.032992739230394363403 0.30027741193771362305 0.68776762485504150391 0.038189601153135299683 0.0024375100620090961456 0.00016085000243037939072 0.00055355002405121922493 0.0081602595746517181396 0.94802367687225341797 
